%
(Header)
(Generated by gcodetools from Inkscape.)
(Using default header. To add your own header create file "header" in the output dir.)
M3
(Header end.)
G21 (All units in mm)

(Start cutting path id: path1042)
(Change tool to Default tool)

G00 Z 5.0000
G00 X 34.3958 Y 138.7173

G01 Z -0.1250 F 100.0000(Penetrate)
G01 X 82.0208 Y 187.4762 Z -0.1250 F 400.0000
G01 X 212.0446 Y 188.6101 Z -0.1250
G01 X 262.5091 Y 140.3052 Z -0.1250
G01 X 34.3958 Y 138.7173 Z -0.1250
G00 Z 5.0000

(End cutting path id: path1042)


(Start cutting path id: path1044)
(Change tool to Default tool)

G00 Z 5.0000
G00 X 62.7280 Y 152.9305

G01 Z -0.1250 F 100.0000(Penetrate)
G01 X 55.3003 Y 152.9137 Z -0.1250 F 400.0000
G01 X 41.1886 Y 140.2510 Z -0.1250
G01 X 35.8570 Y 140.2496 Z -0.1250
G01 X 90.3563 Y 187.0080 Z -0.1250
G01 X 94.1852 Y 187.0373 Z -0.1250
G01 X 57.4735 Y 140.2549 Z -0.1250
G01 X 52.1142 Y 140.2536 Z -0.1250
G01 X 62.7280 Y 152.9305 Z -0.1250
G00 Z 5.0000

(End cutting path id: path1044)


(Start cutting path id: path1044)
(Change tool to Default tool)

G00 Z 5.0000
G00 X 66.8355 Y 163.2720

G01 Z -0.1250 F 100.0000(Penetrate)
G01 X 71.3872 Y 163.2897 Z -0.1250 F 400.0000
G01 X 85.1977 Y 179.7676 Z -0.1250
G01 X 66.8355 Y 163.2719 Z -0.1250
G00 Z 5.0000

(End cutting path id: path1044)


(Start cutting path id: path1046)
(Change tool to Default tool)

G00 Z 5.0000
G00 X 84.7693 Y 163.8768

G01 Z -0.1250 F 100.0000(Penetrate)
G01 X 65.5505 Y 140.2568 Z -0.1250 F 400.0000
G01 X 60.2052 Y 140.2555 Z -0.1250
G01 X 100.4516 Y 187.0850 Z -0.1250
G01 X 105.3731 Y 187.1226 Z -0.1250
G02 X 107.1012 Y 186.4967 Z -0.1250 I 0.0206 J -2.6417
G02 X 107.5828 Y 185.2384 Z -0.1250 I -0.9041 J -1.0673
G02 X 106.9847 Y 183.4055 Z -0.1250 I -5.2588 J 0.7018
G02 X 103.8662 Y 178.4488 Z -0.1250 I -40.5524 J 22.0540
G02 X 101.1159 Y 174.9113 Z -0.1250 I -50.7340 J 36.6077
G02 X 98.6347 Y 172.2089 Z -0.1250 I -30.5659 J 25.5727
G02 X 95.7849 Y 169.6980 Z -0.1250 I -21.7585 J 21.8226
G02 X 93.3800 Y 168.1350 Z -0.1250 I -10.4535 J 13.4525
G02 X 93.5327 Y 167.5540 Z -0.1250 I -0.5943 J -0.4667
G02 X 92.9843 Y 165.5764 Z -0.1250 I -8.5636 J 1.3097
G02 X 92.0768 Y 163.5836 Z -0.1250 I -21.5329 J 8.6028
G02 X 89.5761 Y 158.9527 Z -0.1250 I -113.7662 J 58.4437
G01 X 78.9606 Y 140.2601 Z -0.1250
G01 X 73.2443 Y 140.2587 Z -0.1250
G01 X 83.5443 Y 156.9367 Z -0.1250
G03 X 85.9830 Y 161.1490 Z -0.1250 I -73.0857 J 45.1248
G03 X 86.5638 Y 162.5001 Z -0.1250 I -7.1593 J 3.8783
G03 X 86.5239 Y 163.5240 Z -0.1250 I -1.3727 J 0.4592
G03 X 85.9816 Y 163.8817 Z -0.1250 I -0.5400 J -0.2288
G01 X 84.7693 Y 163.8774 Z -0.1250
G00 Z 5.0000

(End cutting path id: path1046)


(Start cutting path id: path1046)
(Change tool to Default tool)

G00 Z 5.0000
G00 X 93.0071 Y 171.9858

G01 Z -0.1250 F 100.0000(Penetrate)
G03 X 94.1513 Y 172.2389 Z -0.1250 I -0.0145 J 2.7786 F 400.0000
G03 X 95.7212 Y 173.2286 Z -0.1250 I -2.9335 J 6.3935
G03 X 97.0882 Y 174.5367 Z -0.1250 I -8.3834 J 10.1284
G03 X 99.1815 Y 177.0475 Z -0.1250 I -30.0252 J 27.1609
G03 X 100.9233 Y 179.5573 Z -0.1250 I -25.3134 J 19.4276
G03 X 101.3347 Y 180.4830 Z -0.1250 I -3.0620 J 1.9147
G03 X 101.1975 Y 181.1410 Z -0.1250 I -0.6832 J 0.2008
G03 X 100.5266 Y 181.4515 Z -0.1250 I -0.6650 J -0.5568
G01 X 99.0611 Y 181.4415 Z -0.1250
G01 X 91.3602 Y 171.9771 Z -0.1250
G01 X 93.0071 Y 171.9856 Z -0.1250
G00 Z 5.0000

(End cutting path id: path1046)


(Start cutting path id: path1050)
(Change tool to Default tool)

G00 Z 5.0000
G00 X 119.1340 Y 163.4760

G01 Z -0.1250 F 100.0000(Penetrate)
G01 X 123.7617 Y 163.4942 Z -0.1250 F 400.0000
G01 X 128.3798 Y 180.0486 Z -0.1250
G01 X 119.1340 Y 163.4761 Z -0.1250
G00 Z 5.0000

(End cutting path id: path1050)


(Start cutting path id: path1050)
(Change tool to Default tool)

G00 Z 5.0000
G00 X 120.8750 Y 153.0619

G01 Z -0.1250 F 100.0000(Penetrate)
G01 X 113.3094 Y 153.0448 Z -0.1250 F 400.0000
G01 X 106.1641 Y 140.2669 Z -0.1250
G01 X 100.7215 Y 140.2655 Z -0.1250
G01 X 129.4797 Y 187.3070 Z -0.1250
G01 X 133.3562 Y 187.3366 Z -0.1250
G01 X 122.7887 Y 140.2710 Z -0.1250
G01 X 117.3176 Y 140.2697 Z -0.1250
G01 X 120.8750 Y 153.0619 Z -0.1250
G00 Z 5.0000

(End cutting path id: path1050)


(Start cutting path id: path1048)
(Change tool to Default tool)

G00 Z 5.0000
G00 X 100.9330 Y 144.4304

G01 Z -0.1250 F 100.0000(Penetrate)
G02 X 97.9111 Y 141.8204 Z -0.1250 I -31.9147 J 33.8974 F 400.0000
G02 X 95.5957 Y 140.2117 Z -0.1250 I -14.0589 J 17.7641
G02 X 93.0536 Y 139.0082 Z -0.1250 I -7.1033 J 11.7179
G02 X 91.3553 Y 138.7173 Z -0.1250 I -1.6984 J 4.8112
G02 X 88.9183 Y 140.8135 Z -0.1250 I 0.0000 J 2.4646
G02 X 89.6981 Y 148.9675 Z -0.1250 I 16.6708 J 2.5200
G02 X 93.6021 Y 157.6457 Z -0.1250 I 55.5689 J -19.7812
G02 X 100.9311 Y 169.5732 Z -0.1250 I 129.1447 J -71.1391
G02 X 107.8863 Y 178.8422 Z -0.1250 I 105.8010 J -72.1459
G02 X 112.4086 Y 183.5961 Z -0.1250 I 35.4782 J -29.2217
G02 X 117.2290 Y 187.0174 Z -0.1250 I 16.2877 J -17.8422
G02 X 120.0326 Y 187.7367 Z -0.1250 I 2.8500 J -5.2846
G02 X 121.0262 Y 187.5970 Z -0.1250 I 0.0279 J -3.4044
G02 X 121.7473 Y 187.2292 Z -0.1250 I -0.6274 J -2.1211
G02 X 122.3042 Y 186.6232 Z -0.1250 I -1.4665 J -1.9065
G02 X 122.7628 Y 185.6455 Z -0.1250 I -3.4332 J -2.2068
G01 X 119.2396 Y 178.9936 Z -0.1250
G03 X 118.9830 Y 180.6177 Z -0.1250 I -8.2479 J -0.4708
G03 X 118.6070 Y 181.4199 Z -0.1250 I -2.3688 J -0.6210
G03 X 117.9721 Y 181.9473 Z -0.1250 I -1.3192 J -0.9421
G03 X 117.0428 Y 182.1498 Z -0.1250 I -0.9145 J -1.9639
G03 X 115.3984 Y 181.6722 Z -0.1250 I 0.0217 J -3.1445
G03 X 112.2785 Y 179.1597 Z -0.1250 I 8.8967 J -14.2407
G03 X 109.4295 Y 175.8390 Z -0.1250 I 24.4209 J -23.8348
G03 X 105.1099 Y 169.5936 Z -0.1250 I 76.1604 J -57.2925
G03 X 100.8292 Y 162.1708 Z -0.1250 I 85.8676 J -54.4645
G03 X 98.7861 Y 157.4030 Z -0.1250 I 30.2425 J -15.7813
G03 X 98.3813 Y 153.1165 Z -0.1250 I 8.7657 J -2.9902
G03 X 99.5678 Y 152.0880 Z -0.1250 I 1.1840 J 0.1674
G03 X 100.9407 Y 152.3558 Z -0.1250 I -0.0054 J 3.6808
G03 X 103.1223 Y 153.5201 Z -0.1250 I -4.3589 J 10.7940
G03 X 105.0916 Y 155.0396 Z -0.1250 I -11.5453 J 16.9986
G03 X 108.0003 Y 157.7735 Z -0.1250 I -35.7906 J 40.9932
G01 X 100.9330 Y 144.4304 Z -0.1250
G00 Z 5.0000

(End cutting path id: path1048)


(Start cutting path id: path1052)
(Change tool to Default tool)

G00 Z 5.0000
G00 X 141.4573 Y 181.4631

G01 Z -0.1250 F 100.0000(Penetrate)
G01 X 134.4785 Y 153.8832 Z -0.1250 F 400.0000
G01 X 136.2094 Y 153.8875 Z -0.1250
G03 X 138.6543 Y 154.7994 Z -0.1250 I -0.0081 J 3.7553
G03 X 141.6190 Y 158.5200 Z -0.1250 I -8.3943 J 9.7304
G03 X 143.4794 Y 163.0097 Z -0.1250 I -22.3990 J 11.9116
G03 X 145.1322 Y 169.8775 Z -0.1250 I -55.6482 J 17.0250
G03 X 145.8047 Y 176.0348 Z -0.1250 I -45.7886 J 8.1164
G03 X 145.5377 Y 178.8294 Z -0.1250 I -10.2412 J 0.4318
G03 X 144.3770 Y 180.8277 Z -0.1250 I -3.8847 J -0.9202
G03 X 142.7268 Y 181.4717 Z -0.1250 I -1.6341 J -1.7508
G01 X 141.4573 Y 181.4632 Z -0.1250
G00 Z 5.0000

(End cutting path id: path1052)


(Start cutting path id: path1052)
(Change tool to Default tool)

G00 Z 5.0000
G00 X 139.7005 Y 187.3852

G01 Z -0.1250 F 100.0000(Penetrate)
G01 X 143.1401 Y 187.4114 Z -0.1250 F 400.0000
G02 X 145.9164 Y 187.1223 Z -0.1250 I 0.0960 J -12.5518
G02 X 147.2555 Y 186.5090 Z -0.1250 I -0.7395 J -3.3834
G02 X 148.2603 Y 185.4055 Z -0.1250 I -2.1762 J -2.9907
G02 X 149.2047 Y 183.2056 Z -0.1250 I -7.9438 J -4.7126
G02 X 149.6639 Y 181.0098 Z -0.1250 I -14.4288 J -4.1637
G02 X 149.8955 Y 177.9186 Z -0.1250 I -27.1520 J -3.5890
G02 X 149.8167 Y 174.6395 Z -0.1250 I -38.8842 J -0.7060
G02 X 149.3545 Y 169.8980 Z -0.1250 I -76.7599 J 5.0899
G02 X 148.5335 Y 164.7190 Z -0.1250 I -89.5150 J 11.5347
G02 X 147.4686 Y 159.9517 Z -0.1250 I -71.6062 J 13.4936
G02 X 145.9623 Y 154.9996 Z -0.1250 I -60.9935 J 15.8467
G02 X 144.1763 Y 150.5761 Z -0.1250 I -47.5217 J 16.6152
G02 X 141.3636 Y 145.5251 Z -0.1250 I -33.6405 J 15.4243
G02 X 138.9621 Y 142.7647 Z -0.1250 I -11.7824 J 7.8257
G02 X 135.8476 Y 140.9950 Z -0.1250 I -5.9250 J 6.8021
G02 X 131.3324 Y 140.2731 Z -0.1250 I -4.5187 J 13.7818
G01 X 125.5774 Y 140.2717 Z -0.1250
G01 X 139.7005 Y 187.3852 Z -0.1250
G00 Z 5.0000

(End cutting path id: path1052)


(Start cutting path id: path1054)
(Change tool to Default tool)

G00 Z 5.0000
G00 X 154.1278 Y 187.4953

G01 Z -0.1250 F 100.0000(Penetrate)
G01 X 162.9776 Y 187.5629 Z -0.1250 F 400.0000
G01 X 163.1826 Y 181.6088 Z -0.1250
G01 X 157.1319 Y 181.5681 Z -0.1250
G01 X 156.8244 Y 174.8454 Z -0.1250
G01 X 163.0208 Y 174.8805 Z -0.1250
G01 X 163.2715 Y 166.4233 Z -0.1250
G01 X 156.4378 Y 166.3937 Z -0.1250
G01 X 155.8678 Y 153.9341 Z -0.1250
G01 X 164.4132 Y 153.9545 Z -0.1250
G01 X 164.9209 Y 140.2812 Z -0.1250
G01 X 149.7444 Y 140.2769 Z -0.1250
G01 X 154.1278 Y 187.4947 Z -0.1250
G00 Z 5.0000

(End cutting path id: path1054)


(Start cutting path id: path1060)
(Change tool to Default tool)

G00 Z 5.0000
G00 X 194.0473 Y 187.8003

G01 Z -0.1250 F 100.0000(Penetrate)
G01 X 198.2702 Y 187.8326 Z -0.1250 F 400.0000
G01 X 212.5259 Y 168.5658 Z -0.1250
G01 X 204.1571 Y 187.8776 Z -0.1250
G01 X 208.3847 Y 187.9098 Z -0.1250
G01 X 241.2971 Y 140.2999 Z -0.1250
G01 X 235.9571 Y 140.2986 Z -0.1250
G01 X 210.7262 Y 179.3830 Z -0.1250
G01 X 222.7090 Y 153.9257 Z -0.1250
G01 X 219.5603 Y 153.9185 Z -0.1250
G01 X 201.6861 Y 179.3262 Z -0.1250
G01 X 222.3244 Y 140.2955 Z -0.1250
G01 X 217.0011 Y 140.2942 Z -0.1250
G01 X 194.0473 Y 187.8005 Z -0.1250
G00 Z 5.0000

(End cutting path id: path1060)


(Start cutting path id: path1062)
(Change tool to Default tool)

G00 Z 5.0000
G00 X 211.6651 Y 187.9349

G01 Z -0.1250 F 100.0000(Penetrate)
G01 X 220.6753 Y 188.0038 Z -0.1250 F 400.0000
G01 X 225.8744 Y 182.0295 Z -0.1250
G01 X 219.7045 Y 181.9881 Z -0.1250
G01 X 225.0258 Y 175.2314 Z -0.1250
G01 X 231.3553 Y 175.2672 Z -0.1250
G01 X 238.7247 Y 166.7504 Z -0.1250
G01 X 231.7288 Y 166.7201 Z -0.1250
G01 X 241.6374 Y 154.1386 Z -0.1250
G01 X 250.4141 Y 154.1596 Z -0.1250
G01 X 262.5091 Y 140.3052 Z -0.1250
G01 X 246.8665 Y 140.3009 Z -0.1250
G01 X 211.6651 Y 187.9345 Z -0.1250
G00 Z 5.0000

(End cutting path id: path1062)


(Start cutting path id: path1064)
(Change tool to Default tool)

G00 Z 5.0000
G00 X 233.7995 Y 187.1967

G01 Z -0.1250 F 100.0000(Penetrate)
G01 X 240.8435 Y 180.4756 Z -0.1250 F 400.0000
G03 X 238.3134 Y 181.6679 Z -0.1250 I -24.8008 J -49.3443
G03 X 236.5979 Y 182.3478 Z -0.1250 I -9.8557 J -22.3645
G03 X 234.8558 Y 182.8478 Z -0.1250 I -5.0261 J -14.2282
G03 X 233.9023 Y 182.9495 Z -0.1250 I -0.9245 J -4.1461
G03 X 232.9953 Y 182.6371 Z -0.1250 I 0.0100 J -1.5019
G03 X 232.8010 Y 182.0984 Z -0.1250 I 0.3250 J -0.4216
G03 X 233.1489 Y 181.3278 Z -0.1250 I 2.0540 J 0.4633
G03 X 234.7816 Y 179.3667 Z -0.1250 I 15.1850 J 10.9822
G03 X 236.2337 Y 177.9789 Z -0.1250 I 15.9162 J 15.2006
G03 X 237.4409 Y 177.0503 Z -0.1250 I 8.1543 J 9.3520
G03 X 238.7579 Y 176.3054 Z -0.1250 I 5.9052 J 8.9038
G03 X 240.5257 Y 175.5849 Z -0.1250 I 7.2151 J 15.1729
G01 X 243.0962 Y 174.7152 Z -0.1250
G02 X 246.9223 Y 173.0830 Z -0.1250 I -8.6109 J -25.4863
G02 X 251.2983 Y 170.4262 Z -0.1250 I -18.2074 J -34.9217
G02 X 255.5450 Y 167.1574 Z -0.1250 I -33.9049 J -48.4397
G02 X 262.6474 Y 160.8180 Z -0.1250 I -112.3616 J -133.0344
G02 X 272.7710 Y 150.6348 Z -0.1250 I -152.5112 J -161.7430
G02 X 277.2813 Y 145.0407 Z -0.1250 I -36.7332 J -34.2317
G02 X 278.7285 Y 140.2832 Z -0.1250 I -6.6698 J -4.6278
G02 X 277.1373 Y 138.7173 Z -0.1250 I -1.5912 J 0.0254
G02 X 275.0492 Y 138.9851 Z -0.1250 I -0.0000 J 8.2738
G02 X 271.4468 Y 140.1990 Z -0.1250 I 6.8692 J 26.3368
G02 X 268.0282 Y 141.7957 Z -0.1250 I 17.2738 J 41.4423
G02 X 263.3955 Y 144.3758 Z -0.1250 I 41.8991 J 80.6819
G01 X 250.3572 Y 158.6657 Z -0.1250
G03 X 254.9704 Y 155.7924 Z -0.1250 I 63.7773 J 97.2577
G03 X 258.1741 Y 154.0516 Z -0.1250 I 25.8117 J 43.6844
G03 X 261.5434 Y 152.6854 Z -0.1250 I 11.4990 J 23.5207
G03 X 263.1359 Y 152.4336 Z -0.1250 I 1.5818 J 4.8423
G03 X 263.9414 Y 152.9710 Z -0.1250 I -0.0022 J 0.8758
G03 X 263.8949 Y 154.2338 Z -0.1250 I -1.3872 J 0.5811
G03 X 262.8241 Y 155.8595 Z -0.1250 I -7.7629 J -3.9474
G03 X 259.9005 Y 159.0409 Z -0.1250 I -34.0385 J -28.3464
G03 X 257.1737 Y 161.5632 Z -0.1250 I -40.3463 J -40.8818
G03 X 255.3435 Y 162.9948 Z -0.1250 I -15.1280 J -17.4542
G03 X 253.4055 Y 164.1788 Z -0.1250 I -9.6531 J -13.6228
G03 X 250.8922 Y 165.3171 Z -0.1250 I -11.5813 J -22.2266
G01 X 248.1100 Y 166.3996 Z -0.1250
G02 X 244.2325 Y 168.2508 Z -0.1250 I 9.4123 J 24.7021
G02 X 239.9810 Y 171.1130 Z -0.1250 I 19.6054 J 33.7102
G02 X 236.2562 Y 174.3066 Z -0.1250 I 30.6052 J 39.4650
G02 X 231.9768 Y 178.6687 Z -0.1250 I 56.6557 J 59.8597
G02 X 227.6157 Y 183.9896 Z -0.1250 I 48.8045 J 44.4496
G02 X 226.3828 Y 186.2311 Z -0.1250 I 7.8503 J 5.7777
G02 X 226.5301 Y 187.8473 Z -0.1250 I 1.6959 J 0.6602
G02 X 227.8117 Y 188.5687 Z -0.1250 I 1.2933 J -0.7984
G02 X 228.8652 Y 188.5032 Z -0.1250 I 0.0606 J -7.5261
G02 X 230.3591 Y 188.2299 Z -0.1250 I -2.0595 J -15.4739
G02 X 231.8205 Y 187.8473 Z -0.1250 I -4.6432 J -20.7226
G02 X 233.7995 Y 187.1967 Z -0.1250 I -11.4859 J -38.2696
G01 X 233.7995 Y 187.1967 Z -0.1250
G00 Z 5.0000

(End cutting path id: path1064)


(Start cutting path id: path1058)
(Change tool to Default tool)

G00 Z 5.0000
G00 X 201.9719 Y 153.2451

G01 Z -0.1250 F 100.0000(Penetrate)
G01 X 194.2119 Y 153.2275 Z -0.1250 F 400.0000
G01 X 197.0261 Y 140.2891 Z -0.1250
G01 X 191.4263 Y 140.2877 Z -0.1250
G01 X 183.6515 Y 187.7209 Z -0.1250
G01 X 187.5943 Y 187.7510 Z -0.1250
G01 X 214.1316 Y 140.2933 Z -0.1250
G01 X 208.5020 Y 140.2919 Z -0.1250
G01 X 201.9719 Y 153.2450 Z -0.1250
G00 Z 5.0000

(End cutting path id: path1058)


(Start cutting path id: path1058)
(Change tool to Default tool)

G00 Z 5.0000
G00 X 191.9125 Y 163.7598

G01 Z -0.1250 F 100.0000(Penetrate)
G01 X 196.6469 Y 163.7783 Z -0.1250 F 400.0000
G01 X 188.2631 Y 180.4378 Z -0.1250
G01 X 191.9125 Y 163.7599 Z -0.1250
G00 Z 5.0000

(End cutting path id: path1058)


(Start cutting path id: path1056)
(Change tool to Default tool)

G00 Z 5.0000
G00 X 187.7354 Y 145.9300

G01 Z -0.1250 F 100.0000(Penetrate)
G02 X 186.2656 Y 142.6374 Z -0.1250 I -18.5459 J 6.3044 F 400.0000
G02 X 184.7312 Y 140.6056 Z -0.1250 I -8.2585 J 4.6414
G02 X 182.6684 Y 139.1862 Z -0.1250 I -4.7919 J 4.7557
G02 X 180.4472 Y 138.7173 Z -0.1250 I -2.2212 J 5.0258
G02 X 176.1672 Y 140.6082 Z -0.1250 I 0.0000 J 5.7893
G02 X 170.8434 Y 149.0991 Z -0.1250 I 20.8392 J 18.9805
G02 X 168.0754 Y 158.3920 Z -0.1250 I 49.7857 J 19.8878
G02 X 166.5306 Y 169.8930 Z -0.1250 I 87.0095 J 17.5413
G02 X 166.5784 Y 179.5146 Z -0.1250 I 65.7468 J 4.4847
G02 X 167.5603 Y 184.0281 Z -0.1250 I 16.9591 J -1.3260
G02 X 169.7497 Y 187.1778 Z -0.1250 I 7.0864 J -2.5901
G02 X 172.3305 Y 188.1404 Z -0.1250 I 2.6119 J -3.0614
G02 X 173.5699 Y 188.0230 Z -0.1250 I 0.0512 J -6.0581
G02 X 174.8595 Y 187.6348 Z -0.1250 I -1.3931 J -6.9650
G02 X 176.0880 Y 187.0158 Z -0.1250 I -3.1597 J -7.7991
G02 X 177.4502 Y 186.0495 Z -0.1250 I -6.3699 J -10.4227
G01 X 179.0360 Y 179.3729 Z -0.1250
G03 X 177.3857 Y 180.9141 Z -0.1250 I -14.4622 J -13.8322
G03 X 176.1461 Y 181.7847 Z -0.1250 I -5.8887 J -7.0661
G03 X 174.8090 Y 182.3764 Z -0.1250 I -3.1977 J -5.4199
G03 X 173.7176 Y 182.5376 Z -0.1250 I -1.0668 J -3.4467
G03 X 172.1311 Y 181.8676 Z -0.1250 I 0.0160 J -2.2512
G03 X 170.8440 Y 179.6036 Z -0.1250 I 3.5818 J -3.5341
G03 X 170.4369 Y 176.5272 Z -0.1250 I 12.1866 J -3.1777
G03 X 170.7964 Y 169.9138 Z -0.1250 I 53.1509 J -0.4274
G03 X 172.0868 Y 162.5098 Z -0.1250 I 66.7918 J 7.8267
G03 X 173.7216 Y 157.5081 Z -0.1250 I 29.3473 J 6.8239
G03 X 176.5662 Y 153.2120 Z -0.1250 I 13.1252 J 5.6009
G03 X 178.8215 Y 152.2555 Z -0.1250 I 2.2487 J 2.1648
G03 X 179.5783 Y 152.3385 Z -0.1250 I -0.0075 J 3.5594
G03 X 180.2005 Y 152.5585 Z -0.1250 I -0.5752 J 2.6164
G03 X 180.7370 Y 152.9712 Z -0.1250 I -1.1897 J 2.1016
G03 X 181.1978 Y 153.5769 Z -0.1250 I -2.1966 J 2.1492
G01 X 179.0310 Y 164.4546 Z -0.1250
G01 X 176.3463 Y 164.4432 Z -0.1250
G01 X 174.9989 Y 172.3605 Z -0.1250
G01 X 181.2697 Y 172.3934 Z -0.1250
G01 X 187.7354 Y 145.9294 Z -0.1250
G00 Z 5.0000

(End cutting path id: path1056)



(Footer)
M5
G00 X0.0000 Y0.0000
M2
(Using default footer. To add your own footer create file "footer" in the output dir.)
(end)
%