%
(Header)
(Generated by gcodetools from Inkscape.)
(Using default header. To add your own header create file "header" in the output dir.)
M3
(Header end.)
G21 (All units in mm)

(Start cutting path id: path4439)
(Change tool to Default tool)


S0 
G00 X5.269632 Y0.194550

G01 Z-0.125000 F100.0(Penetrate)
(BEGIN Engrave)
S1000
G01 X0.269631 Y0.194550 Z-0.125000 F400.000000

S0 

(End cutting path id: path4439)


(Start cutting path id: path4437)
(Change tool to Default tool)


S0 
G00 X5.269632 Y10.194560

G01 Z-0.125000 F100.0(Penetrate)
(BEGIN Engrave)
S1000
G01 X5.269632 Y0.194550 Z-0.125000 F400.000000

S0 

(End cutting path id: path4437)


(Start cutting path id: path4435)
(Change tool to Default tool)


S0 
G00 X2.692910 Y12.380180

G01 Z-0.125000 F100.0(Penetrate)
(BEGIN Engrave)
S1000
G01 X5.269632 Y10.194560 Z-0.125000 F400.000000

S0 

(End cutting path id: path4435)


(Start cutting path id: path4433)
(Change tool to Default tool)


S0 
G00 X0.269631 Y10.194560

G01 Z-0.125000 F100.0(Penetrate)
(BEGIN Engrave)
S1000
G01 X2.692910 Y12.380180 Z-0.125000 F400.000000

S0 

(End cutting path id: path4433)


(Start cutting path id: path4431)
(Change tool to Default tool)


S0 
G00 X0.269631 Y0.194550

G01 Z-0.125000 F100.0(Penetrate)
(BEGIN Engrave)
S1000
G01 X0.269631 Y10.194560 Z-0.125000 F400.000000

S0 

(End cutting path id: path4431)


(Footer)
M5
G00 X0.0000 Y0.0000
M2
(Using default footer. To add your own footer create file "footer" in the output dir.)
(end)
%