%
(Header)
(Generated by gcodetools from Inkscape.)
(Using default header. To add your own header create file "header" in the output dir.)
M3
(Header end.)
G21 (All units in mm)

(Start cutting path id: path5361-8)
(Change tool to Default tool)

G00 Z 0.0000 G00 Z 0.0000 
S000	(---LaserOff 000%)
G00 X 0.2520 Y 0.2520

G01 Z -0.1250 F 100.0000(Penetrate) 
 S1000	(---LaserOn 100% ON)
G01 X 59.7001 Y 0.2520 Z -0.1250 F 400.0000
G02 X 64.0899 Y 10.5987 Z -0.1250 I 14.9978 J -0.2586
G02 X 74.4356 Y 14.9911 Z -0.1250 I 10.6079 J -10.6053
G01 X 74.4356 Y 74.4356 Z -0.1250
G01 X 70.4327 Y 74.4356 Z -0.1250
G03 X 21.6001 Y 52.1946 Z -0.1250 I 4.5012 J -74.6124
G03 X 0.2520 Y 2.9650 Z -0.1250 I 53.3339 J -52.3714
G01 X 0.2520 Y 0.2520 Z -0.1250
G00 Z 0.0000 G00 Z 0.0000 
S000	(---LaserOff 000%)

(End cutting path id: path5361-8)


(Start cutting path id: path5361)
(Change tool to Default tool)

G00 Z 0.0000 G00 Z 0.0000 
S000	(---LaserOff 000%)
G00 X 75.2520 Y 74.4357

G01 Z -0.1250 F 100.0000(Penetrate) 
 S1000	(---LaserOn 100% ON)
G01 X 75.2520 Y 14.9876 Z -0.1250 F 400.0000
G02 X 85.5987 Y 10.5977 Z -0.1250 I -0.2586 J -14.9978
G02 X 89.9912 Y 0.2521 Z -0.1250 I -10.6053 J -10.6079
G01 X 149.4356 Y 0.2521 Z -0.1250
G01 X 149.4356 Y 4.2549 Z -0.1250
G03 X 127.1946 Y 53.0876 Z -0.1250 I -74.6123 J -4.5012
G03 X 77.9650 Y 74.4357 Z -0.1250 I -52.3714 J -53.3339
G01 X 75.2520 Y 74.4357 Z -0.1250
G00 Z 0.0000 G00 Z 0.0000 
S000	(---LaserOff 000%)

(End cutting path id: path5361)



(Footer)
M5
G00 X0.0000 Y0.0000
M2
(Using default footer. To add your own footer create file "footer" in the output dir.)
(end)
%