%
(Header)
(Generated by gcodetools from Inkscape.)
(Using default header. To add your own header create file "header" in the output dir.)
M3
(Header end.)
G21 (All units in mm)

(Start cutting path id: path947)
(Change tool to Default tool)

G00 Z 0.0000 
S000	(---LaserOff 000%)
G00 X 58.4088 Y 10.8012

G01 Z -0.1250 F 100.0000(Penetrate)
S1000	(---Laser 100% ON)
G01 X 60.2721 Y 12.6392 Z -0.1250 F 400.0000
G01 X 60.6034 Y 12.9661 Z -0.1250
G01 X 60.2721 Y 12.6392 Z -0.1250
G02 X 60.4156 Y 12.7014 Z -0.1250 I 0.1519 J -0.1540
G02 X 60.7110 Y 12.6562 Z -0.1250 I 0.0305 J -0.7887
G02 X 61.0014 Y 12.5116 Z -0.1250 I -0.3829 J -1.1332
G02 X 61.3779 Y 12.2020 Z -0.1250 I -1.5203 J -2.2324
G02 X 61.6697 Y 11.8514 Z -0.1250 I -1.6345 J -1.6569
G02 X 61.7953 Y 11.5865 Z -0.1250 I -0.7957 J -0.5396
G02 X 61.8256 Y 11.3087 Z -0.1250 I -0.7035 J -0.2170
G02 X 61.7609 Y 11.1705 Z -0.1250 I -0.2189 J 0.0181
G01 X 61.7609 Y 11.1705 Z -0.1250
G03 X 61.8256 Y 11.3087 Z -0.1250 I -0.1542 J 0.1563
G03 X 61.7953 Y 11.5865 Z -0.1250 I -0.7337 J 0.0607
G03 X 61.6697 Y 11.8514 Z -0.1250 I -0.9213 J -0.2747
G03 X 61.3779 Y 12.2020 Z -0.1250 I -1.9263 J -1.3063
G03 X 61.0014 Y 12.5116 Z -0.1250 I -1.8968 J -1.9228
G03 X 60.7110 Y 12.6562 Z -0.1250 I -0.6733 J -0.9887
G03 X 60.4156 Y 12.7014 Z -0.1250 I -0.2649 J -0.7435
G03 X 60.2721 Y 12.6392 Z -0.1250 I 0.0084 J -0.2161
G01 X 58.4088 Y 10.8012 Z -0.1250
G00 Z 0.0000 
S000	(---LaserOff 000%)

(End cutting path id: path947)


(Start cutting path id: path945)
(Change tool to Default tool)

G00 Z 0.0000 
S000	(---LaserOff 000%)
G00 X 59.6934 Y 13.2100

G01 Z -0.1250 F 100.0000(Penetrate)
S1000	(---Laser 100% ON)
G03 X 59.7582 Y 13.3608 Z -0.1250 I -0.1528 J 0.1549 F 400.0000
G03 X 59.7020 Y 13.6600 Z -0.1250 I -0.7494 J 0.0143
G03 X 59.5459 Y 13.9577 Z -0.1250 I -1.4317 J -0.5612
G03 X 59.3105 Y 14.2416 Z -0.1250 I -1.5351 J -1.0336
G03 X 58.9251 Y 14.5589 Z -0.1250 I -1.9570 J -1.9838
G03 X 58.6392 Y 14.7000 Z -0.1250 I -0.6408 J -0.9383
G03 X 58.3439 Y 14.7400 Z -0.1250 I -0.2554 J -0.7767
G03 X 58.2046 Y 14.6788 Z -0.1250 I 0.0104 J -0.2129
G01 X 57.5720 Y 14.0548 Z -0.1250
G03 X 57.5160 Y 13.9172 Z -0.1250 I 0.1322 J -0.1340
G03 X 57.5806 Y 13.5963 Z -0.1250 I 0.9146 J 0.0172
G03 X 57.7477 Y 13.2833 Z -0.1250 I 1.4785 J 0.5881
G03 X 58.0152 Y 12.9638 Z -0.1250 I 1.8088 J 1.2429
G03 X 58.3016 Y 12.7306 Z -0.1250 I 1.3663 J 1.3850
G03 X 58.6005 Y 12.5733 Z -0.1250 I 0.9028 J 1.3528
G03 X 58.9083 Y 12.5210 Z -0.1250 I 0.2857 J 0.7490
G03 X 59.0609 Y 12.5860 Z -0.1250 I -0.0063 J 0.2261
G01 X 59.6934 Y 13.2100 Z -0.1250
G00 Z 0.0000 
S000	(---LaserOff 000%)

(Change tool to Default tool)

G00 Z 0.0000 
S000	(---LaserOff 000%)
G00 X 58.2046 Y 14.6788

G01 Z -0.1250 F 100.0000(Penetrate)
S1000	(---Laser 100% ON)
G02 X 58.3439 Y 14.7400 Z -0.1250 I 0.1497 J -0.1518 F 400.0000
G02 X 58.6392 Y 14.7000 Z -0.1250 I 0.0399 J -0.8166
G02 X 58.9251 Y 14.5589 Z -0.1250 I -0.3549 J -1.0794
G02 X 59.3105 Y 14.2416 Z -0.1250 I -1.5716 J -2.3011
G02 X 59.5459 Y 13.9577 Z -0.1250 I -1.2997 J -1.3175
G02 X 59.7020 Y 13.6600 Z -0.1250 I -1.2756 J -0.8589
G02 X 59.7582 Y 13.3608 Z -0.1250 I -0.6933 J -0.2849
G02 X 59.6934 Y 13.2100 Z -0.1250 I -0.2175 J 0.0042
G01 X 59.0609 Y 12.5860 Z -0.1250
G02 X 58.9083 Y 12.5210 Z -0.1250 I -0.1588 J 0.1610
G02 X 58.6005 Y 12.5733 Z -0.1250 I -0.0222 J 0.8013
G02 X 58.3016 Y 12.7306 Z -0.1250 I 0.6039 J 1.5101
G02 X 58.0152 Y 12.9638 Z -0.1250 I 1.0799 J 1.6182
G02 X 57.7477 Y 13.2833 Z -0.1250 I 1.5412 J 1.5623
G02 X 57.5806 Y 13.5963 Z -0.1250 I 1.3115 J 0.9011
G02 X 57.5160 Y 13.9172 Z -0.1250 I 0.8499 J 0.3381
G02 X 57.5720 Y 14.0548 Z -0.1250 I 0.1882 J 0.0035
G01 X 56.6727 Y 13.1676 Z -0.1250
G03 X 56.6071 Y 13.0293 Z -0.1250 I 0.1571 J -0.1592
G03 X 56.6340 Y 12.7558 Z -0.1250 I 0.7177 J -0.0675
G03 X 56.7660 Y 12.4882 Z -0.1250 I 0.9008 J 0.2779
G03 X 57.1159 Y 12.0766 Z -0.1250 I 2.5199 J 1.7881
G03 X 57.4023 Y 11.8434 Z -0.1250 I 1.3663 J 1.3850
G03 X 57.7011 Y 11.6861 Z -0.1250 I 0.9028 J 1.3528
G03 X 58.0090 Y 11.6338 Z -0.1250 I 0.2857 J 0.7490
G03 X 58.1616 Y 11.6988 Z -0.1250 I -0.0063 J 0.2261
G01 X 58.3724 Y 11.9068 Z -0.1250
G01 X 58.1616 Y 11.6988 Z -0.1250
G02 X 58.0090 Y 11.6338 Z -0.1250 I -0.1588 J 0.1610
G02 X 57.7011 Y 11.6861 Z -0.1250 I -0.0222 J 0.8013
G02 X 57.4023 Y 11.8434 Z -0.1250 I 0.6039 J 1.5101
G02 X 57.1159 Y 12.0766 Z -0.1250 I 1.0799 J 1.6183
G02 X 56.7660 Y 12.4882 Z -0.1250 I 2.1699 J 2.1996
G02 X 56.6340 Y 12.7558 Z -0.1250 I 0.7688 J 0.5455
G02 X 56.6071 Y 13.0293 Z -0.1250 I 0.6908 J 0.2060
G02 X 56.6727 Y 13.1676 Z -0.1250 I 0.2227 J -0.0209
G01 X 58.2046 Y 14.6788 Z -0.1250
G00 Z 0.0000 
S000	(---LaserOff 000%)

(End cutting path id: path945)


(Start cutting path id: path943)
(Change tool to Default tool)

G00 Z 0.0000 
S000	(---LaserOff 000%)
G00 X 54.6052 Y 15.2072

G01 Z -0.1250 F 100.0000(Penetrate)
S1000	(---Laser 100% ON)
G03 X 54.5507 Y 15.0698 Z -0.1250 I 0.1288 J -0.1306 F 400.0000
G03 X 54.6224 Y 14.7402 Z -0.1250 I 0.9550 J 0.0352
G03 X 54.8003 Y 14.4135 Z -0.1250 I 1.7080 J 0.7179
G03 X 55.0484 Y 14.1162 Z -0.1250 I 1.6581 J 1.1320
G03 X 55.3808 Y 13.8478 Z -0.1250 I 1.5141 J 1.5349
G03 X 55.6638 Y 13.7129 Z -0.1250 I 0.6364 J 0.9711
G03 X 55.9547 Y 13.6763 Z -0.1250 I 0.2436 J 0.7624
G03 X 56.0941 Y 13.7384 Z -0.1250 I -0.0128 J 0.2163
G01 X 57.6260 Y 15.2496 Z -0.1250
G03 X 57.6887 Y 15.3877 Z -0.1250 I -0.1490 J 0.1510
G03 X 57.6518 Y 15.6741 Z -0.1250 I -0.7670 J 0.0466
G03 X 57.5156 Y 15.9524 Z -0.1250 I -1.0724 J -0.3522
G03 X 57.2430 Y 16.2811 Z -0.1250 I -1.7782 J -1.1975
G03 X 56.8842 Y 16.5753 Z -0.1250 I -1.7785 J -1.8028
G03 X 56.5846 Y 16.7268 Z -0.1250 I -0.7433 J -1.0980
G03 X 56.2762 Y 16.7770 Z -0.1250 I -0.2919 J -0.8218
G03 X 56.1371 Y 16.7183 Z -0.1250 I 0.0039 J -0.2036
G01 X 54.6052 Y 15.2072 Z -0.1250
G00 Z 0.0000 
S000	(---LaserOff 000%)

(Change tool to Default tool)

G00 Z 0.0000 
S000	(---LaserOff 000%)
G00 X 56.0941 Y 13.7384

G01 Z -0.1250 F 100.0000(Penetrate)
S1000	(---Laser 100% ON)
G02 X 55.9547 Y 13.6763 Z -0.1250 I -0.1522 J 0.1543 F 400.0000
G02 X 55.6638 Y 13.7129 Z -0.1250 I -0.0473 J 0.7990
G02 X 55.3808 Y 13.8478 Z -0.1250 I 0.3534 J 1.1060
G02 X 55.0484 Y 14.1162 Z -0.1250 I 1.1818 J 1.8033
G02 X 54.8003 Y 14.4135 Z -0.1250 I 1.4099 J 1.4292
G02 X 54.6224 Y 14.7402 Z -0.1250 I 1.5302 J 1.0446
G02 X 54.5507 Y 15.0698 Z -0.1250 I 0.8833 J 0.3648
G02 X 54.6052 Y 15.2072 Z -0.1250 I 0.1833 J 0.0068
G01 X 54.2739 Y 14.8803 Z -0.1250
G01 X 57.2860 Y 17.8517 Z -0.1250
G01 X 56.1371 Y 16.7183 Z -0.1250
G02 X 56.2762 Y 16.7770 Z -0.1250 I 0.1430 J -0.1449
G02 X 56.5846 Y 16.7268 Z -0.1250 I 0.0165 J -0.8719
G02 X 56.8842 Y 16.5753 Z -0.1250 I -0.4437 J -1.2495
G02 X 57.2430 Y 16.2811 Z -0.1250 I -1.4197 J -2.0970
G02 X 57.5156 Y 15.9524 Z -0.1250 I -1.5055 J -1.5262
G02 X 57.6518 Y 15.6741 Z -0.1250 I -0.9362 J -0.6305
G02 X 57.6887 Y 15.3877 Z -0.1250 I -0.7300 J -0.2397
G02 X 57.6260 Y 15.2496 Z -0.1250 I -0.2117 J 0.0129
G01 X 56.0941 Y 13.7384 Z -0.1250
G00 Z 0.0000 
S000	(---LaserOff 000%)

(End cutting path id: path943)


(Start cutting path id: path941)
(Change tool to Default tool)

G00 Z 0.0000 
S000	(---LaserOff 000%)
G00 X 50.8281 Y 18.2796

G01 Z -0.1250 F 100.0000(Penetrate)
S1000	(---Laser 100% ON)
G01 X 52.6913 Y 20.1176 Z -0.1250 F 400.0000
G01 X 53.0226 Y 20.4445 Z -0.1250
G01 X 52.6913 Y 20.1176 Z -0.1250
G02 X 52.8348 Y 20.1798 Z -0.1250 I 0.1519 J -0.1540
G02 X 53.1302 Y 20.1346 Z -0.1250 I 0.0305 J -0.7887
G02 X 53.4207 Y 19.9900 Z -0.1250 I -0.3829 J -1.1332
G02 X 53.7972 Y 19.6804 Z -0.1250 I -1.5203 J -2.2324
G02 X 54.0890 Y 19.3298 Z -0.1250 I -1.6345 J -1.6569
G02 X 54.2146 Y 19.0649 Z -0.1250 I -0.7957 J -0.5396
G02 X 54.2448 Y 18.7871 Z -0.1250 I -0.7035 J -0.2170
G02 X 54.1802 Y 18.6489 Z -0.1250 I -0.2189 J 0.0181
G01 X 52.3169 Y 16.8108 Z -0.1250
G01 X 54.1802 Y 18.6489 Z -0.1250
G03 X 54.2448 Y 18.7871 Z -0.1250 I -0.1542 J 0.1563
G03 X 54.2146 Y 19.0649 Z -0.1250 I -0.7337 J 0.0607
G03 X 54.0890 Y 19.3298 Z -0.1250 I -0.9213 J -0.2747
G03 X 53.7972 Y 19.6804 Z -0.1250 I -1.9263 J -1.3063
G03 X 53.4207 Y 19.9900 Z -0.1250 I -1.8968 J -1.9228
G03 X 53.1302 Y 20.1346 Z -0.1250 I -0.6733 J -0.9887
G03 X 52.8348 Y 20.1798 Z -0.1250 I -0.2649 J -0.7435
G03 X 52.6913 Y 20.1176 Z -0.1250 I 0.0084 J -0.2161
G01 X 50.8281 Y 18.2796 Z -0.1250
G00 Z 0.0000 
S000	(---LaserOff 000%)

(Change tool to Default tool)

G00 Z 0.0000 
S000	(---LaserOff 000%)
G00 X 52.3169 Y 16.8108

G01 Z -0.1250 F 100.0000(Penetrate)
S1000	(---Laser 100% ON)
G01 X 54.1802 Y 18.6489 Z -0.1250 F 400.0000
G01 X 54.1802 Y 18.6489 Z -0.1250
G02 X 54.3237 Y 18.7110 Z -0.1250 I 0.1519 J -0.1540
G02 X 54.6191 Y 18.6658 Z -0.1250 I 0.0305 J -0.7887
G02 X 54.9095 Y 18.5213 Z -0.1250 I -0.3829 J -1.1333
G02 X 55.2860 Y 18.2116 Z -0.1250 I -1.5203 J -2.2324
G02 X 55.5737 Y 17.8654 Z -0.1250 I -1.6001 J -1.6220
G02 X 55.6991 Y 17.6004 Z -0.1250 I -0.8008 J -0.5412
G02 X 55.7293 Y 17.3226 Z -0.1250 I -0.7035 J -0.2170
G02 X 55.6647 Y 17.1844 Z -0.1250 I -0.2189 J 0.0181
G01 X 53.8015 Y 15.3463 Z -0.1250
G01 X 55.6647 Y 17.1844 Z -0.1250
G03 X 55.7293 Y 17.3226 Z -0.1250 I -0.1542 J 0.1563
G03 X 55.6991 Y 17.6004 Z -0.1250 I -0.7337 J 0.0607
G03 X 55.5737 Y 17.8654 Z -0.1250 I -0.9262 J -0.2761
G03 X 55.2860 Y 18.2116 Z -0.1250 I -1.8878 J -1.2757
G03 X 54.9095 Y 18.5213 Z -0.1250 I -1.8968 J -1.9228
G03 X 54.6191 Y 18.6658 Z -0.1250 I -0.6733 J -0.9887
G03 X 54.3237 Y 18.7110 Z -0.1250 I -0.2649 J -0.7435
G03 X 54.1802 Y 18.6489 Z -0.1250 I 0.0084 J -0.2161
G01 X 52.3169 Y 16.8108 Z -0.1250
G00 Z 0.0000 
S000	(---LaserOff 000%)

(End cutting path id: path941)


(Start cutting path id: path939)
(Change tool to Default tool)

G00 Z 0.0000 
S000	(---LaserOff 000%)
G00 X 52.1127 Y 20.6884

G01 Z -0.1250 F 100.0000(Penetrate)
S1000	(---Laser 100% ON)
G03 X 52.1774 Y 20.8391 Z -0.1250 I -0.1528 J 0.1549 F 400.0000
G03 X 52.1213 Y 21.1384 Z -0.1250 I -0.7494 J 0.0143
G03 X 51.9651 Y 21.4361 Z -0.1250 I -1.4317 J -0.5612
G03 X 51.7297 Y 21.7199 Z -0.1250 I -1.5351 J -1.0336
G03 X 51.3443 Y 22.0373 Z -0.1250 I -1.9570 J -1.9838
G03 X 51.0584 Y 22.1784 Z -0.1250 I -0.6408 J -0.9383
G03 X 50.7631 Y 22.2183 Z -0.1250 I -0.2554 J -0.7767
G03 X 50.6238 Y 22.1572 Z -0.1250 I 0.0104 J -0.2129
G01 X 49.9913 Y 21.5332 Z -0.1250
G03 X 49.9353 Y 21.3956 Z -0.1250 I 0.1322 J -0.1340
G03 X 49.9999 Y 21.0747 Z -0.1250 I 0.9146 J 0.0172
G03 X 50.1670 Y 20.7617 Z -0.1250 I 1.4785 J 0.5881
G03 X 50.4345 Y 20.4422 Z -0.1250 I 1.8088 J 1.2429
G03 X 50.7209 Y 20.2090 Z -0.1250 I 1.3663 J 1.3850
G03 X 51.0197 Y 20.0517 Z -0.1250 I 0.9028 J 1.3528
G03 X 51.3276 Y 19.9994 Z -0.1250 I 0.2857 J 0.7490
G03 X 51.4801 Y 20.0644 Z -0.1250 I -0.0063 J 0.2261
G01 X 52.1127 Y 20.6884 Z -0.1250
G00 Z 0.0000 
S000	(---LaserOff 000%)

(Change tool to Default tool)

G00 Z 0.0000 
S000	(---LaserOff 000%)
G00 X 50.6238 Y 22.1572

G01 Z -0.1250 F 100.0000(Penetrate)
S1000	(---Laser 100% ON)
G02 X 50.7631 Y 22.2183 Z -0.1250 I 0.1497 J -0.1518 F 400.0000
G02 X 51.0584 Y 22.1784 Z -0.1250 I 0.0399 J -0.8166
G02 X 51.3443 Y 22.0373 Z -0.1250 I -0.3549 J -1.0794
G02 X 51.7297 Y 21.7199 Z -0.1250 I -1.5716 J -2.3011
G02 X 51.9651 Y 21.4361 Z -0.1250 I -1.2997 J -1.3175
G02 X 52.1213 Y 21.1384 Z -0.1250 I -1.2756 J -0.8589
G02 X 52.1774 Y 20.8391 Z -0.1250 I -0.6933 J -0.2849
G02 X 52.1127 Y 20.6884 Z -0.1250 I -0.2175 J 0.0042
G01 X 51.4801 Y 20.0644 Z -0.1250
G02 X 51.3276 Y 19.9994 Z -0.1250 I -0.1588 J 0.1610
G02 X 51.0197 Y 20.0517 Z -0.1250 I -0.0222 J 0.8013
G02 X 50.7209 Y 20.2090 Z -0.1250 I 0.6039 J 1.5101
G02 X 50.4345 Y 20.4422 Z -0.1250 I 1.0799 J 1.6182
G02 X 50.1670 Y 20.7617 Z -0.1250 I 1.5412 J 1.5623
G02 X 49.9999 Y 21.0747 Z -0.1250 I 1.3115 J 0.9011
G02 X 49.9353 Y 21.3956 Z -0.1250 I 0.8499 J 0.3381
G02 X 49.9913 Y 21.5332 Z -0.1250 I 0.1882 J 0.0035
G01 X 49.0919 Y 20.6460 Z -0.1250
G03 X 49.0263 Y 20.5077 Z -0.1250 I 0.1571 J -0.1592
G03 X 49.0532 Y 20.2342 Z -0.1250 I 0.7177 J -0.0675
G03 X 49.1852 Y 19.9666 Z -0.1250 I 0.9008 J 0.2779
G03 X 49.5352 Y 19.5550 Z -0.1250 I 2.5199 J 1.7881
G03 X 49.8215 Y 19.3218 Z -0.1250 I 1.3663 J 1.3850
G03 X 50.1204 Y 19.1645 Z -0.1250 I 0.9028 J 1.3528
G03 X 50.4282 Y 19.1122 Z -0.1250 I 0.2857 J 0.7490
G03 X 50.5808 Y 19.1772 Z -0.1250 I -0.0063 J 0.2261
G01 X 50.7916 Y 19.3852 Z -0.1250
G01 X 50.5808 Y 19.1772 Z -0.1250
G02 X 50.4282 Y 19.1122 Z -0.1250 I -0.1588 J 0.1610
G02 X 50.1204 Y 19.1645 Z -0.1250 I -0.0222 J 0.8013
G02 X 49.8215 Y 19.3218 Z -0.1250 I 0.6039 J 1.5101
G02 X 49.5352 Y 19.5550 Z -0.1250 I 1.0799 J 1.6183
G02 X 49.1852 Y 19.9666 Z -0.1250 I 2.1699 J 2.1996
G02 X 49.0532 Y 20.2342 Z -0.1250 I 0.7688 J 0.5455
G02 X 49.0263 Y 20.5077 Z -0.1250 I 0.6908 J 0.2060
G02 X 49.0919 Y 20.6460 Z -0.1250 I 0.2227 J -0.0209
G01 X 50.6238 Y 22.1572 Z -0.1250
G00 Z 0.0000 
S000	(---LaserOff 000%)

(End cutting path id: path939)


(Start cutting path id: path937)
(Change tool to Default tool)

G00 Z 0.0000 
S000	(---LaserOff 000%)
G00 X 47.9324 Y 21.1361

G01 Z -0.1250 F 100.0000(Penetrate)
S1000	(---Laser 100% ON)
G02 X 47.6460 Y 21.4719 Z -0.1250 I 1.8052 J 1.8299 F 400.0000
G02 X 47.4806 Y 21.7686 Z -0.1250 I 1.2393 J 0.8853
G02 X 47.4243 Y 22.0760 Z -0.1250 I 0.7313 J 0.2926
G02 X 47.4892 Y 22.2271 Z -0.1250 I 0.2179 J -0.0041
G01 X 49.3094 Y 24.0227 Z -0.1250
G01 X 48.8446 Y 24.4811 Z -0.1250
G01 X 49.3094 Y 24.0227 Z -0.1250
G01 X 49.8989 Y 24.6042 Z -0.1250
G01 X 49.3094 Y 24.0227 Z -0.1250
G01 X 50.0753 Y 23.2671 Z -0.1250
G01 X 49.3094 Y 24.0227 Z -0.1250
G01 X 47.4892 Y 22.2271 Z -0.1250
G03 X 47.4243 Y 22.0760 Z -0.1250 I 0.1530 J -0.1551
G03 X 47.4806 Y 21.7686 Z -0.1250 I 0.7875 J -0.0148
G03 X 47.6460 Y 21.4719 Z -0.1250 I 1.4047 J 0.5886
G03 X 47.9324 Y 21.1361 Z -0.1250 I 2.0916 J 1.4941
G01 X 47.9324 Y 21.1361 Z -0.1250
G00 Z 0.0000 
S000	(---LaserOff 000%)

(End cutting path id: path937)


(Start cutting path id: path935)
(Change tool to Default tool)

G00 Z 0.0000 
S000	(---LaserOff 000%)
G00 X 44.9570 Y 24.7251

G01 Z -0.1250 F 100.0000(Penetrate)
S1000	(---Laser 100% ON)
G01 X 46.4889 Y 26.2363 Z -0.1250 F 400.0000
G02 X 46.6281 Y 26.2957 Z -0.1250 I 0.1451 J -0.1471
G02 X 46.9321 Y 26.2490 Z -0.1250 I 0.0245 J -0.8531
G02 X 47.2380 Y 26.0967 Z -0.1250 I -0.5163 J -1.4206
G02 X 47.5345 Y 25.8585 Z -0.1250 I -1.0188 J -1.5716
G02 X 47.7103 Y 25.6684 Z -0.1250 I -1.9783 J -2.0053
G02 X 47.8314 Y 25.5062 Z -0.1250 I -1.3167 J -1.1096
G02 X 47.9412 Y 25.3308 Z -0.1250 I -1.4571 J -1.0339
G02 X 48.0035 Y 25.1920 Z -0.1250 I -0.8469 J -0.4640
G02 X 48.0417 Y 25.0459 Z -0.1250 I -0.8081 J -0.2891
G02 X 48.0466 Y 24.9373 Z -0.1250 I -0.4381 J -0.0740
G02 X 48.0253 Y 24.8387 Z -0.1250 I -0.2939 J 0.0119
G02 X 47.9777 Y 24.7675 Z -0.1250 I -0.1963 J 0.0796
G01 X 46.4458 Y 23.2563 Z -0.1250
G02 X 46.3739 Y 23.2089 Z -0.1250 I -0.1560 J 0.1582
G02 X 46.2694 Y 23.1842 Z -0.1250 I -0.1306 J 0.3193
G02 X 46.1636 Y 23.1917 Z -0.1250 I -0.0189 J 0.4799
G02 X 46.0155 Y 23.2309 Z -0.1250 I 0.1811 J 0.9844
G02 X 45.8740 Y 23.2915 Z -0.1250 I 0.3647 J 1.0476
G02 X 45.6928 Y 23.3964 Z -0.1250 I 0.9358 J 1.8243
G02 X 45.5315 Y 23.5189 Z -0.1250 I 1.1348 J 1.6616
G02 X 45.3400 Y 23.6936 Z -0.1250 I 2.1222 J 2.5200
G02 X 45.1037 Y 23.9851 Z -0.1250 I 1.4081 J 1.3827
G02 X 44.9484 Y 24.2836 Z -0.1250 I 1.3232 J 0.8782
G02 X 44.8977 Y 24.5873 Z -0.1250 I 0.7873 J 0.2873
G02 X 44.9570 Y 24.7251 Z -0.1250 I 0.1990 J -0.0039
G01 X 44.9570 Y 24.7251 Z -0.1250
G00 Z 0.0000 
S000	(---LaserOff 000%)

(Change tool to Default tool)

G00 Z 0.0000 
S000	(---LaserOff 000%)
G00 X 46.4458 Y 23.2563

G01 Z -0.1250 F 100.0000(Penetrate)
S1000	(---Laser 100% ON)
G01 X 47.9777 Y 24.7675 Z -0.1250 F 400.0000
G03 X 48.0253 Y 24.8387 Z -0.1250 I -0.1487 J 0.1508
G03 X 48.0466 Y 24.9373 Z -0.1250 I -0.2726 J 0.1105
G03 X 48.0417 Y 25.0459 Z -0.1250 I -0.4430 J 0.0345
G03 X 48.0035 Y 25.1920 Z -0.1250 I -0.8462 J -0.1430
G03 X 47.9412 Y 25.3308 Z -0.1250 I -0.9092 J -0.3253
G03 X 47.8314 Y 25.5062 Z -0.1250 I -1.5669 J -0.8586
G03 X 47.7103 Y 25.6684 Z -0.1250 I -1.4378 J -0.9474
G03 X 47.5345 Y 25.8585 Z -0.1250 I -2.1540 J -1.8152
G03 X 47.2380 Y 26.0967 Z -0.1250 I -1.3153 J -1.3333
G03 X 46.9321 Y 26.2490 Z -0.1250 I -0.8222 J -1.2684
G03 X 46.6281 Y 26.2957 Z -0.1250 I -0.2795 J -0.8064
G03 X 46.4889 Y 26.2363 Z -0.1250 I 0.0059 J -0.2066
G01 X 43.8124 Y 23.5959 Z -0.1250
G01 X 44.9570 Y 24.7251 Z -0.1250
G03 X 44.8977 Y 24.5873 Z -0.1250 I 0.1398 J -0.1417
G03 X 44.9484 Y 24.2836 Z -0.1250 I 0.8379 J -0.0163
G03 X 45.1037 Y 23.9850 Z -0.1250 I 1.4784 J 0.5795
G03 X 45.3400 Y 23.6936 Z -0.1250 I 1.6441 J 1.0911
G03 X 45.5315 Y 23.5189 Z -0.1250 I 2.3137 J 2.3454
G03 X 45.6928 Y 23.3964 Z -0.1250 I 1.2961 J 1.5391
G03 X 45.8740 Y 23.2915 Z -0.1250 I 1.1170 J 1.7194
G03 X 46.0155 Y 23.2309 Z -0.1250 I 0.5063 J 0.9870
G03 X 46.1636 Y 23.1917 Z -0.1250 I 0.3291 J 0.9452
G03 X 46.2694 Y 23.1842 Z -0.1250 I 0.0869 J 0.4724
G03 X 46.3739 Y 23.2089 Z -0.1250 I -0.0261 J 0.3440
G03 X 46.4458 Y 23.2563 Z -0.1250 I -0.0841 J 0.2056
G01 X 46.4458 Y 23.2563 Z -0.1250
G00 Z 0.0000 
S000	(---LaserOff 000%)

(Change tool to Default tool)

G00 Z 0.0000 
S000	(---LaserOff 000%)
G00 X 46.8202 Y 26.5632

G01 Z -0.1250 F 100.0000(Penetrate)
S1000	(---Laser 100% ON)
G01 X 46.6997 Y 26.4443 Z -0.1250 F 400.0000
G01 X 46.4889 Y 26.2363 Z -0.1250
G01 X 46.8202 Y 26.5632 Z -0.1250
G00 Z 0.0000 
S000	(---LaserOff 000%)

(End cutting path id: path935)


(Start cutting path id: path933)
(Change tool to Default tool)

G00 Z 0.0000 
S000	(---LaserOff 000%)
G00 X 45.9102 Y 26.8071

G01 Z -0.1250 F 100.0000(Penetrate)
S1000	(---Laser 100% ON)
G03 X 45.9750 Y 26.9578 Z -0.1250 I -0.1528 J 0.1549 F 400.0000
G03 X 45.9188 Y 27.2571 Z -0.1250 I -0.7494 J 0.0143
G03 X 45.7627 Y 27.5548 Z -0.1250 I -1.4317 J -0.5612
G03 X 45.5273 Y 27.8386 Z -0.1250 I -1.5351 J -1.0336
G03 X 45.1419 Y 28.1560 Z -0.1250 I -1.9570 J -1.9838
G03 X 44.8560 Y 28.2971 Z -0.1250 I -0.6408 J -0.9383
G03 X 44.5607 Y 28.3370 Z -0.1250 I -0.2554 J -0.7767
G03 X 44.4214 Y 28.2759 Z -0.1250 I 0.0104 J -0.2129
G01 X 43.7888 Y 27.6518 Z -0.1250
G03 X 43.7328 Y 27.5143 Z -0.1250 I 0.1322 J -0.1340
G03 X 43.7974 Y 27.1934 Z -0.1250 I 0.9146 J 0.0172
G03 X 43.9645 Y 26.8804 Z -0.1250 I 1.4785 J 0.5881
G03 X 44.2321 Y 26.5609 Z -0.1250 I 1.8088 J 1.2429
G03 X 44.5184 Y 26.3276 Z -0.1250 I 1.3663 J 1.3850
G03 X 44.8173 Y 26.1704 Z -0.1250 I 0.9028 J 1.3528
G03 X 45.1251 Y 26.1180 Z -0.1250 I 0.2857 J 0.7490
G03 X 45.2777 Y 26.1831 Z -0.1250 I -0.0063 J 0.2261
G01 X 45.9102 Y 26.8071 Z -0.1250
G00 Z 0.0000 
S000	(---LaserOff 000%)

(Change tool to Default tool)

G00 Z 0.0000 
S000	(---LaserOff 000%)
G00 X 44.4214 Y 28.2759

G01 Z -0.1250 F 100.0000(Penetrate)
S1000	(---Laser 100% ON)
G02 X 44.5607 Y 28.3370 Z -0.1250 I 0.1497 J -0.1518 F 400.0000
G02 X 44.8560 Y 28.2971 Z -0.1250 I 0.0399 J -0.8166
G02 X 45.1419 Y 28.1560 Z -0.1250 I -0.3549 J -1.0794
G02 X 45.5273 Y 27.8386 Z -0.1250 I -1.5716 J -2.3011
G02 X 45.7627 Y 27.5548 Z -0.1250 I -1.2997 J -1.3175
G02 X 45.9188 Y 27.2571 Z -0.1250 I -1.2756 J -0.8589
G02 X 45.9750 Y 26.9578 Z -0.1250 I -0.6933 J -0.2849
G02 X 45.9102 Y 26.8071 Z -0.1250 I -0.2175 J 0.0042
G01 X 45.2777 Y 26.1831 Z -0.1250
G02 X 45.1251 Y 26.1180 Z -0.1250 I -0.1588 J 0.1610
G02 X 44.8173 Y 26.1704 Z -0.1250 I -0.0222 J 0.8013
G02 X 44.5184 Y 26.3276 Z -0.1250 I 0.6039 J 1.5101
G02 X 44.2321 Y 26.5609 Z -0.1250 I 1.0799 J 1.6182
G02 X 43.9645 Y 26.8804 Z -0.1250 I 1.5412 J 1.5623
G02 X 43.7974 Y 27.1934 Z -0.1250 I 1.3115 J 0.9011
G02 X 43.7328 Y 27.5143 Z -0.1250 I 0.8499 J 0.3381
G02 X 43.7888 Y 27.6518 Z -0.1250 I 0.1882 J 0.0035
G01 X 42.8895 Y 26.7647 Z -0.1250
G03 X 42.8239 Y 26.6264 Z -0.1250 I 0.1571 J -0.1592
G03 X 42.8508 Y 26.3529 Z -0.1250 I 0.7177 J -0.0675
G03 X 42.9828 Y 26.0853 Z -0.1250 I 0.9008 J 0.2779
G03 X 43.3327 Y 25.6737 Z -0.1250 I 2.5199 J 1.7881
G03 X 43.6191 Y 25.4404 Z -0.1250 I 1.3663 J 1.3850
G03 X 43.9179 Y 25.2832 Z -0.1250 I 0.9028 J 1.3528
G03 X 44.2258 Y 25.2308 Z -0.1250 I 0.2857 J 0.7490
G03 X 44.3784 Y 25.2959 Z -0.1250 I -0.0063 J 0.2261
G01 X 44.5892 Y 25.5039 Z -0.1250
G01 X 44.3784 Y 25.2959 Z -0.1250
G02 X 44.2258 Y 25.2308 Z -0.1250 I -0.1588 J 0.1610
G02 X 43.9179 Y 25.2832 Z -0.1250 I -0.0222 J 0.8013
G02 X 43.6191 Y 25.4404 Z -0.1250 I 0.6039 J 1.5101
G02 X 43.3327 Y 25.6737 Z -0.1250 I 1.0799 J 1.6183
G02 X 42.9828 Y 26.0853 Z -0.1250 I 2.1699 J 2.1996
G02 X 42.8508 Y 26.3529 Z -0.1250 I 0.7688 J 0.5455
G02 X 42.8239 Y 26.6264 Z -0.1250 I 0.6908 J 0.2060
G02 X 42.8895 Y 26.7647 Z -0.1250 I 0.2227 J -0.0209
G01 X 44.4214 Y 28.2759 Z -0.1250
G00 Z 0.0000 
S000	(---LaserOff 000%)

(End cutting path id: path933)


(Start cutting path id: path931)
(Change tool to Default tool)

G00 Z 0.0000 
S000	(---LaserOff 000%)
G00 X 41.0413 Y 29.0039

G01 Z -0.1250 F 100.0000(Penetrate)
S1000	(---Laser 100% ON)
G01 X 40.8304 Y 28.7959 Z -0.1250 F 400.0000
G03 X 40.7638 Y 28.6447 Z -0.1250 I 0.1576 J -0.1598
G03 X 40.8132 Y 28.3460 Z -0.1250 I 0.7533 J -0.0288
G03 X 40.9752 Y 28.0539 Z -0.1250 I 1.3288 J 0.5461
G03 X 41.2736 Y 27.7050 Z -0.1250 I 2.2055 J 1.5843
G03 X 41.6266 Y 27.4114 Z -0.1250 I 1.9010 J 1.9270
G03 X 41.9191 Y 27.2550 Z -0.1250 I 0.8080 J 1.1591
G03 X 42.2270 Y 27.2027 Z -0.1250 I 0.2857 J 0.7490
G03 X 42.3795 Y 27.2677 Z -0.1250 I -0.0063 J 0.2261
G01 X 43.2659 Y 28.1252 Z -0.1250
G03 X 43.3842 Y 28.5195 Z -0.1250 I -0.3106 J 0.3081
G03 X 43.0680 Y 29.1101 Z -0.1250 I -1.1358 J -0.2283
G02 X 42.4992 Y 29.7078 Z -0.1250 I 12.0190 J 12.0067
G02 X 42.4139 Y 29.8317 Z -0.1250 I 0.4185 J 0.3793
G02 X 42.3330 Y 30.1768 Z -0.1250 I 0.7891 J 0.3670
G02 X 42.4010 Y 30.3453 Z -0.1250 I 0.2285 J 0.0057
G01 X 43.1368 Y 31.0712 Z -0.1250
G02 X 43.2891 Y 31.1362 Z -0.1250 I 0.1586 J -0.1608
G02 X 43.5887 Y 31.0840 Z -0.1250 I 0.0215 J -0.7619
G02 X 43.8891 Y 30.9262 Z -0.1250 I -0.5090 J -1.3343
G02 X 44.2427 Y 30.6340 Z -0.1250 I -1.4791 J -2.1500
G02 X 44.5391 Y 30.2843 Z -0.1250 I -1.8090 J -1.8338
G02 X 44.6946 Y 29.9930 Z -0.1250 I -1.0920 J -0.7697
G02 X 44.7507 Y 29.6938 Z -0.1250 I -0.6933 J -0.2849
G02 X 44.6859 Y 29.5430 Z -0.1250 I -0.2175 J 0.0042
G01 X 44.4751 Y 29.3350 Z -0.1250
G01 X 44.6859 Y 29.5430 Z -0.1250
G03 X 44.7507 Y 29.6938 Z -0.1250 I -0.1528 J 0.1549
G03 X 44.6946 Y 29.9930 Z -0.1250 I -0.7494 J 0.0143
G03 X 44.5391 Y 30.2843 Z -0.1250 I -1.2474 J -0.4784
G03 X 44.2427 Y 30.6340 Z -0.1250 I -2.1054 J -1.4841
G03 X 43.8891 Y 30.9262 Z -0.1250 I -1.8327 J -1.8578
G03 X 43.5887 Y 31.0840 Z -0.1250 I -0.8094 J -1.1765
G03 X 43.2891 Y 31.1362 Z -0.1250 I -0.2781 J -0.7096
G03 X 43.1368 Y 31.0712 Z -0.1250 I 0.0064 J -0.2258
G01 X 42.4010 Y 30.3453 Z -0.1250
G03 X 42.3330 Y 30.1768 Z -0.1250 I 0.1606 J -0.1627
G03 X 42.4139 Y 29.8317 Z -0.1250 I 0.8700 J 0.0219
G03 X 42.4992 Y 29.7078 Z -0.1250 I 0.5037 J 0.2553
G03 X 43.0680 Y 29.1101 Z -0.1250 I 12.5856 J 11.4071
G02 X 43.3842 Y 28.5195 Z -0.1250 I -0.8196 J -0.8188
G02 X 43.2659 Y 28.1252 Z -0.1250 I -0.4289 J -0.0862
G01 X 42.3795 Y 27.2677 Z -0.1250
G02 X 42.2270 Y 27.2027 Z -0.1250 I -0.1588 J 0.1610
G02 X 41.9191 Y 27.2550 Z -0.1250 I -0.0222 J 0.8013
G02 X 41.6266 Y 27.4114 Z -0.1250 I 0.5155 J 1.3155
G02 X 41.2736 Y 27.7050 Z -0.1250 I 1.5480 J 2.2205
G02 X 40.9752 Y 28.0539 Z -0.1250 I 1.9071 J 1.9332
G02 X 40.8132 Y 28.3460 Z -0.1250 I 1.1668 J 0.8381
G02 X 40.7638 Y 28.6447 Z -0.1250 I 0.7038 J 0.2699
G02 X 40.8304 Y 28.7959 Z -0.1250 I 0.2243 J -0.0086
G01 X 41.0413 Y 29.0039 Z -0.1250
G00 Z 0.0000 
S000	(---LaserOff 000%)

(End cutting path id: path931)


(Start cutting path id: path929)
(Change tool to Default tool)

G00 Z 0.0000 
S000	(---LaserOff 000%)
G00 X 36.7087 Y 32.2083

G01 Z -0.1250 F 100.0000(Penetrate)
S1000	(---Laser 100% ON)
G01 X 38.5719 Y 34.0463 Z -0.1250 F 400.0000
G01 X 39.6778 Y 35.1373 Z -0.1250
G01 X 38.5719 Y 34.0463 Z -0.1250
G02 X 38.7155 Y 34.1085 Z -0.1250 I 0.1519 J -0.1540
G02 X 39.0108 Y 34.0633 Z -0.1250 I 0.0305 J -0.7887
G02 X 39.3013 Y 33.9187 Z -0.1250 I -0.3829 J -1.1332
G02 X 39.6778 Y 33.6091 Z -0.1250 I -1.5203 J -2.2324
G02 X 39.9696 Y 33.2585 Z -0.1250 I -1.6345 J -1.6569
G02 X 40.0952 Y 32.9936 Z -0.1250 I -0.7957 J -0.5396
G02 X 40.1254 Y 32.7158 Z -0.1250 I -0.7035 J -0.2170
G02 X 40.0608 Y 32.5776 Z -0.1250 I -0.2189 J 0.0181
G01 X 38.1976 Y 30.7395 Z -0.1250
G01 X 40.0608 Y 32.5776 Z -0.1250
G03 X 40.1254 Y 32.7158 Z -0.1250 I -0.1542 J 0.1563
G03 X 40.0952 Y 32.9936 Z -0.1250 I -0.7337 J 0.0607
G03 X 39.9696 Y 33.2585 Z -0.1250 I -0.9213 J -0.2747
G03 X 39.6778 Y 33.6091 Z -0.1250 I -1.9263 J -1.3063
G03 X 39.3013 Y 33.9187 Z -0.1250 I -1.8968 J -1.9228
G03 X 39.0108 Y 34.0633 Z -0.1250 I -0.6733 J -0.9887
G03 X 38.7155 Y 34.1085 Z -0.1250 I -0.2649 J -0.7435
G03 X 38.5719 Y 34.0463 Z -0.1250 I 0.0084 J -0.2161
G01 X 36.7087 Y 32.2083 Z -0.1250
G00 Z 0.0000 
S000	(---LaserOff 000%)

(End cutting path id: path929)


(Start cutting path id: path927)
(Change tool to Default tool)

G00 Z 0.0000 
S000	(---LaserOff 000%)
G00 X 36.4614 Y 33.1059

G01 Z -0.1250 F 100.0000(Penetrate)
S1000	(---Laser 100% ON)
G02 X 36.3220 Y 33.0430 Z -0.1250 I -0.1548 J 0.1569 F 400.0000
G02 X 36.0354 Y 33.0762 Z -0.1250 I -0.0545 J 0.7817
G02 X 35.7570 Y 33.2077 Z -0.1250 I 0.3254 J 1.0496
G02 X 35.4158 Y 33.4837 Z -0.1250 I 1.2271 J 1.8658
G02 X 35.1173 Y 33.8327 Z -0.1250 I 1.9071 J 1.9332
G02 X 34.9554 Y 34.1247 Z -0.1250 I 1.1668 J 0.8381
G02 X 34.9059 Y 34.4235 Z -0.1250 I 0.7038 J 0.2699
G02 X 34.9726 Y 34.5747 Z -0.1250 I 0.2243 J -0.0086
G01 X 36.5044 Y 36.0859 Z -0.1250
G02 X 36.6567 Y 36.1508 Z -0.1250 I 0.1586 J -0.1608
G02 X 36.9563 Y 36.0986 Z -0.1250 I 0.0215 J -0.7619
G02 X 37.2567 Y 35.9409 Z -0.1250 I -0.5090 J -1.3343
G02 X 37.6103 Y 35.6486 Z -0.1250 I -1.4791 J -2.1500
G02 X 37.9021 Y 35.2980 Z -0.1250 I -1.6345 J -1.6569
G02 X 38.0277 Y 35.0331 Z -0.1250 I -0.7957 J -0.5396
G02 X 38.0579 Y 34.7554 Z -0.1250 I -0.7035 J -0.2170
G02 X 37.9933 Y 34.6171 Z -0.1250 I -0.2189 J 0.0181
G01 X 37.7825 Y 34.4091 Z -0.1250
G01 X 37.9933 Y 34.6171 Z -0.1250
G03 X 38.0579 Y 34.7554 Z -0.1250 I -0.1542 J 0.1563
G03 X 38.0277 Y 35.0331 Z -0.1250 I -0.7337 J 0.0607
G03 X 37.9021 Y 35.2980 Z -0.1250 I -0.9213 J -0.2747
G03 X 37.6103 Y 35.6486 Z -0.1250 I -1.9263 J -1.3063
G03 X 37.2567 Y 35.9409 Z -0.1250 I -1.8327 J -1.8578
G03 X 36.9563 Y 36.0986 Z -0.1250 I -0.8094 J -1.1765
G03 X 36.6567 Y 36.1508 Z -0.1250 I -0.2781 J -0.7096
G03 X 36.5044 Y 36.0859 Z -0.1250 I 0.0064 J -0.2258
G01 X 34.9726 Y 34.5747 Z -0.1250
G03 X 34.9059 Y 34.4235 Z -0.1250 I 0.1576 J -0.1598
G03 X 34.9554 Y 34.1247 Z -0.1250 I 0.7533 J -0.0288
G03 X 35.1173 Y 33.8327 Z -0.1250 I 1.3288 J 0.5461
G03 X 35.4158 Y 33.4837 Z -0.1250 I 2.2055 J 1.5843
G03 X 35.7570 Y 33.2077 Z -0.1250 I 1.5683 J 1.5898
G03 X 36.0354 Y 33.0762 Z -0.1250 I 0.6038 J 0.9181
G03 X 36.3220 Y 33.0430 Z -0.1250 I 0.2320 J 0.7484
G03 X 36.4614 Y 33.1059 Z -0.1250 I -0.0153 J 0.2199
G01 X 36.6723 Y 33.3139 Z -0.1250
G01 X 36.4614 Y 33.1059 Z -0.1250
G00 Z 0.0000 
S000	(---LaserOff 000%)

(End cutting path id: path927)


(Start cutting path id: path925)
(Change tool to Default tool)

G00 Z 0.0000 
S000	(---LaserOff 000%)
G00 X 32.5738 Y 36.2874

G01 Z -0.1250 F 100.0000(Penetrate)
S1000	(---Laser 100% ON)
G01 X 34.4370 Y 38.1254 Z -0.1250 F 400.0000
G01 X 34.7683 Y 38.4523 Z -0.1250
G01 X 34.4370 Y 38.1254 Z -0.1250
G02 X 34.5805 Y 38.1876 Z -0.1250 I 0.1519 J -0.1540
G02 X 34.8759 Y 38.1424 Z -0.1250 I 0.0305 J -0.7887
G02 X 35.1663 Y 37.9978 Z -0.1250 I -0.3829 J -1.1332
G02 X 35.5429 Y 37.6882 Z -0.1250 I -1.5203 J -2.2324
G02 X 35.8346 Y 37.3376 Z -0.1250 I -1.6345 J -1.6569
G02 X 35.9603 Y 37.0727 Z -0.1250 I -0.7957 J -0.5396
G02 X 35.9905 Y 36.7949 Z -0.1250 I -0.7035 J -0.2170
G02 X 35.9258 Y 36.6567 Z -0.1250 I -0.2189 J 0.0181
G01 X 35.9258 Y 36.6567 Z -0.1250
G03 X 35.9905 Y 36.7949 Z -0.1250 I -0.1542 J 0.1563
G03 X 35.9603 Y 37.0727 Z -0.1250 I -0.7337 J 0.0607
G03 X 35.8346 Y 37.3376 Z -0.1250 I -0.9213 J -0.2747
G03 X 35.5429 Y 37.6882 Z -0.1250 I -1.9263 J -1.3063
G03 X 35.1663 Y 37.9978 Z -0.1250 I -1.8968 J -1.9228
G03 X 34.8759 Y 38.1424 Z -0.1250 I -0.6733 J -0.9887
G03 X 34.5805 Y 38.1876 Z -0.1250 I -0.2649 J -0.7435
G03 X 34.4370 Y 38.1254 Z -0.1250 I 0.0084 J -0.2161
G01 X 32.5738 Y 36.2874 Z -0.1250
G00 Z 0.0000 
S000	(---LaserOff 000%)

(End cutting path id: path925)


(Start cutting path id: path923)
(Change tool to Default tool)

G00 Z 0.0000 
S000	(---LaserOff 000%)
G00 X 30.8376 Y 38.6538

G01 Z -0.1250 F 100.0000(Penetrate)
S1000	(---Laser 100% ON)
G03 X 30.7709 Y 38.5026 Z -0.1250 I 0.1576 J -0.1598 F 400.0000
G03 X 30.8204 Y 38.2038 Z -0.1250 I 0.7533 J -0.0288
G03 X 30.9824 Y 37.9118 Z -0.1250 I 1.3288 J 0.5461
G03 X 31.2808 Y 37.5628 Z -0.1250 I 2.2055 J 1.5843
G03 X 31.6042 Y 37.3021 Z -0.1250 I 1.4606 J 1.4806
G03 X 31.8919 Y 37.1638 Z -0.1250 I 0.6709 J 1.0274
G03 X 32.1871 Y 37.1239 Z -0.1250 I 0.2554 J 0.7767
G03 X 32.3265 Y 37.1850 Z -0.1250 I -0.0104 J 0.2129
G01 X 32.9590 Y 37.8090 Z -0.1250
G03 X 33.0143 Y 37.9465 Z -0.1250 I -0.1305 J 0.1323
G03 X 32.9461 Y 38.2717 Z -0.1250 I -0.9346 J -0.0261
G03 X 32.7828 Y 38.5873 Z -0.1250 I -1.6684 J -0.6636
G03 X 32.5760 Y 38.8406 Z -0.1250 I -1.2748 J -0.8293
G03 X 32.2224 Y 39.1328 Z -0.1250 I -1.8327 J -1.8578
G03 X 31.9220 Y 39.2905 Z -0.1250 I -0.8094 J -1.1766
G03 X 31.6224 Y 39.3428 Z -0.1250 I -0.2781 J -0.7096
G03 X 31.4702 Y 39.2778 Z -0.1250 I 0.0064 J -0.2258
G01 X 30.8376 Y 38.6538 Z -0.1250
G00 Z 0.0000 
S000	(---LaserOff 000%)

(Change tool to Default tool)

G00 Z 0.0000 
S000	(---LaserOff 000%)
G00 X 32.3265 Y 37.1850

G01 Z -0.1250 F 100.0000(Penetrate)
S1000	(---Laser 100% ON)
G02 X 32.1871 Y 37.1239 Z -0.1250 I -0.1497 J 0.1518 F 400.0000
G02 X 31.8919 Y 37.1638 Z -0.1250 I -0.0399 J 0.8166
G02 X 31.6042 Y 37.3021 Z -0.1250 I 0.3833 J 1.1656
G02 X 31.2808 Y 37.5628 Z -0.1250 I 1.1371 J 1.7413
G02 X 30.9824 Y 37.9118 Z -0.1250 I 1.9071 J 1.9332
G02 X 30.8204 Y 38.2038 Z -0.1250 I 1.1668 J 0.8381
G02 X 30.7709 Y 38.5026 Z -0.1250 I 0.7038 J 0.2699
G02 X 30.8376 Y 38.6538 Z -0.1250 I 0.2243 J -0.0086
G01 X 31.4702 Y 39.2778 Z -0.1250
G02 X 31.6224 Y 39.3428 Z -0.1250 I 0.1586 J -0.1608
G02 X 31.9220 Y 39.2905 Z -0.1250 I 0.0215 J -0.7619
G02 X 32.2224 Y 39.1328 Z -0.1250 I -0.5090 J -1.3343
G02 X 32.5760 Y 38.8406 Z -0.1250 I -1.4791 J -2.1500
G02 X 32.7828 Y 38.5873 Z -0.1250 I -1.0680 J -1.0826
G02 X 32.9461 Y 38.2717 Z -0.1250 I -1.5050 J -0.9791
G02 X 33.0143 Y 37.9465 Z -0.1250 I -0.8664 J -0.3513
G02 X 32.9590 Y 37.8090 Z -0.1250 I -0.1857 J -0.0052
G01 X 33.8583 Y 38.6962 Z -0.1250
G03 X 33.9230 Y 38.8345 Z -0.1250 I -0.1542 J 0.1563
G03 X 33.8928 Y 39.1122 Z -0.1250 I -0.7337 J 0.0607
G03 X 33.7672 Y 39.3771 Z -0.1250 I -0.9213 J -0.2747
G03 X 33.4754 Y 39.7278 Z -0.1250 I -1.9263 J -1.3063
G03 X 33.1218 Y 40.0200 Z -0.1250 I -1.8327 J -1.8578
G03 X 32.8213 Y 40.1777 Z -0.1250 I -0.8094 J -1.1765
G03 X 32.5217 Y 40.2300 Z -0.1250 I -0.2781 J -0.7096
G03 X 32.3695 Y 40.1650 Z -0.1250 I 0.0064 J -0.2258
G01 X 32.1586 Y 39.9570 Z -0.1250
G01 X 32.3695 Y 40.1650 Z -0.1250
G02 X 32.5217 Y 40.2300 Z -0.1250 I 0.1586 J -0.1608
G02 X 32.8213 Y 40.1777 Z -0.1250 I 0.0215 J -0.7619
G02 X 33.1218 Y 40.0200 Z -0.1250 I -0.5090 J -1.3343
G02 X 33.4754 Y 39.7278 Z -0.1250 I -1.4791 J -2.1500
G02 X 33.7672 Y 39.3771 Z -0.1250 I -1.6345 J -1.6569
G02 X 33.8928 Y 39.1122 Z -0.1250 I -0.7957 J -0.5396
G02 X 33.9230 Y 38.8345 Z -0.1250 I -0.7035 J -0.2170
G02 X 33.8583 Y 38.6962 Z -0.1250 I -0.2189 J 0.0181
G01 X 31.9951 Y 36.8582 Z -0.1250
G01 X 32.3265 Y 37.1850 Z -0.1250
G00 Z 0.0000 
S000	(---LaserOff 000%)

(End cutting path id: path923)


(Start cutting path id: path921)
(Change tool to Default tool)

G00 Z 0.0000 
S000	(---LaserOff 000%)
G00 X 27.7496 Y 41.0463

G01 Z -0.1250 F 100.0000(Penetrate)
S1000	(---Laser 100% ON)
G01 X 30.7187 Y 43.9754 Z -0.1250 F 400.0000
G01 X 28.7738 Y 40.0361 Z -0.1250
G01 X 32.7627 Y 41.9590 Z -0.1250
G01 X 29.7936 Y 39.0300 Z -0.1250
G01 X 32.7627 Y 41.9590 Z -0.1250
G01 X 28.7738 Y 40.0361 Z -0.1250
G01 X 30.7187 Y 43.9754 Z -0.1250
G01 X 27.7496 Y 41.0463 Z -0.1250
G00 Z 0.0000 
S000	(---LaserOff 000%)

(End cutting path id: path921)


(Start cutting path id: path919)
(Change tool to Default tool)

G00 Z 0.0000 
S000	(---LaserOff 000%)
G00 X 24.1830 Y 45.0063

G01 Z -0.1250 F 100.0000(Penetrate)
S1000	(---Laser 100% ON)
G03 X 24.1308 Y 44.8621 Z -0.1250 I 0.1251 J -0.1268 F 400.0000
G03 X 24.2217 Y 44.6115 Z -0.1250 I 0.5359 J 0.0526
G03 X 24.4163 Y 44.3599 Z -0.1250 I 2.3211 J 1.5939
G03 X 24.7338 Y 44.0215 Z -0.1250 I 4.5271 J 3.9288
G03 X 25.0766 Y 43.7087 Z -0.1250 I 4.1857 J 4.2430
G03 X 25.3276 Y 43.5205 Z -0.1250 I 1.7565 J 2.0823
G03 X 25.5864 Y 43.4270 Z -0.1250 I 0.3186 J 0.4767
G03 X 25.7321 Y 43.4781 Z -0.1250 I 0.0189 J 0.1797
G01 X 28.2494 Y 45.9614 Z -0.1250
G03 X 28.3007 Y 46.1055 Z -0.1250 I -0.1235 J 0.1252
G03 X 28.2064 Y 46.3604 Z -0.1250 I -0.5524 J -0.0596
G03 X 28.0188 Y 46.6109 Z -0.1250 I -2.0606 J -1.3476
G03 X 27.7029 Y 46.9505 Z -0.1250 I -4.1117 J -3.5083
G03 X 27.3592 Y 47.2619 Z -0.1250 I -3.8348 J -3.8873
G03 X 27.1005 Y 47.4514 Z -0.1250 I -1.6692 J -2.0076
G03 X 26.8461 Y 47.5414 Z -0.1250 I -0.3072 J -0.4633
G03 X 26.7003 Y 47.4896 Z -0.1250 I -0.0174 J -0.1821
G01 X 24.1830 Y 45.0063 Z -0.1250
G00 Z 0.0000 
S000	(---LaserOff 000%)

(Change tool to Default tool)

G00 Z 0.0000 
S000	(---LaserOff 000%)
G00 X 25.7321 Y 43.4781

G01 Z -0.1250 F 100.0000(Penetrate)
S1000	(---Laser 100% ON)
G02 X 25.5864 Y 43.4270 Z -0.1250 I -0.1269 J 0.1286 F 400.0000
G02 X 25.3276 Y 43.5205 Z -0.1250 I 0.0598 J 0.5702
G02 X 25.0766 Y 43.7087 Z -0.1250 I 1.5054 J 2.2704
G02 X 24.7338 Y 44.0215 Z -0.1250 I 3.8429 J 4.5557
G02 X 24.4163 Y 44.3599 Z -0.1250 I 4.2096 J 4.2673
G02 X 24.2217 Y 44.6115 Z -0.1250 I 2.1266 J 1.8455
G02 X 24.1308 Y 44.8621 Z -0.1250 I 0.4450 J 0.3032
G02 X 24.1830 Y 45.0063 Z -0.1250 I 0.1772 J 0.0174
G01 X 26.7003 Y 47.4896 Z -0.1250
G02 X 26.8461 Y 47.5414 Z -0.1250 I 0.1284 J -0.1302
G02 X 27.1005 Y 47.4514 Z -0.1250 I -0.0528 J -0.5533
G02 X 27.3592 Y 47.2619 Z -0.1250 I -1.4105 J -2.1971
G02 X 27.7029 Y 46.9505 Z -0.1250 I -3.4911 J -4.1987
G02 X 28.0188 Y 46.6109 Z -0.1250 I -3.7959 J -3.8478
G02 X 28.2064 Y 46.3604 Z -0.1250 I -1.8730 J -1.5981
G02 X 28.3007 Y 46.1055 Z -0.1250 I -0.4580 J -0.3145
G02 X 28.2494 Y 45.9614 Z -0.1250 I -0.1749 J -0.0189
G01 X 25.7321 Y 43.4781 Z -0.1250
G00 Z 0.0000 
S000	(---LaserOff 000%)

(End cutting path id: path919)


(Start cutting path id: path917)
(Change tool to Default tool)

G00 Z 0.0000 
S000	(---LaserOff 000%)
G00 X 21.8875 Y 46.8293

G01 Z -0.1250 F 100.0000(Penetrate)
S1000	(---Laser 100% ON)
G01 X 23.1310 Y 48.0561 Z -0.1250 F 400.0000
G02 X 23.3220 Y 48.1172 Z -0.1250 I 0.1693 J -0.2002
G02 X 23.6947 Y 48.0094 Z -0.1250 I -0.0811 J -0.9790
G03 X 23.8260 Y 47.9018 Z -0.1250 I 2.6671 J 3.1193
G03 X 23.9486 Y 47.8099 Z -0.1250 I 2.0674 J 2.6308
G01 X 24.2154 Y 47.6316 Z -0.1250
G03 X 24.4573 Y 47.4632 Z -0.1250 I 15.3811 J 21.8282
G03 X 24.5855 Y 47.3769 Z -0.1250 I 4.1587 J 6.0425
G03 X 24.7214 Y 47.2922 Z -0.1250 I 1.3909 J 2.0813
G03 X 24.8566 Y 47.2199 Z -0.1250 I 1.1492 J 1.9835
G03 X 25.2071 Y 47.1397 Z -0.1250 I 0.3726 J 0.8232
G03 X 25.3772 Y 47.2071 Z -0.1250 I 0.0057 J 0.2341
G01 X 26.0786 Y 47.8991 Z -0.1250
G03 X 26.1434 Y 48.0498 Z -0.1250 I -0.1528 J 0.1549
G03 X 26.0872 Y 48.3490 Z -0.1250 I -0.7494 J 0.0143
G03 X 25.9318 Y 48.6403 Z -0.1250 I -1.2474 J -0.4785
G03 X 25.6354 Y 48.9900 Z -0.1250 I -2.1054 J -1.4841
G03 X 25.2818 Y 49.2822 Z -0.1250 I -1.8327 J -1.8578
G03 X 24.9814 Y 49.4400 Z -0.1250 I -0.8094 J -1.1765
G03 X 24.6818 Y 49.4922 Z -0.1250 I -0.2781 J -0.7096
G03 X 24.5295 Y 49.4272 Z -0.1250 I 0.0064 J -0.2258
G01 X 24.3187 Y 49.2192 Z -0.1250
G01 X 24.5295 Y 49.4272 Z -0.1250
G02 X 24.6818 Y 49.4922 Z -0.1250 I 0.1586 J -0.1608
G02 X 24.9814 Y 49.4400 Z -0.1250 I 0.0215 J -0.7619
G02 X 25.2818 Y 49.2822 Z -0.1250 I -0.5089 J -1.3343
G02 X 25.6354 Y 48.9900 Z -0.1250 I -1.4791 J -2.1500
G02 X 25.9318 Y 48.6403 Z -0.1250 I -1.8090 J -1.8338
G02 X 26.0872 Y 48.3490 Z -0.1250 I -1.0920 J -0.7697
G02 X 26.1434 Y 48.0498 Z -0.1250 I -0.6933 J -0.2849
G02 X 26.0786 Y 47.8991 Z -0.1250 I -0.2175 J 0.0042
G01 X 25.3772 Y 47.2071 Z -0.1250
G02 X 25.2071 Y 47.1397 Z -0.1250 I -0.1644 J 0.1667
G02 X 24.8566 Y 47.2199 Z -0.1250 I 0.0221 J 0.9033
G02 X 24.7214 Y 47.2922 Z -0.1250 I 1.0141 J 2.0559
G02 X 24.5855 Y 47.3769 Z -0.1250 I 1.2549 J 2.1660
G02 X 24.4573 Y 47.4632 Z -0.1250 I 4.0305 J 6.1287
G02 X 24.2154 Y 47.6316 Z -0.1250 I 15.1392 J 21.9966
G01 X 23.9486 Y 47.8099 Z -0.1250
G02 X 23.8260 Y 47.9018 Z -0.1250 I 1.9474 J 2.7260
G02 X 23.6947 Y 48.0094 Z -0.1250 I 2.5392 J 3.2311
G03 X 23.3220 Y 48.1172 Z -0.1250 I -0.4539 J -0.8712
G03 X 23.1310 Y 48.0561 Z -0.1250 I -0.0216 J -0.2613
G01 X 21.8875 Y 46.8293 Z -0.1250
G01 X 23.3591 Y 45.3776 Z -0.1250
G01 X 21.8875 Y 46.8293 Z -0.1250
G00 Z 0.0000 
S000	(---LaserOff 000%)

(End cutting path id: path917)


(Start cutting path id: path2244)
(Change tool to Default tool)

G00 Z 0.0000 
S000	(---LaserOff 000%)
G00 X 26.7097 Y 8.5308

G01 Z -0.1250 F 100.0000(Penetrate)
S1000	(---Laser 100% ON)
G01 X 26.7097 Y 3.9483 Z -0.1250 F 400.0000
G01 X 26.7097 Y 3.9483 Z -0.1250
G02 X 26.6099 Y 3.6936 Z -0.1250 I -0.3749 J -0.0000
G02 X 26.1806 Y 3.3768 Z -0.1250 I -1.0466 J 0.9690
G02 X 25.6466 Y 3.2024 Z -0.1250 I -0.9713 J 2.0693
G02 X 24.9317 Y 3.1334 Z -0.1250 I -0.7149 J 3.6675
G02 X 24.0103 Y 3.2152 Z -0.1250 I 0.0000 J 5.2266
G02 X 23.5136 Y 3.3874 Z -0.1250 I 0.2976 J 1.6614
G02 X 23.1391 Y 3.6955 Z -0.1250 I 0.6171 J 1.1313
G02 X 23.0479 Y 3.9483 Z -0.1250 I 0.3045 J 0.2528
G01 X 23.0479 Y 8.5308 Z -0.1250
G01 X 23.0479 Y 3.9483 Z -0.1250
G03 X 23.1391 Y 3.6955 Z -0.1250 I 0.3957 J 0.0000
G03 X 23.5136 Y 3.3874 Z -0.1250 I 0.9915 J 0.8231
G03 X 24.0103 Y 3.2152 Z -0.1250 I 0.7943 J 1.4893
G03 X 24.9317 Y 3.1334 Z -0.1250 I 0.9214 J 5.1448
G03 X 25.6466 Y 3.2024 Z -0.1250 I -0.0000 J 3.7365
G03 X 26.1806 Y 3.3768 Z -0.1250 I -0.4373 J 2.2437
G03 X 26.6099 Y 3.6936 Z -0.1250 I -0.6172 J 1.2858
G03 X 26.7097 Y 3.9483 Z -0.1250 I -0.2751 J 0.2547
G01 X 26.7097 Y 8.5308 Z -0.1250
G00 Z 0.0000 
S000	(---LaserOff 000%)

(End cutting path id: path2244)


(Start cutting path id: path2246)
(Change tool to Default tool)

G00 Z 0.0000 
S000	(---LaserOff 000%)
G00 X 28.1329 Y 3.1334

G01 Z -0.1250 F 100.0000(Penetrate)
S1000	(---Laser 100% ON)
G01 X 28.1329 Y 7.7159 Z -0.1250 F 400.0000
G01 X 28.1329 Y 8.5308 Z -0.1250
G01 X 28.1329 Y 7.7159 Z -0.1250
G02 X 28.2324 Y 7.9702 Z -0.1250 I 0.3746 J 0.0000
G02 X 28.6514 Y 8.2768 Z -0.1250 I 0.9946 J -0.9195
G02 X 29.1879 Y 8.4536 Z -0.1250 I 0.9088 J -1.8555
G02 X 30.0379 Y 8.5308 Z -0.1250 I 0.8499 J -4.6393
G02 X 30.8329 Y 8.4528 Z -0.1250 I -0.0000 J -4.0862
G02 X 31.3184 Y 8.2768 Z -0.1250 I -0.3323 J -1.6754
G02 X 31.7023 Y 7.9674 Z -0.1250 I -0.6193 J -1.1612
G02 X 31.7947 Y 7.7159 Z -0.1250 I -0.2962 J -0.2515
G01 X 31.7947 Y 3.1334 Z -0.1250
G01 X 31.7947 Y 7.7159 Z -0.1250
G03 X 31.7023 Y 7.9674 Z -0.1250 I -0.3886 J -0.0000
G03 X 31.3184 Y 8.2768 Z -0.1250 I -1.0032 J -0.8518
G03 X 30.8329 Y 8.4528 Z -0.1250 I -0.8179 J -1.4994
G03 X 30.0379 Y 8.5308 Z -0.1250 I -0.7950 J -4.0082
G03 X 29.1879 Y 8.4536 Z -0.1250 I 0.0000 J -4.7165
G03 X 28.6514 Y 8.2768 Z -0.1250 I 0.3723 J -2.0322
G03 X 28.2324 Y 7.9702 Z -0.1250 I 0.5756 J -1.2262
G03 X 28.1329 Y 7.7159 Z -0.1250 I 0.2750 J -0.2543
G01 X 28.1329 Y 3.1334 Z -0.1250
G00 Z 0.0000 
S000	(---LaserOff 000%)

(End cutting path id: path2246)


(Start cutting path id: path2248)
(Change tool to Default tool)

G00 Z 0.0000 
S000	(---LaserOff 000%)
G00 X 36.8797 Y 7.7159

G01 Z -0.1250 F 100.0000(Penetrate)
S1000	(---Laser 100% ON)
G03 X 36.7719 Y 7.9832 Z -0.1250 I -0.3853 J 0.0000 F 400.0000
G03 X 36.3293 Y 8.2874 Z -0.1250 I -0.9641 J -0.9284
G03 X 35.7654 Y 8.4667 Z -0.1250 I -1.1033 J -2.4945
G03 X 35.1228 Y 8.5308 Z -0.1250 I -0.6426 J -3.1851
G03 X 34.2524 Y 8.4524 Z -0.1250 I -0.0000 J -4.8661
G03 X 33.7258 Y 8.2768 Z -0.1250 I 0.3510 J -1.9306
G03 X 33.3134 Y 7.9638 Z -0.1250 I 0.6274 J -1.2548
G03 X 33.2178 Y 7.7159 Z -0.1250 I 0.2737 J -0.2479
G01 X 33.2178 Y 6.1602 Z -0.1250
G03 X 33.3199 Y 5.9201 Z -0.1250 I 0.3334 J -0.0000
G03 X 33.7999 Y 5.5993 Z -0.1250 I 1.1331 J 1.1759
G03 X 34.3964 Y 5.4144 Z -0.1250 I 1.1286 J 2.5863
G03 X 35.1228 Y 5.3453 Z -0.1250 I 0.7264 J 3.7834
G03 X 35.7665 Y 5.4068 Z -0.1250 I -0.0000 J 3.3970
G03 X 36.3293 Y 5.5781 Z -0.1250 I -0.5328 J 2.7610
G03 X 36.7726 Y 5.8912 Z -0.1250 I -0.5567 J 1.2585
G03 X 36.8797 Y 6.1602 Z -0.1250 I -0.2845 J 0.2690
G01 X 36.8797 Y 7.7159 Z -0.1250
G00 Z 0.0000 
S000	(---LaserOff 000%)

(Change tool to Default tool)

G00 Z 0.0000 
S000	(---LaserOff 000%)
G00 X 33.2178 Y 7.7159

G01 Z -0.1250 F 100.0000(Penetrate)
S1000	(---Laser 100% ON)
G02 X 33.3134 Y 7.9638 Z -0.1250 I 0.3692 J 0.0000 F 400.0000
G02 X 33.7258 Y 8.2768 Z -0.1250 I 1.0398 J -0.9417
G02 X 34.2524 Y 8.4524 Z -0.1250 I 0.8775 J -1.7551
G02 X 35.1228 Y 8.5308 Z -0.1250 I 0.8705 J -4.7876
G02 X 35.7654 Y 8.4667 Z -0.1250 I -0.0000 J -3.2493
G02 X 36.3293 Y 8.2874 Z -0.1250 I -0.5394 J -2.6737
G02 X 36.7719 Y 7.9832 Z -0.1250 I -0.5215 J -1.2326
G02 X 36.8797 Y 7.7159 Z -0.1250 I -0.2775 J -0.2673
G01 X 36.8797 Y 6.1602 Z -0.1250
G02 X 36.7726 Y 5.8912 Z -0.1250 I -0.3915 J 0.0000
G02 X 36.3293 Y 5.5781 Z -0.1250 I -1.0000 J 0.9454
G02 X 35.7665 Y 5.4068 Z -0.1250 I -1.0956 J 2.5897
G02 X 35.1228 Y 5.3453 Z -0.1250 I -0.6437 J 3.3355
G02 X 34.3964 Y 5.4144 Z -0.1250 I 0.0000 J 3.8525
G02 X 33.7999 Y 5.5993 Z -0.1250 I 0.5321 J 2.7712
G02 X 33.3199 Y 5.9201 Z -0.1250 I 0.6531 J 1.4967
G02 X 33.2178 Y 6.1602 Z -0.1250 I 0.2314 J 0.2401
G01 X 33.2178 Y 3.9483 Z -0.1250
G03 X 33.3091 Y 3.6955 Z -0.1250 I 0.3957 J 0.0000
G03 X 33.6835 Y 3.3874 Z -0.1250 I 0.9915 J 0.8231
G03 X 34.1804 Y 3.2159 Z -0.1250 I 0.7878 J 1.4772
G03 X 35.1228 Y 3.1334 Z -0.1250 I 0.9425 J 5.3406
G03 X 35.7665 Y 3.1949 Z -0.1250 I -0.0000 J 3.3970
G03 X 36.3293 Y 3.3662 Z -0.1250 I -0.5328 J 2.7610
G03 X 36.7726 Y 3.6793 Z -0.1250 I -0.5567 J 1.2585
G03 X 36.8797 Y 3.9483 Z -0.1250 I -0.2845 J 0.2690
G01 X 36.8797 Y 4.4668 Z -0.1250
G01 X 36.8797 Y 3.9483 Z -0.1250
G02 X 36.7726 Y 3.6793 Z -0.1250 I -0.3915 J 0.0000
G02 X 36.3293 Y 3.3662 Z -0.1250 I -1.0000 J 0.9454
G02 X 35.7665 Y 3.1949 Z -0.1250 I -1.0956 J 2.5897
G02 X 35.1228 Y 3.1334 Z -0.1250 I -0.6437 J 3.3355
G02 X 34.1804 Y 3.2159 Z -0.1250 I -0.0000 J 5.4231
G02 X 33.6835 Y 3.3874 Z -0.1250 I 0.2909 J 1.6486
G02 X 33.3091 Y 3.6955 Z -0.1250 I 0.6171 J 1.1313
G02 X 33.2178 Y 3.9483 Z -0.1250 I 0.3045 J 0.2528
G01 X 33.2178 Y 7.7159 Z -0.1250
G00 Z 0.0000 
S000	(---LaserOff 000%)

(End cutting path id: path2248)


(Start cutting path id: path2242)
(Change tool to Default tool)

G00 Z 0.0000 
S000	(---LaserOff 000%)
G00 X 17.9629 Y 4.4668

G01 Z -0.1250 F 100.0000(Penetrate)
S1000	(---Laser 100% ON)
G01 X 17.9629 Y 3.9483 Z -0.1250 F 400.0000
G03 X 18.0689 Y 3.6781 Z -0.1250 I 0.3974 J 0.0000
G03 X 18.5027 Y 3.3662 Z -0.1250 I 0.9873 J 0.9155
G03 X 19.0668 Y 3.2012 Z -0.1250 I 0.9922 J 2.3452
G03 X 19.8679 Y 3.1334 Z -0.1250 I 0.8012 J 4.6977
G03 X 20.6688 Y 3.2017 Z -0.1250 I -0.0000 J 4.7276
G03 X 21.2226 Y 3.3662 Z -0.1250 I -0.4138 J 2.4078
G03 X 21.6659 Y 3.6793 Z -0.1250 I -0.5567 J 1.2585
G03 X 21.7729 Y 3.9483 Z -0.1250 I -0.2845 J 0.2690
G01 X 21.7729 Y 10.4041 Z -0.1250
G01 X 21.7729 Y 3.9483 Z -0.1250
G02 X 21.6659 Y 3.6793 Z -0.1250 I -0.3915 J -0.0000
G02 X 21.2226 Y 3.3662 Z -0.1250 I -1.0000 J 0.9454
G02 X 20.6688 Y 3.2017 Z -0.1250 I -0.9677 J 2.2433
G02 X 19.8679 Y 3.1334 Z -0.1250 I -0.8008 J 4.6593
G02 X 19.0668 Y 3.2012 Z -0.1250 I 0.0000 J 4.7655
G02 X 18.5027 Y 3.3662 Z -0.1250 I 0.4281 J 2.5102
G02 X 18.0689 Y 3.6781 Z -0.1250 I 0.5535 J 1.2274
G02 X 17.9629 Y 3.9483 Z -0.1250 I 0.2914 J 0.2702
G01 X 17.9629 Y 4.4668 Z -0.1250
G00 Z 0.0000 
S000	(---LaserOff 000%)

(End cutting path id: path2242)


(Start cutting path id: path2240)
(Change tool to Default tool)

G00 Z 0.0000 
S000	(---LaserOff 000%)
G00 X 8.6405 Y 3.6837

G01 Z -0.1250 F 100.0000(Penetrate)
S1000	(---Laser 100% ON)
G03 X 8.7556 Y 3.4398 Z -0.1250 I 0.3160 J 0.0000 F 400.0000
G03 X 9.1803 Y 3.2392 Z -0.1250 I 0.6089 J 0.7394
G03 X 9.7336 Y 3.1648 Z -0.1250 I 0.9367 J 4.8707
G03 X 10.5455 Y 3.1334 Z -0.1250 I 0.8119 J 10.4738
G03 X 11.3574 Y 3.1650 Z -0.1250 I 0.0000 J 10.4232
G03 X 11.9002 Y 3.2392 Z -0.1250 I -0.3692 J 4.7253
G03 X 12.3345 Y 3.4408 Z -0.1250 I -0.1866 J 0.9705
G03 X 12.4505 Y 3.6837 Z -0.1250 I -0.1961 J 0.2428
G01 X 12.4505 Y 9.8749 Z -0.1250
G03 X 12.3345 Y 10.1178 Z -0.1250 I -0.3122 J 0.0000
G03 X 11.9002 Y 10.3194 Z -0.1250 I -0.6209 J -0.7688
G03 X 11.3567 Y 10.4011 Z -0.1250 I -0.9151 J -4.2426
G03 X 10.5455 Y 10.4358 Z -0.1250 I -0.8112 J -9.4395
G03 X 9.7342 Y 10.4013 Z -0.1250 I -0.0000 J -9.5489
G03 X 9.1803 Y 10.3194 Z -0.1250 I 0.3858 J -4.5243
G03 X 8.7556 Y 10.1189 Z -0.1250 I 0.1843 J -0.9400
G03 X 8.6405 Y 9.8749 Z -0.1250 I 0.2009 J -0.2439
G01 X 8.6405 Y 3.6837 Z -0.1250
G00 Z 0.0000 
S000	(---LaserOff 000%)

(Change tool to Default tool)

G00 Z 0.0000 
S000	(---LaserOff 000%)
G00 X 12.4505 Y 3.6837

G01 Z -0.1250 F 100.0000(Penetrate)
S1000	(---Laser 100% ON)
G02 X 12.3345 Y 3.4408 Z -0.1250 I -0.3122 J -0.0000 F 400.0000
G02 X 11.9002 Y 3.2392 Z -0.1250 I -0.6209 J 0.7688
G02 X 11.3574 Y 3.1650 Z -0.1250 I -0.9120 J 4.6512
G02 X 10.5455 Y 3.1334 Z -0.1250 I -0.8118 J 10.3916
G02 X 9.7336 Y 3.1648 Z -0.1250 I 0.0000 J 10.5052
G02 X 9.1803 Y 3.2392 Z -0.1250 I 0.3833 J 4.9451
G02 X 8.7556 Y 3.4398 Z -0.1250 I 0.1843 J 0.9400
G02 X 8.6405 Y 3.6837 Z -0.1250 I 0.2009 J 0.2439
G01 X 8.6405 Y 9.8749 Z -0.1250
G02 X 8.7556 Y 10.1189 Z -0.1250 I 0.3160 J 0.0000
G02 X 9.1803 Y 10.3194 Z -0.1250 I 0.6089 J -0.7394
G02 X 9.7342 Y 10.4013 Z -0.1250 I 0.9397 J -4.4424
G02 X 10.5455 Y 10.4358 Z -0.1250 I 0.8113 J -9.5144
G02 X 11.3567 Y 10.4011 Z -0.1250 I -0.0000 J -9.4743
G02 X 11.9002 Y 10.3194 Z -0.1250 I -0.3716 J -4.3242
G02 X 12.3345 Y 10.1178 Z -0.1250 I -0.1866 J -0.9705
G02 X 12.4505 Y 9.8749 Z -0.1250 I -0.1961 J -0.2428
G01 X 12.4505 Y 3.6837 Z -0.1250
G00 Z 0.0000 
S000	(---LaserOff 000%)

(End cutting path id: path2240)


(Start cutting path id: path2238)
(Change tool to Default tool)

G00 Z 0.0000 
S000	(---LaserOff 000%)
G00 X 3.5450 Y 3.1334

G01 Z -0.1250 F 100.0000(Penetrate)
S1000	(---Laser 100% ON)
G01 X 3.5450 Y 6.1919 Z -0.1250 F 400.0000
G02 X 3.7041 Y 6.5029 Z -0.1250 I 0.4513 J -0.0347
G02 X 4.2964 Y 6.8269 Z -0.1250 I 1.0911 J -1.2911
G03 X 4.5920 Y 6.8542 Z -0.1250 I -0.5107 J 7.1499
G03 X 4.8573 Y 6.8904 Z -0.1250 I -0.6559 J 5.7933
G01 X 5.4076 Y 6.9963 Z -0.1250
G03 X 5.9151 Y 7.0837 Z -0.1250 I -7.6367 J 45.8203
G03 X 6.1802 Y 7.1338 Z -0.1250 I -2.2353 J 12.5523
G03 X 6.4531 Y 7.1955 Z -0.1250 I -0.8208 J 4.2680
G03 X 6.7094 Y 7.2714 Z -0.1250 I -0.9984 J 3.8399
G03 X 7.2397 Y 7.6024 Z -0.1250 I -0.5400 J 1.4557
G03 X 7.3656 Y 7.8958 Z -0.1250 I -0.2793 J 0.2935
G01 X 7.3656 Y 9.6209 Z -0.1250
G03 X 7.2578 Y 9.8882 Z -0.1250 I -0.3853 J 0.0000
G03 X 6.8152 Y 10.1924 Z -0.1250 I -0.9641 J -0.9284
G03 X 6.2601 Y 10.3646 Z -0.1250 I -0.9741 J -2.1601
G03 X 5.4606 Y 10.4358 Z -0.1250 I -0.7996 J -4.4499
G03 X 4.6606 Y 10.3651 Z -0.1250 I -0.0000 J -4.5575
G03 X 4.0953 Y 10.1924 Z -0.1250 I 0.4333 J -2.4304
G03 X 3.6623 Y 9.8894 Z -0.1250 I 0.5183 J -1.2015
G03 X 3.5556 Y 9.6209 Z -0.1250 I 0.2843 J -0.2685
G01 X 3.5556 Y 9.1023 Z -0.1250
G01 X 3.5556 Y 9.6209 Z -0.1250
G02 X 3.6623 Y 9.8894 Z -0.1250 I 0.3910 J 0.0000
G02 X 4.0953 Y 10.1924 Z -0.1250 I 0.9513 J -0.8985
G02 X 4.6606 Y 10.3651 Z -0.1250 I 0.9986 J -2.2577
G02 X 5.4606 Y 10.4358 Z -0.1250 I 0.8000 J -4.4868
G02 X 6.2601 Y 10.3646 Z -0.1250 I 0.0000 J -4.5212
G02 X 6.8152 Y 10.1924 Z -0.1250 I -0.4191 J -2.3322
G02 X 7.2578 Y 9.8882 Z -0.1250 I -0.5215 J -1.2326
G02 X 7.3656 Y 9.6209 Z -0.1250 I -0.2775 J -0.2673
G01 X 7.3656 Y 7.8958 Z -0.1250
G02 X 7.2397 Y 7.6024 Z -0.1250 I -0.4051 J -0.0000
G02 X 6.7094 Y 7.2714 Z -0.1250 I -1.0704 J 1.1248
G02 X 6.4531 Y 7.1955 Z -0.1250 I -1.2547 J 3.7640
G02 X 6.1802 Y 7.1338 Z -0.1250 I -1.0937 J 4.2064
G02 X 5.9151 Y 7.0837 Z -0.1250 I -2.5004 J 12.5022
G02 X 5.4076 Y 6.9963 Z -0.1250 I -8.1442 J 45.7328
G01 X 4.8573 Y 6.8904 Z -0.1250
G02 X 4.5920 Y 6.8542 Z -0.1250 I -0.9211 J 5.7571
G02 X 4.2964 Y 6.8269 Z -0.1250 I -0.8063 J 7.1226
G03 X 3.7041 Y 6.5029 Z -0.1250 I 0.4988 J -1.6151
G03 X 3.5450 Y 6.1919 Z -0.1250 I 0.2921 J -0.3457
G01 X 3.5450 Y 3.1334 Z -0.1250
G01 X 7.1645 Y 3.1334 Z -0.1250
G01 X 3.5450 Y 3.1334 Z -0.1250
G00 Z 0.0000 
S000	(---LaserOff 000%)

(End cutting path id: path2238)


(Start cutting path id: path3878)
(Change tool to Default tool)

G00 Z 0.0000 
S000	(---LaserOff 000%)
G00 X 65.9865 Y 18.9341

G01 Z -0.1250 F 100.0000(Penetrate)
S1000	(---Laser 100% ON)
G01 X 70.5691 Y 18.9341 Z -0.1250 F 400.0000
G01 X 71.3840 Y 18.9341 Z -0.1250
G01 X 70.5691 Y 18.9341 Z -0.1250
G02 X 70.8234 Y 18.8346 Z -0.1250 I 0.0000 J -0.3746
G02 X 71.1300 Y 18.4156 Z -0.1250 I -0.9195 J -0.9946
G02 X 71.3068 Y 17.8791 Z -0.1250 I -1.8555 J -0.9088
G02 X 71.3840 Y 17.0291 Z -0.1250 I -4.6393 J -0.8499
G02 X 71.3060 Y 16.2341 Z -0.1250 I -4.0862 J 0.0000
G02 X 71.1300 Y 15.7486 Z -0.1250 I -1.6754 J 0.3323
G02 X 70.8206 Y 15.3647 Z -0.1250 I -1.1612 J 0.6193
G02 X 70.5691 Y 15.2723 Z -0.1250 I -0.2515 J 0.2962
G01 X 70.5691 Y 15.2723 Z -0.1250
G03 X 70.8206 Y 15.3647 Z -0.1250 I 0.0000 J 0.3886
G03 X 71.1300 Y 15.7486 Z -0.1250 I -0.8518 J 1.0032
G03 X 71.3060 Y 16.2341 Z -0.1250 I -1.4994 J 0.8179
G03 X 71.3840 Y 17.0291 Z -0.1250 I -4.0082 J 0.7950
G03 X 71.3068 Y 17.8791 Z -0.1250 I -4.7165 J 0.0000
G03 X 71.1300 Y 18.4156 Z -0.1250 I -2.0322 J -0.3723
G03 X 70.8234 Y 18.8346 Z -0.1250 I -1.2262 J -0.5756
G03 X 70.5691 Y 18.9341 Z -0.1250 I -0.2543 J -0.2750
G01 X 65.9865 Y 18.9341 Z -0.1250
G00 Z 0.0000 
S000	(---LaserOff 000%)

(End cutting path id: path3878)


(Start cutting path id: path3876)
(Change tool to Default tool)

G00 Z 0.0000 
S000	(---LaserOff 000%)
G00 X 70.5691 Y 20.3573

G01 Z -0.1250 F 100.0000(Penetrate)
S1000	(---Laser 100% ON)
G03 X 70.8364 Y 20.4650 Z -0.1250 I 0.0000 J 0.3853 F 400.0000
G03 X 71.1406 Y 20.9076 Z -0.1250 I -0.9284 J 0.9641
G03 X 71.3199 Y 21.4715 Z -0.1250 I -2.4945 J 1.1033
G03 X 71.3840 Y 22.1141 Z -0.1250 I -3.1851 J 0.6426
G03 X 71.3055 Y 22.9846 Z -0.1250 I -4.8661 J -0.0000
G03 X 71.1300 Y 23.5111 Z -0.1250 I -1.9306 J -0.3510
G03 X 70.8170 Y 23.9235 Z -0.1250 I -1.2548 J -0.6274
G03 X 70.5691 Y 24.0191 Z -0.1250 I -0.2479 J -0.2737
G01 X 69.0134 Y 24.0191 Z -0.1250
G03 X 68.7733 Y 23.9170 Z -0.1250 I 0.0000 J -0.3334
G03 X 68.4525 Y 23.4370 Z -0.1250 I 1.1759 J -1.1331
G03 X 68.2676 Y 22.8405 Z -0.1250 I 2.5863 J -1.1286
G03 X 68.1985 Y 22.1141 Z -0.1250 I 3.7834 J -0.7264
G03 X 68.2600 Y 21.4704 Z -0.1250 I 3.3970 J 0.0000
G03 X 68.4313 Y 20.9076 Z -0.1250 I 2.7610 J 0.5328
G03 X 68.7444 Y 20.4643 Z -0.1250 I 1.2585 J 0.5567
G03 X 69.0134 Y 20.3573 Z -0.1250 I 0.2690 J 0.2845
G01 X 70.5691 Y 20.3573 Z -0.1250
G00 Z 0.0000 
S000	(---LaserOff 000%)

(Change tool to Default tool)

G00 Z 0.0000 
S000	(---LaserOff 000%)
G00 X 70.5691 Y 24.0191

G01 Z -0.1250 F 100.0000(Penetrate)
S1000	(---Laser 100% ON)
G02 X 70.8170 Y 23.9235 Z -0.1250 I 0.0000 J -0.3692 F 400.0000
G02 X 71.1300 Y 23.5111 Z -0.1250 I -0.9417 J -1.0398
G02 X 71.3055 Y 22.9846 Z -0.1250 I -1.7551 J -0.8775
G02 X 71.3840 Y 22.1141 Z -0.1250 I -4.7876 J -0.8705
G02 X 71.3199 Y 21.4715 Z -0.1250 I -3.2493 J 0.0000
G02 X 71.1406 Y 20.9076 Z -0.1250 I -2.6737 J 0.5394
G02 X 70.8364 Y 20.4650 Z -0.1250 I -1.2326 J 0.5215
G02 X 70.5691 Y 20.3573 Z -0.1250 I -0.2673 J 0.2775
G01 X 69.0134 Y 20.3573 Z -0.1250
G02 X 68.7444 Y 20.4643 Z -0.1250 I -0.0000 J 0.3915
G02 X 68.4313 Y 20.9076 Z -0.1250 I 0.9454 J 1.0000
G02 X 68.2600 Y 21.4704 Z -0.1250 I 2.5897 J 1.0956
G02 X 68.1985 Y 22.1141 Z -0.1250 I 3.3355 J 0.6437
G02 X 68.2676 Y 22.8405 Z -0.1250 I 3.8525 J -0.0000
G02 X 68.4525 Y 23.4370 Z -0.1250 I 2.7712 J -0.5321
G02 X 68.7733 Y 23.9170 Z -0.1250 I 1.4967 J -0.6531
G02 X 69.0134 Y 24.0191 Z -0.1250 I 0.2401 J -0.2314
G01 X 66.8015 Y 24.0191 Z -0.1250
G03 X 66.5487 Y 23.9279 Z -0.1250 I -0.0000 J -0.3957
G03 X 66.2405 Y 23.5534 Z -0.1250 I 0.8231 J -0.9915
G03 X 66.0691 Y 23.0565 Z -0.1250 I 1.4772 J -0.7878
G03 X 65.9865 Y 22.1141 Z -0.1250 I 5.3406 J -0.9425
G03 X 66.0481 Y 21.4704 Z -0.1250 I 3.3970 J -0.0000
G03 X 66.2194 Y 20.9076 Z -0.1250 I 2.7610 J 0.5328
G03 X 66.5325 Y 20.4643 Z -0.1250 I 1.2585 J 0.5567
G03 X 66.8015 Y 20.3573 Z -0.1250 I 0.2690 J 0.2845
G01 X 67.3200 Y 20.3573 Z -0.1250
G01 X 66.8015 Y 20.3573 Z -0.1250
G02 X 66.5325 Y 20.4643 Z -0.1250 I 0.0000 J 0.3915
G02 X 66.2194 Y 20.9076 Z -0.1250 I 0.9454 J 1.0000
G02 X 66.0481 Y 21.4704 Z -0.1250 I 2.5897 J 1.0956
G02 X 65.9865 Y 22.1141 Z -0.1250 I 3.3355 J 0.6437
G02 X 66.0691 Y 23.0565 Z -0.1250 I 5.4231 J 0.0000
G02 X 66.2405 Y 23.5534 Z -0.1250 I 1.6486 J -0.2909
G02 X 66.5487 Y 23.9279 Z -0.1250 I 1.1313 J -0.6171
G02 X 66.8015 Y 24.0191 Z -0.1250 I 0.2528 J -0.3045
G01 X 70.5691 Y 24.0191 Z -0.1250
G00 Z 0.0000 
S000	(---LaserOff 000%)

(End cutting path id: path3876)


(Start cutting path id: path3874)
(Change tool to Default tool)

G00 Z 0.0000 
S000	(---LaserOff 000%)
G00 X 66.8015 Y 29.1041

G01 Z -0.1250 F 100.0000(Penetrate)
S1000	(---Laser 100% ON)
G03 X 66.5634 Y 29.0003 Z -0.1250 I -0.0000 J -0.3251 F 400.0000
G03 X 66.2405 Y 28.5008 Z -0.1250 I 1.2490 J -1.1614
G03 X 66.0518 Y 27.8740 Z -0.1250 I 3.0348 J -1.2558
G03 X 65.9865 Y 27.1991 Z -0.1250 I 3.4591 J -0.6750
G03 X 66.0608 Y 26.4549 Z -0.1250 I 3.7639 J -0.0000
G03 X 66.2405 Y 25.9396 Z -0.1250 I 1.9648 J 0.3963
G03 X 66.5524 Y 25.5367 Z -0.1250 I 1.2229 J 0.6245
G03 X 66.8015 Y 25.4422 Z -0.1250 I 0.2491 J 0.2808
G01 X 70.5691 Y 25.4422 Z -0.1250
G03 X 70.8182 Y 25.5367 Z -0.1250 I -0.0000 J 0.3754
G03 X 71.1300 Y 25.9396 Z -0.1250 I -0.9111 J 1.0274
G03 X 71.3097 Y 26.4549 Z -0.1250 I -1.7851 J 0.9116
G03 X 71.3840 Y 27.1991 Z -0.1250 I -3.6896 J 0.7441
G03 X 71.3094 Y 28.0079 Z -0.1250 I -4.4220 J -0.0000
G03 X 71.1300 Y 28.5643 Z -0.1250 I -2.2522 J -0.4190
G03 X 70.8135 Y 29.0056 Z -0.1250 I -1.3544 J -0.6374
G03 X 70.5691 Y 29.1041 Z -0.1250 I -0.2444 J -0.2540
G01 X 66.8015 Y 29.1041 Z -0.1250
G00 Z 0.0000 
S000	(---LaserOff 000%)

(Change tool to Default tool)

G00 Z 0.0000 
S000	(---LaserOff 000%)
G00 X 66.8015 Y 25.4422

G01 Z -0.1250 F 100.0000(Penetrate)
S1000	(---Laser 100% ON)
G02 X 66.5524 Y 25.5367 Z -0.1250 I -0.0000 J 0.3754 F 400.0000
G02 X 66.2405 Y 25.9396 Z -0.1250 I 0.9111 J 1.0274
G02 X 66.0608 Y 26.4549 Z -0.1250 I 1.7851 J 0.9116
G02 X 65.9865 Y 27.1991 Z -0.1250 I 3.6896 J 0.7441
G02 X 66.0518 Y 27.8740 Z -0.1250 I 3.5244 J -0.0000
G02 X 66.2405 Y 28.5008 Z -0.1250 I 3.2236 J -0.6290
G02 X 66.5634 Y 29.0003 Z -0.1250 I 1.5719 J -0.6619
G02 X 66.8015 Y 29.1041 Z -0.1250 I 0.2381 J -0.2213
G01 X 65.9865 Y 29.1041 Z -0.1250
G01 X 73.3949 Y 29.1041 Z -0.1250
G01 X 70.5691 Y 29.1041 Z -0.1250
G02 X 70.8135 Y 29.0056 Z -0.1250 I 0.0000 J -0.3525
G02 X 71.1300 Y 28.5643 Z -0.1250 I -1.0379 J -1.0786
G02 X 71.3094 Y 28.0079 Z -0.1250 I -2.0728 J -0.9754
G02 X 71.3840 Y 27.1991 Z -0.1250 I -4.3474 J -0.8088
G02 X 71.3097 Y 26.4549 Z -0.1250 I -3.7639 J -0.0000
G02 X 71.1300 Y 25.9396 Z -0.1250 I -1.9648 J 0.3963
G02 X 70.8182 Y 25.5367 Z -0.1250 I -1.2229 J 0.6245
G02 X 70.5691 Y 25.4422 Z -0.1250 I -0.2491 J 0.2808
G01 X 66.8015 Y 25.4422 Z -0.1250
G00 Z 0.0000 
S000	(---LaserOff 000%)

(End cutting path id: path3874)


(Start cutting path id: path3872)
(Change tool to Default tool)

G00 Z 0.0000 
S000	(---LaserOff 000%)
G00 X 65.9865 Y 37.5790

G01 Z -0.1250 F 100.0000(Penetrate)
S1000	(---Laser 100% ON)
G01 X 70.5691 Y 37.5790 Z -0.1250 F 400.0000
G01 X 71.3840 Y 37.5790 Z -0.1250
G01 X 70.5691 Y 37.5790 Z -0.1250
G02 X 70.8234 Y 37.4795 Z -0.1250 I -0.0000 J -0.3746
G02 X 71.1300 Y 37.0604 Z -0.1250 I -0.9195 J -0.9946
G02 X 71.3068 Y 36.5239 Z -0.1250 I -1.8555 J -0.9088
G02 X 71.3840 Y 35.6740 Z -0.1250 I -4.6393 J -0.8499
G02 X 71.3060 Y 34.8790 Z -0.1250 I -4.0862 J 0.0000
G02 X 71.1300 Y 34.3934 Z -0.1250 I -1.6754 J 0.3323
G02 X 70.8206 Y 34.0095 Z -0.1250 I -1.1612 J 0.6193
G02 X 70.5691 Y 33.9172 Z -0.1250 I -0.2515 J 0.2962
G01 X 65.9865 Y 33.9172 Z -0.1250
G01 X 70.5691 Y 33.9172 Z -0.1250
G03 X 70.8206 Y 34.0095 Z -0.1250 I 0.0000 J 0.3886
G03 X 71.1300 Y 34.3934 Z -0.1250 I -0.8518 J 1.0032
G03 X 71.3060 Y 34.8790 Z -0.1250 I -1.4994 J 0.8179
G03 X 71.3840 Y 35.6740 Z -0.1250 I -4.0082 J 0.7950
G03 X 71.3068 Y 36.5239 Z -0.1250 I -4.7165 J -0.0000
G03 X 71.1300 Y 37.0604 Z -0.1250 I -2.0322 J -0.3723
G03 X 70.8234 Y 37.4795 Z -0.1250 I -1.2262 J -0.5756
G03 X 70.5691 Y 37.5790 Z -0.1250 I -0.2543 J -0.2750
G01 X 65.9865 Y 37.5790 Z -0.1250
G00 Z 0.0000 
S000	(---LaserOff 000%)

(Change tool to Default tool)

G00 Z 0.0000 
S000	(---LaserOff 000%)
G00 X 65.9865 Y 33.9172

G01 Z -0.1250 F 100.0000(Penetrate)
S1000	(---Laser 100% ON)
G01 X 70.5691 Y 33.9172 Z -0.1250 F 400.0000
G01 X 70.5691 Y 33.9172 Z -0.1250
G02 X 70.8234 Y 33.8176 Z -0.1250 I -0.0000 J -0.3746
G02 X 71.1300 Y 33.3986 Z -0.1250 I -0.9195 J -0.9946
G02 X 71.3068 Y 32.8621 Z -0.1250 I -1.8555 J -0.9088
G02 X 71.3840 Y 32.0122 Z -0.1250 I -4.6393 J -0.8499
G02 X 71.3064 Y 31.2276 Z -0.1250 I -4.0003 J -0.0000
G02 X 71.1300 Y 30.7422 Z -0.1250 I -1.6837 J 0.3367
G02 X 70.8206 Y 30.3583 Z -0.1250 I -1.1612 J 0.6193
G02 X 70.5691 Y 30.2659 Z -0.1250 I -0.2515 J 0.2962
G01 X 65.9865 Y 30.2659 Z -0.1250
G01 X 70.5691 Y 30.2659 Z -0.1250
G03 X 70.8206 Y 30.3583 Z -0.1250 I 0.0000 J 0.3886
G03 X 71.1300 Y 30.7422 Z -0.1250 I -0.8518 J 1.0032
G03 X 71.3064 Y 31.2276 Z -0.1250 I -1.5074 J 0.8222
G03 X 71.3840 Y 32.0122 Z -0.1250 I -3.9226 J 0.7845
G03 X 71.3068 Y 32.8621 Z -0.1250 I -4.7165 J -0.0000
G03 X 71.1300 Y 33.3986 Z -0.1250 I -2.0322 J -0.3723
G03 X 70.8234 Y 33.8176 Z -0.1250 I -1.2262 J -0.5756
G03 X 70.5691 Y 33.9172 Z -0.1250 I -0.2543 J -0.2750
G01 X 65.9865 Y 33.9172 Z -0.1250
G00 Z 0.0000 
S000	(---LaserOff 000%)

(End cutting path id: path3872)


(Start cutting path id: path3870)
(Change tool to Default tool)

G00 Z 0.0000 
S000	(---LaserOff 000%)
G00 X 70.5691 Y 39.0021

G01 Z -0.1250 F 100.0000(Penetrate)
S1000	(---Laser 100% ON)
G03 X 70.8364 Y 39.1099 Z -0.1250 I 0.0000 J 0.3853 F 400.0000
G03 X 71.1406 Y 39.5525 Z -0.1250 I -0.9284 J 0.9641
G03 X 71.3199 Y 40.1163 Z -0.1250 I -2.4945 J 1.1033
G03 X 71.3840 Y 40.7590 Z -0.1250 I -3.1851 J 0.6426
G03 X 71.3055 Y 41.6294 Z -0.1250 I -4.8661 J -0.0000
G03 X 71.1300 Y 42.1560 Z -0.1250 I -1.9306 J -0.3510
G03 X 70.8170 Y 42.5684 Z -0.1250 I -1.2548 J -0.6274
G03 X 70.5691 Y 42.6640 Z -0.1250 I -0.2479 J -0.2737
G01 X 69.0134 Y 42.6640 Z -0.1250
G03 X 68.7733 Y 42.5619 Z -0.1250 I -0.0000 J -0.3334
G03 X 68.4525 Y 42.0819 Z -0.1250 I 1.1759 J -1.1331
G03 X 68.2676 Y 41.4854 Z -0.1250 I 2.5863 J -1.1286
G03 X 68.1985 Y 40.7590 Z -0.1250 I 3.7834 J -0.7264
G03 X 68.2600 Y 40.1153 Z -0.1250 I 3.3970 J -0.0000
G03 X 68.4313 Y 39.5525 Z -0.1250 I 2.7610 J 0.5328
G03 X 68.7444 Y 39.1091 Z -0.1250 I 1.2585 J 0.5567
G03 X 69.0134 Y 39.0021 Z -0.1250 I 0.2690 J 0.2845
G01 X 70.5691 Y 39.0021 Z -0.1250
G00 Z 0.0000 
S000	(---LaserOff 000%)

(Change tool to Default tool)

G00 Z 0.0000 
S000	(---LaserOff 000%)
G00 X 70.5691 Y 42.6640

G01 Z -0.1250 F 100.0000(Penetrate)
S1000	(---Laser 100% ON)
G02 X 70.8170 Y 42.5684 Z -0.1250 I 0.0000 J -0.3692 F 400.0000
G02 X 71.1300 Y 42.1560 Z -0.1250 I -0.9417 J -1.0398
G02 X 71.3055 Y 41.6294 Z -0.1250 I -1.7551 J -0.8775
G02 X 71.3840 Y 40.7590 Z -0.1250 I -4.7876 J -0.8705
G02 X 71.3199 Y 40.1163 Z -0.1250 I -3.2493 J -0.0000
G02 X 71.1406 Y 39.5525 Z -0.1250 I -2.6737 J 0.5394
G02 X 70.8364 Y 39.1099 Z -0.1250 I -1.2326 J 0.5215
G02 X 70.5691 Y 39.0021 Z -0.1250 I -0.2673 J 0.2775
G01 X 69.0134 Y 39.0021 Z -0.1250
G02 X 68.7444 Y 39.1091 Z -0.1250 I 0.0000 J 0.3915
G02 X 68.4313 Y 39.5525 Z -0.1250 I 0.9454 J 1.0000
G02 X 68.2600 Y 40.1153 Z -0.1250 I 2.5897 J 1.0956
G02 X 68.1985 Y 40.7590 Z -0.1250 I 3.3355 J 0.6437
G02 X 68.2676 Y 41.4854 Z -0.1250 I 3.8525 J 0.0000
G02 X 68.4525 Y 42.0819 Z -0.1250 I 2.7712 J -0.5321
G02 X 68.7733 Y 42.5619 Z -0.1250 I 1.4967 J -0.6531
G02 X 69.0134 Y 42.6640 Z -0.1250 I 0.2401 J -0.2314
G01 X 66.8015 Y 42.6640 Z -0.1250
G03 X 66.5487 Y 42.5727 Z -0.1250 I -0.0000 J -0.3957
G03 X 66.2405 Y 42.1983 Z -0.1250 I 0.8231 J -0.9915
G03 X 66.0691 Y 41.7014 Z -0.1250 I 1.4772 J -0.7878
G03 X 65.9865 Y 40.7590 Z -0.1250 I 5.3406 J -0.9425
G03 X 66.0481 Y 40.1153 Z -0.1250 I 3.3970 J -0.0000
G03 X 66.2194 Y 39.5525 Z -0.1250 I 2.7610 J 0.5328
G03 X 66.5325 Y 39.1091 Z -0.1250 I 1.2585 J 0.5567
G03 X 66.8015 Y 39.0021 Z -0.1250 I 0.2690 J 0.2845
G01 X 67.3200 Y 39.0021 Z -0.1250
G01 X 66.8015 Y 39.0021 Z -0.1250
G02 X 66.5325 Y 39.1091 Z -0.1250 I 0.0000 J 0.3915
G02 X 66.2194 Y 39.5525 Z -0.1250 I 0.9454 J 1.0000
G02 X 66.0481 Y 40.1153 Z -0.1250 I 2.5897 J 1.0956
G02 X 65.9865 Y 40.7590 Z -0.1250 I 3.3355 J 0.6437
G02 X 66.0691 Y 41.7014 Z -0.1250 I 5.4231 J -0.0000
G02 X 66.2405 Y 42.1983 Z -0.1250 I 1.6486 J -0.2909
G02 X 66.5487 Y 42.5727 Z -0.1250 I 1.1313 J -0.6171
G02 X 66.8015 Y 42.6640 Z -0.1250 I 0.2528 J -0.3045
G01 X 70.5691 Y 42.6640 Z -0.1250
G00 Z 0.0000 
S000	(---LaserOff 000%)

(End cutting path id: path3870)


(Start cutting path id: path3868)
(Change tool to Default tool)

G00 Z 0.0000 
S000	(---LaserOff 000%)
G00 X 66.8015 Y 44.0871

G01 Z -0.1250 F 100.0000(Penetrate)
S1000	(---Laser 100% ON)
G02 X 66.5512 Y 44.1805 Z -0.1250 I 0.0000 J 0.3818 F 400.0000
G02 X 66.2405 Y 44.5739 Z -0.1250 I 0.8811 J 1.0151
G02 X 66.0622 Y 45.0793 Z -0.1250 I 1.6817 J 0.8774
G02 X 65.9865 Y 45.8439 Z -0.1250 I 3.8230 J 0.7646
G02 X 66.0544 Y 46.6451 Z -0.1250 I 4.7655 J 0.0000
G02 X 66.2194 Y 47.2092 Z -0.1250 I 2.5102 J -0.4281
G02 X 66.5313 Y 47.6429 Z -0.1250 I 1.2274 J -0.5535
G02 X 66.8015 Y 47.7489 Z -0.1250 I 0.2702 J -0.2914
G01 X 70.5691 Y 47.7489 Z -0.1250
G02 X 70.8376 Y 47.6422 Z -0.1250 I 0.0000 J -0.3910
G02 X 71.1406 Y 47.2092 Z -0.1250 I -0.8985 J -0.9513
G02 X 71.3133 Y 46.6439 Z -0.1250 I -2.2577 J -0.9986
G02 X 71.3840 Y 45.8439 Z -0.1250 I -4.4868 J -0.8000
G02 X 71.3060 Y 45.0489 Z -0.1250 I -4.0862 J 0.0000
G02 X 71.1300 Y 44.5633 Z -0.1250 I -1.6754 J 0.3323
G02 X 70.8206 Y 44.1794 Z -0.1250 I -1.1612 J 0.6193
G02 X 70.5691 Y 44.0871 Z -0.1250 I -0.2515 J 0.2962
G01 X 70.0505 Y 44.0871 Z -0.1250
G01 X 70.5691 Y 44.0871 Z -0.1250
G03 X 70.8206 Y 44.1794 Z -0.1250 I 0.0000 J 0.3886
G03 X 71.1300 Y 44.5633 Z -0.1250 I -0.8518 J 1.0032
G03 X 71.3060 Y 45.0489 Z -0.1250 I -1.4994 J 0.8179
G03 X 71.3840 Y 45.8439 Z -0.1250 I -4.0082 J 0.7950
G03 X 71.3133 Y 46.6439 Z -0.1250 I -4.5575 J -0.0000
G03 X 71.1406 Y 47.2092 Z -0.1250 I -2.4304 J -0.4333
G03 X 70.8376 Y 47.6422 Z -0.1250 I -1.2015 J -0.5183
G03 X 70.5691 Y 47.7489 Z -0.1250 I -0.2685 J -0.2843
G01 X 66.8015 Y 47.7489 Z -0.1250
G03 X 66.5313 Y 47.6429 Z -0.1250 I 0.0000 J -0.3974
G03 X 66.2194 Y 47.2092 Z -0.1250 I 0.9155 J -0.9873
G03 X 66.0544 Y 46.6451 Z -0.1250 I 2.3452 J -0.9922
G03 X 65.9865 Y 45.8439 Z -0.1250 I 4.6977 J -0.8012
G03 X 66.0622 Y 45.0793 Z -0.1250 I 3.8987 J -0.0000
G03 X 66.2405 Y 44.5739 Z -0.1250 I 1.8599 J 0.3720
G03 X 66.5512 Y 44.1805 Z -0.1250 I 1.1917 J 0.6218
G03 X 66.8015 Y 44.0871 Z -0.1250 I 0.2503 J 0.2883
G01 X 67.3200 Y 44.0871 Z -0.1250
G01 X 66.8015 Y 44.0871 Z -0.1250
G00 Z 0.0000 
S000	(---LaserOff 000%)

(End cutting path id: path3868)


(Start cutting path id: path3866)
(Change tool to Default tool)

G00 Z 0.0000 
S000	(---LaserOff 000%)
G00 X 70.5691 Y 49.1720

G01 Z -0.1250 F 100.0000(Penetrate)
S1000	(---Laser 100% ON)
G03 X 70.8364 Y 49.2798 Z -0.1250 I 0.0000 J 0.3853 F 400.0000
G03 X 71.1406 Y 49.7224 Z -0.1250 I -0.9284 J 0.9641
G03 X 71.3199 Y 50.2863 Z -0.1250 I -2.4945 J 1.1033
G03 X 71.3840 Y 50.9289 Z -0.1250 I -3.1851 J 0.6426
G03 X 71.3055 Y 51.7993 Z -0.1250 I -4.8661 J 0.0000
G03 X 71.1300 Y 52.3259 Z -0.1250 I -1.9306 J -0.3510
G03 X 70.8170 Y 52.7383 Z -0.1250 I -1.2548 J -0.6274
G03 X 70.5691 Y 52.8339 Z -0.1250 I -0.2479 J -0.2737
G01 X 69.0134 Y 52.8339 Z -0.1250
G03 X 68.7733 Y 52.7318 Z -0.1250 I 0.0000 J -0.3334
G03 X 68.4525 Y 52.2518 Z -0.1250 I 1.1759 J -1.1331
G03 X 68.2676 Y 51.6553 Z -0.1250 I 2.5863 J -1.1286
G03 X 68.1985 Y 50.9289 Z -0.1250 I 3.7834 J -0.7264
G03 X 68.2600 Y 50.2852 Z -0.1250 I 3.3970 J -0.0000
G03 X 68.4313 Y 49.7224 Z -0.1250 I 2.7610 J 0.5328
G03 X 68.7444 Y 49.2791 Z -0.1250 I 1.2585 J 0.5567
G03 X 69.0134 Y 49.1720 Z -0.1250 I 0.2690 J 0.2845
G01 X 70.5691 Y 49.1720 Z -0.1250
G00 Z 0.0000 
S000	(---LaserOff 000%)

(Change tool to Default tool)

G00 Z 0.0000 
S000	(---LaserOff 000%)
G00 X 70.5691 Y 52.8339

G01 Z -0.1250 F 100.0000(Penetrate)
S1000	(---Laser 100% ON)
G02 X 70.8170 Y 52.7383 Z -0.1250 I 0.0000 J -0.3692 F 400.0000
G02 X 71.1300 Y 52.3259 Z -0.1250 I -0.9417 J -1.0398
G02 X 71.3055 Y 51.7993 Z -0.1250 I -1.7551 J -0.8775
G02 X 71.3840 Y 50.9289 Z -0.1250 I -4.7876 J -0.8705
G02 X 71.3199 Y 50.2863 Z -0.1250 I -3.2493 J 0.0000
G02 X 71.1406 Y 49.7224 Z -0.1250 I -2.6737 J 0.5394
G02 X 70.8364 Y 49.2798 Z -0.1250 I -1.2326 J 0.5215
G02 X 70.5691 Y 49.1720 Z -0.1250 I -0.2673 J 0.2775
G01 X 69.0134 Y 49.1720 Z -0.1250
G02 X 68.7444 Y 49.2791 Z -0.1250 I 0.0000 J 0.3915
G02 X 68.4313 Y 49.7224 Z -0.1250 I 0.9454 J 1.0000
G02 X 68.2600 Y 50.2852 Z -0.1250 I 2.5897 J 1.0956
G02 X 68.1985 Y 50.9289 Z -0.1250 I 3.3355 J 0.6437
G02 X 68.2676 Y 51.6553 Z -0.1250 I 3.8525 J 0.0000
G02 X 68.4525 Y 52.2518 Z -0.1250 I 2.7712 J -0.5321
G02 X 68.7733 Y 52.7318 Z -0.1250 I 1.4967 J -0.6531
G02 X 69.0134 Y 52.8339 Z -0.1250 I 0.2401 J -0.2314
G01 X 66.8015 Y 52.8339 Z -0.1250
G03 X 66.5487 Y 52.7426 Z -0.1250 I -0.0000 J -0.3957
G03 X 66.2405 Y 52.3682 Z -0.1250 I 0.8231 J -0.9915
G03 X 66.0691 Y 51.8713 Z -0.1250 I 1.4772 J -0.7878
G03 X 65.9865 Y 50.9289 Z -0.1250 I 5.3406 J -0.9425
G03 X 66.0481 Y 50.2852 Z -0.1250 I 3.3970 J 0.0000
G03 X 66.2194 Y 49.7224 Z -0.1250 I 2.7610 J 0.5328
G03 X 66.5325 Y 49.2791 Z -0.1250 I 1.2585 J 0.5567
G03 X 66.8015 Y 49.1720 Z -0.1250 I 0.2690 J 0.2845
G01 X 67.3200 Y 49.1720 Z -0.1250
G01 X 66.8015 Y 49.1720 Z -0.1250
G02 X 66.5325 Y 49.2791 Z -0.1250 I 0.0000 J 0.3915
G02 X 66.2194 Y 49.7224 Z -0.1250 I 0.9454 J 1.0000
G02 X 66.0481 Y 50.2852 Z -0.1250 I 2.5897 J 1.0956
G02 X 65.9865 Y 50.9289 Z -0.1250 I 3.3355 J 0.6437
G02 X 66.0691 Y 51.8713 Z -0.1250 I 5.4231 J -0.0000
G02 X 66.2405 Y 52.3682 Z -0.1250 I 1.6486 J -0.2909
G02 X 66.5487 Y 52.7426 Z -0.1250 I 1.1313 J -0.6171
G02 X 66.8015 Y 52.8339 Z -0.1250 I 0.2528 J -0.3045
G01 X 70.5691 Y 52.8339 Z -0.1250
G00 Z 0.0000 
S000	(---LaserOff 000%)

(End cutting path id: path3866)


(Start cutting path id: path3864)
(Change tool to Default tool)

G00 Z 0.0000 
S000	(---LaserOff 000%)
G00 X 65.9865 Y 57.9188

G01 Z -0.1250 F 100.0000(Penetrate)
S1000	(---Laser 100% ON)
G01 X 73.2890 Y 57.9188 Z -0.1250 F 400.0000
G01 X 73.2890 Y 56.1938 Z -0.1250
G02 X 73.2196 Y 55.4144 Z -0.1250 I -4.4066 J 0.0000
G02 X 73.0456 Y 54.8391 Z -0.1250 I -2.5595 J 0.4599
G02 X 72.7340 Y 54.3935 Z -0.1250 I -1.2902 J 0.5707
G02 X 72.4741 Y 54.2888 Z -0.1250 I -0.2599 J 0.2699
G01 X 66.8015 Y 54.2888 Z -0.1250
G02 X 66.5325 Y 54.3958 Z -0.1250 I 0.0000 J 0.3915
G02 X 66.2194 Y 54.8391 Z -0.1250 I 0.9454 J 1.0000
G02 X 66.0557 Y 55.3828 Z -0.1250 I 2.1327 J 0.9384
G02 X 65.9865 Y 56.1938 Z -0.1250 I 4.7183 J 0.8110
G01 X 65.9865 Y 57.9188 Z -0.1250
G00 Z 0.0000 
S000	(---LaserOff 000%)

(Change tool to Default tool)

G00 Z 0.0000 
S000	(---LaserOff 000%)
G00 X 73.2890 Y 57.9188

G01 Z -0.1250 F 100.0000(Penetrate)
S1000	(---Laser 100% ON)
G01 X 65.9865 Y 57.9188 Z -0.1250 F 400.0000
G01 X 65.9865 Y 56.1938 Z -0.1250
G03 X 66.0557 Y 55.3828 Z -0.1250 I 4.7875 J 0.0000
G03 X 66.2194 Y 54.8391 Z -0.1250 I 2.2964 J 0.3947
G03 X 66.5325 Y 54.3958 Z -0.1250 I 1.2585 J 0.5567
G03 X 66.8015 Y 54.2888 Z -0.1250 I 0.2690 J 0.2845
G01 X 72.4741 Y 54.2888 Z -0.1250
G03 X 72.7340 Y 54.3935 Z -0.1250 I -0.0000 J 0.3746
G03 X 73.0456 Y 54.8391 Z -0.1250 I -0.9786 J 1.0162
G03 X 73.2196 Y 55.4144 Z -0.1250 I -2.3856 J 1.0353
G03 X 73.2890 Y 56.1938 Z -0.1250 I -4.3371 J 0.7793
G01 X 73.2890 Y 57.9188 Z -0.1250
G00 Z 0.0000 
S000	(---LaserOff 000%)

(End cutting path id: path3864)


(Start cutting path id: path3853)
(Change tool to Default tool)

G00 Z 0.0000 
S000	(---LaserOff 000%)
G00 X 82.7438 Y 58.9498

G01 Z -0.1250 F 100.0000(Penetrate)
S1000	(---Laser 100% ON)
G03 X 82.9819 Y 59.0535 Z -0.1250 I 0.0000 J 0.3251 F 400.0000
G03 X 83.3047 Y 59.5530 Z -0.1250 I -1.2490 J 1.1614
G03 X 83.4935 Y 60.1798 Z -0.1250 I -3.0348 J 1.2558
G03 X 83.5587 Y 60.8548 Z -0.1250 I -3.4591 J 0.6750
G03 X 83.4844 Y 61.5989 Z -0.1250 I -3.7639 J 0.0000
G03 X 83.3047 Y 62.1142 Z -0.1250 I -1.9648 J -0.3963
G03 X 82.9929 Y 62.5171 Z -0.1250 I -1.2229 J -0.6245
G03 X 82.7438 Y 62.6116 Z -0.1250 I -0.2491 J -0.2808
G01 X 78.9761 Y 62.6116 Z -0.1250
G03 X 78.7271 Y 62.5171 Z -0.1250 I -0.0000 J -0.3754
G03 X 78.4152 Y 62.1142 Z -0.1250 I 0.9111 J -1.0274
G03 X 78.2355 Y 61.5989 Z -0.1250 I 1.7851 J -0.9116
G03 X 78.1612 Y 60.8548 Z -0.1250 I 3.6896 J -0.7441
G03 X 78.2358 Y 60.0460 Z -0.1250 I 4.4220 J 0.0000
G03 X 78.4152 Y 59.4895 Z -0.1250 I 2.2522 J 0.4190
G03 X 78.7317 Y 59.0483 Z -0.1250 I 1.3544 J 0.6374
G03 X 78.9761 Y 58.9498 Z -0.1250 I 0.2444 J 0.2540
G01 X 82.7438 Y 58.9498 Z -0.1250
G00 Z 0.0000 
S000	(---LaserOff 000%)

(Change tool to Default tool)

G00 Z 0.0000 
S000	(---LaserOff 000%)
G00 X 82.7438 Y 62.6116

G01 Z -0.1250 F 100.0000(Penetrate)
S1000	(---Laser 100% ON)
G02 X 82.9929 Y 62.5171 Z -0.1250 I -0.0000 J -0.3754 F 400.0000
G02 X 83.3047 Y 62.1142 Z -0.1250 I -0.9111 J -1.0274
G02 X 83.4844 Y 61.5989 Z -0.1250 I -1.7851 J -0.9116
G02 X 83.5587 Y 60.8548 Z -0.1250 I -3.6896 J -0.7441
G02 X 83.4935 Y 60.1798 Z -0.1250 I -3.5244 J -0.0000
G02 X 83.3047 Y 59.5530 Z -0.1250 I -3.2236 J 0.6290
G02 X 82.9819 Y 59.0535 Z -0.1250 I -1.5719 J 0.6619
G02 X 82.7438 Y 58.9498 Z -0.1250 I -0.2381 J 0.2213
G01 X 83.5587 Y 58.9498 Z -0.1250
G01 X 76.1504 Y 58.9498 Z -0.1250
G01 X 78.9761 Y 58.9498 Z -0.1250
G02 X 78.7317 Y 59.0483 Z -0.1250 I 0.0000 J 0.3525
G02 X 78.4152 Y 59.4895 Z -0.1250 I 1.0379 J 1.0786
G02 X 78.2358 Y 60.0460 Z -0.1250 I 2.0728 J 0.9754
G02 X 78.1612 Y 60.8548 Z -0.1250 I 4.3474 J 0.8088
G02 X 78.2355 Y 61.5989 Z -0.1250 I 3.7639 J 0.0000
G02 X 78.4152 Y 62.1142 Z -0.1250 I 1.9648 J -0.3963
G02 X 78.7271 Y 62.5171 Z -0.1250 I 1.2229 J -0.6245
G02 X 78.9761 Y 62.6116 Z -0.1250 I 0.2491 J -0.2808
G01 X 82.7438 Y 62.6116 Z -0.1250
G00 Z 0.0000 
S000	(---LaserOff 000%)

(End cutting path id: path3853)


(Start cutting path id: path3855)
(Change tool to Default tool)

G00 Z 0.0000 
S000	(---LaserOff 000%)
G00 X 78.9761 Y 67.6966

G01 Z -0.1250 F 100.0000(Penetrate)
S1000	(---Laser 100% ON)
G03 X 78.7089 Y 67.5888 Z -0.1250 I 0.0000 J -0.3853 F 400.0000
G03 X 78.4046 Y 67.1463 Z -0.1250 I 0.9284 J -0.9641
G03 X 78.2254 Y 66.5824 Z -0.1250 I 2.4945 J -1.1033
G03 X 78.1612 Y 65.9398 Z -0.1250 I 3.1851 J -0.6426
G03 X 78.2397 Y 65.0693 Z -0.1250 I 4.8661 J 0.0000
G03 X 78.4152 Y 64.5428 Z -0.1250 I 1.9306 J 0.3510
G03 X 78.7283 Y 64.1303 Z -0.1250 I 1.2548 J 0.6274
G03 X 78.9761 Y 64.0348 Z -0.1250 I 0.2479 J 0.2737
G01 X 80.5319 Y 64.0348 Z -0.1250
G03 X 80.7720 Y 64.1368 Z -0.1250 I -0.0000 J 0.3334
G03 X 81.0928 Y 64.6168 Z -0.1250 I -1.1759 J 1.1331
G03 X 81.2777 Y 65.2133 Z -0.1250 I -2.5863 J 1.1286
G03 X 81.3468 Y 65.9398 Z -0.1250 I -3.7834 J 0.7264
G03 X 81.2853 Y 66.5834 Z -0.1250 I -3.3970 J -0.0000
G03 X 81.1140 Y 67.1463 Z -0.1250 I -2.7610 J -0.5328
G03 X 80.8009 Y 67.5896 Z -0.1250 I -1.2585 J -0.5567
G03 X 80.5319 Y 67.6966 Z -0.1250 I -0.2690 J -0.2845
G01 X 78.9761 Y 67.6966 Z -0.1250
G00 Z 0.0000 
S000	(---LaserOff 000%)

(Change tool to Default tool)

G00 Z 0.0000 
S000	(---LaserOff 000%)
G00 X 78.9761 Y 64.0348

G01 Z -0.1250 F 100.0000(Penetrate)
S1000	(---Laser 100% ON)
G02 X 78.7283 Y 64.1303 Z -0.1250 I -0.0000 J 0.3692 F 400.0000
G02 X 78.4152 Y 64.5428 Z -0.1250 I 0.9417 J 1.0398
G02 X 78.2397 Y 65.0693 Z -0.1250 I 1.7551 J 0.8775
G02 X 78.1612 Y 65.9398 Z -0.1250 I 4.7876 J 0.8705
G02 X 78.2254 Y 66.5824 Z -0.1250 I 3.2493 J -0.0000
G02 X 78.4046 Y 67.1463 Z -0.1250 I 2.6737 J -0.5394
G02 X 78.7089 Y 67.5888 Z -0.1250 I 1.2326 J -0.5215
G02 X 78.9761 Y 67.6966 Z -0.1250 I 0.2673 J -0.2775
G01 X 80.5319 Y 67.6966 Z -0.1250
G02 X 80.8009 Y 67.5896 Z -0.1250 I 0.0000 J -0.3915
G02 X 81.1140 Y 67.1463 Z -0.1250 I -0.9454 J -1.0000
G02 X 81.2853 Y 66.5834 Z -0.1250 I -2.5897 J -1.0956
G02 X 81.3468 Y 65.9398 Z -0.1250 I -3.3355 J -0.6437
G02 X 81.2777 Y 65.2133 Z -0.1250 I -3.8525 J -0.0000
G02 X 81.0928 Y 64.6168 Z -0.1250 I -2.7712 J 0.5321
G02 X 80.7720 Y 64.1368 Z -0.1250 I -1.4967 J 0.6531
G02 X 80.5319 Y 64.0348 Z -0.1250 I -0.2401 J 0.2314
G01 X 82.7438 Y 64.0348 Z -0.1250
G03 X 82.9966 Y 64.1260 Z -0.1250 I 0.0000 J 0.3957
G03 X 83.3047 Y 64.5004 Z -0.1250 I -0.8231 J 0.9915
G03 X 83.4762 Y 64.9973 Z -0.1250 I -1.4772 J 0.7878
G03 X 83.5587 Y 65.9398 Z -0.1250 I -5.3406 J 0.9425
G03 X 83.4972 Y 66.5834 Z -0.1250 I -3.3970 J -0.0000
G03 X 83.3259 Y 67.1463 Z -0.1250 I -2.7610 J -0.5328
G03 X 83.0128 Y 67.5896 Z -0.1250 I -1.2585 J -0.5567
G03 X 82.7438 Y 67.6966 Z -0.1250 I -0.2690 J -0.2845
G01 X 82.2252 Y 67.6966 Z -0.1250
G01 X 82.7438 Y 67.6966 Z -0.1250
G02 X 83.0128 Y 67.5896 Z -0.1250 I -0.0000 J -0.3915
G02 X 83.3259 Y 67.1463 Z -0.1250 I -0.9454 J -1.0000
G02 X 83.4972 Y 66.5834 Z -0.1250 I -2.5897 J -1.0956
G02 X 83.5587 Y 65.9398 Z -0.1250 I -3.3355 J -0.6437
G02 X 83.4762 Y 64.9973 Z -0.1250 I -5.4231 J -0.0000
G02 X 83.3047 Y 64.5004 Z -0.1250 I -1.6486 J 0.2909
G02 X 82.9966 Y 64.1260 Z -0.1250 I -1.1313 J 0.6171
G02 X 82.7438 Y 64.0348 Z -0.1250 I -0.2528 J 0.3045
G01 X 78.9761 Y 64.0348 Z -0.1250
G00 Z 0.0000 
S000	(---LaserOff 000%)

(End cutting path id: path3855)


(Start cutting path id: path3857)
(Change tool to Default tool)

G00 Z 0.0000 
S000	(---LaserOff 000%)
G00 X 83.5587 Y 69.1197

G01 Z -0.1250 F 100.0000(Penetrate)
S1000	(---Laser 100% ON)
G01 X 78.9761 Y 69.1197 Z -0.1250 F 400.0000
G01 X 78.1612 Y 69.1197 Z -0.1250
G01 X 78.9761 Y 69.1197 Z -0.1250
G02 X 78.7219 Y 69.2193 Z -0.1250 I -0.0000 J 0.3746
G02 X 78.4152 Y 69.6383 Z -0.1250 I 0.9195 J 0.9946
G02 X 78.2384 Y 70.1748 Z -0.1250 I 1.8555 J 0.9088
G02 X 78.1612 Y 71.0247 Z -0.1250 I 4.6393 J 0.8499
G02 X 78.2393 Y 71.8197 Z -0.1250 I 4.0862 J -0.0000
G02 X 78.4152 Y 72.3053 Z -0.1250 I 1.6754 J -0.3323
G02 X 78.7246 Y 72.6892 Z -0.1250 I 1.1612 J -0.6193
G02 X 78.9761 Y 72.7816 Z -0.1250 I 0.2515 J -0.2962
G01 X 78.9761 Y 72.7816 Z -0.1250
G03 X 78.7246 Y 72.6892 Z -0.1250 I 0.0000 J -0.3886
G03 X 78.4152 Y 72.3053 Z -0.1250 I 0.8518 J -1.0032
G03 X 78.2393 Y 71.8197 Z -0.1250 I 1.4994 J -0.8179
G03 X 78.1612 Y 71.0247 Z -0.1250 I 4.0082 J -0.7950
G03 X 78.2384 Y 70.1748 Z -0.1250 I 4.7165 J 0.0000
G03 X 78.4152 Y 69.6383 Z -0.1250 I 2.0322 J 0.3723
G03 X 78.7219 Y 69.2193 Z -0.1250 I 1.2262 J 0.5756
G03 X 78.9761 Y 69.1197 Z -0.1250 I 0.2543 J 0.2750
G01 X 83.5587 Y 69.1197 Z -0.1250
G00 Z 0.0000 
S000	(---LaserOff 000%)

(End cutting path id: path3857)


(Start cutting path id: path3862)
(Change tool to Default tool)

G00 Z 0.0000 
S000	(---LaserOff 000%)
G00 X 66.5369 Y 67.2413

G01 Z -0.1250 F 100.0000(Penetrate)
S1000	(---Laser 100% ON)
G03 X 66.2929 Y 67.1261 Z -0.1250 I -0.0000 J -0.3160 F 400.0000
G03 X 66.0924 Y 66.7015 Z -0.1250 I 0.7394 J -0.6089
G03 X 66.0180 Y 66.1482 Z -0.1250 I 4.8707 J -0.9367
G03 X 65.9865 Y 65.3363 Z -0.1250 I 10.4738 J -0.8119
G03 X 66.0182 Y 64.5244 Z -0.1250 I 10.4232 J 0.0000
G03 X 66.0924 Y 63.9816 Z -0.1250 I 4.7253 J 0.3692
G03 X 66.2940 Y 63.5473 Z -0.1250 I 0.9705 J 0.1866
G03 X 66.5369 Y 63.4313 Z -0.1250 I 0.2428 J 0.1961
G01 X 72.7281 Y 63.4313 Z -0.1250
G03 X 72.9710 Y 63.5473 Z -0.1250 I 0.0000 J 0.3122
G03 X 73.1726 Y 63.9816 Z -0.1250 I -0.7688 J 0.6209
G03 X 73.2542 Y 64.5251 Z -0.1250 I -4.2426 J 0.9151
G03 X 73.2890 Y 65.3363 Z -0.1250 I -9.4395 J 0.8112
G03 X 73.2545 Y 66.1476 Z -0.1250 I -9.5489 J 0.0000
G03 X 73.1726 Y 66.7015 Z -0.1250 I -4.5243 J -0.3858
G03 X 72.9721 Y 67.1261 Z -0.1250 I -0.9400 J -0.1843
G03 X 72.7281 Y 67.2413 Z -0.1250 I -0.2439 J -0.2009
G01 X 66.5369 Y 67.2413 Z -0.1250
G00 Z 0.0000 
S000	(---LaserOff 000%)

(Change tool to Default tool)

G00 Z 0.0000 
S000	(---LaserOff 000%)
G00 X 66.5369 Y 63.4313

G01 Z -0.1250 F 100.0000(Penetrate)
S1000	(---Laser 100% ON)
G02 X 66.2940 Y 63.5473 Z -0.1250 I -0.0000 J 0.3122 F 400.0000
G02 X 66.0924 Y 63.9816 Z -0.1250 I 0.7688 J 0.6209
G02 X 66.0182 Y 64.5244 Z -0.1250 I 4.6512 J 0.9120
G02 X 65.9865 Y 65.3363 Z -0.1250 I 10.3916 J 0.8118
G02 X 66.0180 Y 66.1482 Z -0.1250 I 10.5052 J -0.0000
G02 X 66.0924 Y 66.7015 Z -0.1250 I 4.9451 J -0.3833
G02 X 66.2929 Y 67.1261 Z -0.1250 I 0.9400 J -0.1843
G02 X 66.5369 Y 67.2413 Z -0.1250 I 0.2439 J -0.2009
G01 X 72.7281 Y 67.2413 Z -0.1250
G02 X 72.9721 Y 67.1261 Z -0.1250 I -0.0000 J -0.3160
G02 X 73.1726 Y 66.7015 Z -0.1250 I -0.7394 J -0.6089
G02 X 73.2545 Y 66.1476 Z -0.1250 I -4.4424 J -0.9397
G02 X 73.2890 Y 65.3363 Z -0.1250 I -9.5144 J -0.8113
G02 X 73.2542 Y 64.5251 Z -0.1250 I -9.4743 J 0.0000
G02 X 73.1726 Y 63.9816 Z -0.1250 I -4.3242 J 0.3716
G02 X 72.9710 Y 63.5473 Z -0.1250 I -0.9705 J 0.1866
G02 X 72.7281 Y 63.4313 Z -0.1250 I -0.2428 J 0.1961
G01 X 66.5369 Y 63.4313 Z -0.1250
G00 Z 0.0000 
S000	(---LaserOff 000%)

(End cutting path id: path3862)


(Start cutting path id: path3860)
(Change tool to Default tool)

G00 Z 0.0000 
S000	(---LaserOff 000%)
G00 X 65.9865 Y 72.3368

G01 Z -0.1250 F 100.0000(Penetrate)
S1000	(---Laser 100% ON)
G01 X 69.0451 Y 72.3368 Z -0.1250 F 400.0000
G02 X 69.3561 Y 72.1777 Z -0.1250 I -0.0347 J -0.4513
G02 X 69.6801 Y 71.5854 Z -0.1250 I -1.2911 J -1.0911
G03 X 69.7074 Y 71.2898 Z -0.1250 I 7.1499 J 0.5107
G03 X 69.7436 Y 71.0245 Z -0.1250 I 5.7933 J 0.6559
G01 X 69.8495 Y 70.4741 Z -0.1250
G03 X 69.9369 Y 69.9667 Z -0.1250 I 45.8203 J 7.6367
G03 X 69.9870 Y 69.7016 Z -0.1250 I 12.5523 J 2.2353
G03 X 70.0487 Y 69.4287 Z -0.1250 I 4.2680 J 0.8208
G03 X 70.1246 Y 69.1724 Z -0.1250 I 3.8399 J 0.9984
G03 X 70.4556 Y 68.6421 Z -0.1250 I 1.4557 J 0.5400
G03 X 70.7490 Y 68.5162 Z -0.1250 I 0.2935 J 0.2793
G01 X 72.4741 Y 68.5162 Z -0.1250
G03 X 72.7414 Y 68.6240 Z -0.1250 I -0.0000 J 0.3853
G03 X 73.0456 Y 69.0666 Z -0.1250 I -0.9284 J 0.9641
G03 X 73.2178 Y 69.6216 Z -0.1250 I -2.1601 J 0.9741
G03 X 73.2890 Y 70.4212 Z -0.1250 I -4.4499 J 0.7996
G03 X 73.2183 Y 71.2212 Z -0.1250 I -4.5575 J 0.0000
G03 X 73.0456 Y 71.7865 Z -0.1250 I -2.4304 J -0.4333
G03 X 72.7426 Y 72.2195 Z -0.1250 I -1.2015 J -0.5183
G03 X 72.4741 Y 72.3262 Z -0.1250 I -0.2685 J -0.2843
G01 X 71.9555 Y 72.3262 Z -0.1250
G01 X 72.4741 Y 72.3262 Z -0.1250
G02 X 72.7426 Y 72.2195 Z -0.1250 I 0.0000 J -0.3910
G02 X 73.0456 Y 71.7865 Z -0.1250 I -0.8985 J -0.9513
G02 X 73.2183 Y 71.2212 Z -0.1250 I -2.2577 J -0.9986
G02 X 73.2890 Y 70.4212 Z -0.1250 I -4.4868 J -0.8000
G02 X 73.2178 Y 69.6216 Z -0.1250 I -4.5212 J 0.0000
G02 X 73.0456 Y 69.0666 Z -0.1250 I -2.3322 J 0.4191
G02 X 72.7414 Y 68.6240 Z -0.1250 I -1.2326 J 0.5215
G02 X 72.4741 Y 68.5162 Z -0.1250 I -0.2673 J 0.2775
G01 X 70.7490 Y 68.5162 Z -0.1250
G02 X 70.4556 Y 68.6421 Z -0.1250 I 0.0000 J 0.4051
G02 X 70.1246 Y 69.1724 Z -0.1250 I 1.1248 J 1.0704
G02 X 70.0487 Y 69.4287 Z -0.1250 I 3.7640 J 1.2547
G02 X 69.9870 Y 69.7016 Z -0.1250 I 4.2064 J 1.0937
G02 X 69.9369 Y 69.9667 Z -0.1250 I 12.5022 J 2.5004
G02 X 69.8495 Y 70.4741 Z -0.1250 I 45.7328 J 8.1442
G01 X 69.7436 Y 71.0245 Z -0.1250
G02 X 69.7074 Y 71.2898 Z -0.1250 I 5.7571 J 0.9211
G02 X 69.6801 Y 71.5854 Z -0.1250 I 7.1226 J 0.8063
G03 X 69.3561 Y 72.1777 Z -0.1250 I -1.6151 J -0.4988
G03 X 69.0451 Y 72.3368 Z -0.1250 I -0.3457 J -0.2921
G01 X 65.9865 Y 72.3368 Z -0.1250
G01 X 65.9865 Y 68.7173 Z -0.1250
G01 X 65.9865 Y 72.3368 Z -0.1250
G00 Z 0.0000 
S000	(---LaserOff 000%)

(End cutting path id: path3860)


(Start cutting path id: path3849)
(Change tool to Default tool)

G00 Z 0.0000 
S000	(---LaserOff 000%)
G00 X 78.9761 Y 49.0517

G01 Z -0.1250 F 100.0000(Penetrate)
S1000	(---Laser 100% ON)
G03 X 78.7089 Y 48.9440 Z -0.1250 I 0.0000 J -0.3853 F 400.0000
G03 X 78.4046 Y 48.5014 Z -0.1250 I 0.9284 J -0.9641
G03 X 78.2254 Y 47.9375 Z -0.1250 I 2.4945 J -1.1033
G03 X 78.1612 Y 47.2949 Z -0.1250 I 3.1851 J -0.6426
G03 X 78.2397 Y 46.4244 Z -0.1250 I 4.8661 J 0.0000
G03 X 78.4152 Y 45.8979 Z -0.1250 I 1.9306 J 0.3510
G03 X 78.7283 Y 45.4855 Z -0.1250 I 1.2548 J 0.6274
G03 X 78.9761 Y 45.3899 Z -0.1250 I 0.2479 J 0.2737
G01 X 80.5319 Y 45.3899 Z -0.1250
G03 X 80.7720 Y 45.4920 Z -0.1250 I 0.0000 J 0.3334
G03 X 81.0928 Y 45.9720 Z -0.1250 I -1.1759 J 1.1331
G03 X 81.2777 Y 46.5685 Z -0.1250 I -2.5863 J 1.1286
G03 X 81.3468 Y 47.2949 Z -0.1250 I -3.7834 J 0.7264
G03 X 81.2853 Y 47.9386 Z -0.1250 I -3.3970 J 0.0000
G03 X 81.1140 Y 48.5014 Z -0.1250 I -2.7610 J -0.5328
G03 X 80.8009 Y 48.9447 Z -0.1250 I -1.2585 J -0.5567
G03 X 80.5319 Y 49.0517 Z -0.1250 I -0.2690 J -0.2845
G01 X 78.9761 Y 49.0517 Z -0.1250
G00 Z 0.0000 
S000	(---LaserOff 000%)

(Change tool to Default tool)

G00 Z 0.0000 
S000	(---LaserOff 000%)
G00 X 78.9761 Y 45.3899

G01 Z -0.1250 F 100.0000(Penetrate)
S1000	(---Laser 100% ON)
G02 X 78.7283 Y 45.4855 Z -0.1250 I 0.0000 J 0.3692 F 400.0000
G02 X 78.4152 Y 45.8979 Z -0.1250 I 0.9417 J 1.0398
G02 X 78.2397 Y 46.4244 Z -0.1250 I 1.7551 J 0.8775
G02 X 78.1612 Y 47.2949 Z -0.1250 I 4.7876 J 0.8705
G02 X 78.2254 Y 47.9375 Z -0.1250 I 3.2493 J -0.0000
G02 X 78.4046 Y 48.5014 Z -0.1250 I 2.6737 J -0.5394
G02 X 78.7089 Y 48.9440 Z -0.1250 I 1.2326 J -0.5215
G02 X 78.9761 Y 49.0517 Z -0.1250 I 0.2673 J -0.2775
G01 X 80.5319 Y 49.0517 Z -0.1250
G02 X 80.8009 Y 48.9447 Z -0.1250 I -0.0000 J -0.3915
G02 X 81.1140 Y 48.5014 Z -0.1250 I -0.9454 J -1.0000
G02 X 81.2853 Y 47.9386 Z -0.1250 I -2.5897 J -1.0956
G02 X 81.3468 Y 47.2949 Z -0.1250 I -3.3355 J -0.6437
G02 X 81.2777 Y 46.5685 Z -0.1250 I -3.8525 J -0.0000
G02 X 81.0928 Y 45.9720 Z -0.1250 I -2.7712 J 0.5321
G02 X 80.7720 Y 45.4920 Z -0.1250 I -1.4967 J 0.6531
G02 X 80.5319 Y 45.3899 Z -0.1250 I -0.2401 J 0.2314
G01 X 82.7438 Y 45.3899 Z -0.1250
G03 X 82.9966 Y 45.4811 Z -0.1250 I 0.0000 J 0.3957
G03 X 83.3047 Y 45.8556 Z -0.1250 I -0.8231 J 0.9915
G03 X 83.4762 Y 46.3524 Z -0.1250 I -1.4772 J 0.7878
G03 X 83.5587 Y 47.2949 Z -0.1250 I -5.3406 J 0.9425
G03 X 83.4972 Y 47.9386 Z -0.1250 I -3.3970 J -0.0000
G03 X 83.3259 Y 48.5014 Z -0.1250 I -2.7610 J -0.5328
G03 X 83.0128 Y 48.9447 Z -0.1250 I -1.2585 J -0.5567
G03 X 82.7438 Y 49.0517 Z -0.1250 I -0.2690 J -0.2845
G01 X 82.2252 Y 49.0517 Z -0.1250
G01 X 82.7438 Y 49.0517 Z -0.1250
G02 X 83.0128 Y 48.9447 Z -0.1250 I -0.0000 J -0.3915
G02 X 83.3259 Y 48.5014 Z -0.1250 I -0.9454 J -1.0000
G02 X 83.4972 Y 47.9386 Z -0.1250 I -2.5897 J -1.0956
G02 X 83.5587 Y 47.2949 Z -0.1250 I -3.3355 J -0.6437
G02 X 83.4762 Y 46.3524 Z -0.1250 I -5.4231 J -0.0000
G02 X 83.3047 Y 45.8556 Z -0.1250 I -1.6486 J 0.2909
G02 X 82.9966 Y 45.4811 Z -0.1250 I -1.1313 J 0.6171
G02 X 82.7438 Y 45.3899 Z -0.1250 I -0.2528 J 0.3045
G01 X 78.9761 Y 45.3899 Z -0.1250
G00 Z 0.0000 
S000	(---LaserOff 000%)

(End cutting path id: path3849)


(Start cutting path id: path3847)
(Change tool to Default tool)

G00 Z 0.0000 
S000	(---LaserOff 000%)
G00 X 82.7438 Y 43.9668

G01 Z -0.1250 F 100.0000(Penetrate)
S1000	(---Laser 100% ON)
G02 X 82.9941 Y 43.8733 Z -0.1250 I -0.0000 J -0.3818 F 400.0000
G02 X 83.3047 Y 43.4799 Z -0.1250 I -0.8811 J -1.0151
G02 X 83.4830 Y 42.9745 Z -0.1250 I -1.6817 J -0.8774
G02 X 83.5587 Y 42.2099 Z -0.1250 I -3.8230 J -0.7646
G02 X 83.4909 Y 41.4088 Z -0.1250 I -4.7655 J -0.0000
G02 X 83.3259 Y 40.8447 Z -0.1250 I -2.5102 J 0.4281
G02 X 83.0140 Y 40.4109 Z -0.1250 I -1.2274 J 0.5535
G02 X 82.7438 Y 40.3049 Z -0.1250 I -0.2702 J 0.2914
G01 X 78.9761 Y 40.3049 Z -0.1250
G02 X 78.7077 Y 40.4117 Z -0.1250 I -0.0000 J 0.3910
G02 X 78.4046 Y 40.8447 Z -0.1250 I 0.8985 J 0.9513
G02 X 78.2320 Y 41.4100 Z -0.1250 I 2.2577 J 0.9986
G02 X 78.1612 Y 42.2099 Z -0.1250 I 4.4868 J 0.8000
G02 X 78.2393 Y 43.0049 Z -0.1250 I 4.0862 J 0.0000
G02 X 78.4152 Y 43.4905 Z -0.1250 I 1.6754 J -0.3323
G02 X 78.7246 Y 43.8744 Z -0.1250 I 1.1612 J -0.6193
G02 X 78.9761 Y 43.9668 Z -0.1250 I 0.2515 J -0.2962
G01 X 79.4947 Y 43.9668 Z -0.1250
G01 X 78.9761 Y 43.9668 Z -0.1250
G03 X 78.7246 Y 43.8744 Z -0.1250 I -0.0000 J -0.3886
G03 X 78.4152 Y 43.4905 Z -0.1250 I 0.8518 J -1.0032
G03 X 78.2393 Y 43.0049 Z -0.1250 I 1.4994 J -0.8179
G03 X 78.1612 Y 42.2099 Z -0.1250 I 4.0082 J -0.7950
G03 X 78.2320 Y 41.4100 Z -0.1250 I 4.5575 J 0.0000
G03 X 78.4046 Y 40.8447 Z -0.1250 I 2.4304 J 0.4333
G03 X 78.7077 Y 40.4117 Z -0.1250 I 1.2015 J 0.5183
G03 X 78.9761 Y 40.3049 Z -0.1250 I 0.2685 J 0.2843
G01 X 82.7438 Y 40.3049 Z -0.1250
G03 X 83.0140 Y 40.4109 Z -0.1250 I 0.0000 J 0.3974
G03 X 83.3259 Y 40.8447 Z -0.1250 I -0.9155 J 0.9873
G03 X 83.4909 Y 41.4088 Z -0.1250 I -2.3452 J 0.9922
G03 X 83.5587 Y 42.2099 Z -0.1250 I -4.6977 J 0.8012
G03 X 83.4830 Y 42.9745 Z -0.1250 I -3.8987 J -0.0000
G03 X 83.3047 Y 43.4799 Z -0.1250 I -1.8599 J -0.3720
G03 X 82.9941 Y 43.8733 Z -0.1250 I -1.1917 J -0.6218
G03 X 82.7438 Y 43.9668 Z -0.1250 I -0.2503 J -0.2883
G01 X 82.2252 Y 43.9668 Z -0.1250
G01 X 82.7438 Y 43.9668 Z -0.1250
G00 Z 0.0000 
S000	(---LaserOff 000%)

(End cutting path id: path3847)


(Start cutting path id: path3845)
(Change tool to Default tool)

G00 Z 0.0000 
S000	(---LaserOff 000%)
G00 X 78.9761 Y 38.8818

G01 Z -0.1250 F 100.0000(Penetrate)
S1000	(---Laser 100% ON)
G03 X 78.7089 Y 38.7741 Z -0.1250 I 0.0000 J -0.3853 F 400.0000
G03 X 78.4046 Y 38.3315 Z -0.1250 I 0.9284 J -0.9641
G03 X 78.2254 Y 37.7676 Z -0.1250 I 2.4945 J -1.1033
G03 X 78.1612 Y 37.1250 Z -0.1250 I 3.1851 J -0.6426
G03 X 78.2397 Y 36.2545 Z -0.1250 I 4.8661 J 0.0000
G03 X 78.4152 Y 35.7280 Z -0.1250 I 1.9306 J 0.3510
G03 X 78.7283 Y 35.3155 Z -0.1250 I 1.2548 J 0.6274
G03 X 78.9761 Y 35.2200 Z -0.1250 I 0.2479 J 0.2737
G01 X 80.5319 Y 35.2200 Z -0.1250
G03 X 80.7720 Y 35.3220 Z -0.1250 I 0.0000 J 0.3334
G03 X 81.0928 Y 35.8021 Z -0.1250 I -1.1759 J 1.1331
G03 X 81.2777 Y 36.3986 Z -0.1250 I -2.5863 J 1.1286
G03 X 81.3468 Y 37.1250 Z -0.1250 I -3.7834 J 0.7264
G03 X 81.2853 Y 37.7687 Z -0.1250 I -3.3970 J 0.0000
G03 X 81.1140 Y 38.3315 Z -0.1250 I -2.7610 J -0.5328
G03 X 80.8009 Y 38.7748 Z -0.1250 I -1.2585 J -0.5567
G03 X 80.5319 Y 38.8818 Z -0.1250 I -0.2690 J -0.2845
G01 X 78.9761 Y 38.8818 Z -0.1250
G00 Z 0.0000 
S000	(---LaserOff 000%)

(Change tool to Default tool)

G00 Z 0.0000 
S000	(---LaserOff 000%)
G00 X 78.9761 Y 35.2200

G01 Z -0.1250 F 100.0000(Penetrate)
S1000	(---Laser 100% ON)
G02 X 78.7283 Y 35.3155 Z -0.1250 I -0.0000 J 0.3692 F 400.0000
G02 X 78.4152 Y 35.7280 Z -0.1250 I 0.9417 J 1.0398
G02 X 78.2397 Y 36.2545 Z -0.1250 I 1.7551 J 0.8775
G02 X 78.1612 Y 37.1250 Z -0.1250 I 4.7876 J 0.8705
G02 X 78.2254 Y 37.7676 Z -0.1250 I 3.2493 J -0.0000
G02 X 78.4046 Y 38.3315 Z -0.1250 I 2.6737 J -0.5394
G02 X 78.7089 Y 38.7741 Z -0.1250 I 1.2326 J -0.5215
G02 X 78.9761 Y 38.8818 Z -0.1250 I 0.2673 J -0.2775
G01 X 80.5319 Y 38.8818 Z -0.1250
G02 X 80.8009 Y 38.7748 Z -0.1250 I -0.0000 J -0.3915
G02 X 81.1140 Y 38.3315 Z -0.1250 I -0.9454 J -1.0000
G02 X 81.2853 Y 37.7687 Z -0.1250 I -2.5897 J -1.0956
G02 X 81.3468 Y 37.1250 Z -0.1250 I -3.3355 J -0.6437
G02 X 81.2777 Y 36.3986 Z -0.1250 I -3.8525 J 0.0000
G02 X 81.0928 Y 35.8021 Z -0.1250 I -2.7712 J 0.5321
G02 X 80.7720 Y 35.3220 Z -0.1250 I -1.4967 J 0.6531
G02 X 80.5319 Y 35.2200 Z -0.1250 I -0.2401 J 0.2314
G01 X 82.7438 Y 35.2200 Z -0.1250
G03 X 82.9966 Y 35.3112 Z -0.1250 I 0.0000 J 0.3957
G03 X 83.3047 Y 35.6856 Z -0.1250 I -0.8231 J 0.9915
G03 X 83.4762 Y 36.1825 Z -0.1250 I -1.4772 J 0.7878
G03 X 83.5587 Y 37.1250 Z -0.1250 I -5.3406 J 0.9425
G03 X 83.4972 Y 37.7687 Z -0.1250 I -3.3970 J -0.0000
G03 X 83.3259 Y 38.3315 Z -0.1250 I -2.7610 J -0.5328
G03 X 83.0128 Y 38.7748 Z -0.1250 I -1.2585 J -0.5567
G03 X 82.7438 Y 38.8818 Z -0.1250 I -0.2690 J -0.2845
G01 X 82.2252 Y 38.8818 Z -0.1250
G01 X 82.7438 Y 38.8818 Z -0.1250
G02 X 83.0128 Y 38.7748 Z -0.1250 I -0.0000 J -0.3915
G02 X 83.3259 Y 38.3315 Z -0.1250 I -0.9454 J -1.0000
G02 X 83.4972 Y 37.7687 Z -0.1250 I -2.5897 J -1.0956
G02 X 83.5587 Y 37.1250 Z -0.1250 I -3.3355 J -0.6437
G02 X 83.4762 Y 36.1825 Z -0.1250 I -5.4231 J -0.0000
G02 X 83.3047 Y 35.6856 Z -0.1250 I -1.6486 J 0.2909
G02 X 82.9966 Y 35.3112 Z -0.1250 I -1.1313 J 0.6171
G02 X 82.7438 Y 35.2200 Z -0.1250 I -0.2528 J 0.3045
G01 X 78.9761 Y 35.2200 Z -0.1250
G00 Z 0.0000 
S000	(---LaserOff 000%)

(End cutting path id: path3845)


(Start cutting path id: path3843)
(Change tool to Default tool)

G00 Z 0.0000 
S000	(---LaserOff 000%)
G00 X 83.5587 Y 30.1350

G01 Z -0.1250 F 100.0000(Penetrate)
S1000	(---Laser 100% ON)
G01 X 76.2562 Y 30.1350 Z -0.1250 F 400.0000
G01 X 76.2562 Y 31.8601 Z -0.1250
G02 X 76.3257 Y 32.6394 Z -0.1250 I 4.4066 J 0.0000
G02 X 76.4996 Y 33.2148 Z -0.1250 I 2.5595 J -0.4599
G02 X 76.8113 Y 33.6603 Z -0.1250 I 1.2902 J -0.5707
G02 X 77.0711 Y 33.7651 Z -0.1250 I 0.2599 J -0.2699
G01 X 82.7438 Y 33.7651 Z -0.1250
G02 X 83.0128 Y 33.6581 Z -0.1250 I -0.0000 J -0.3915
G02 X 83.3259 Y 33.2148 Z -0.1250 I -0.9454 J -1.0000
G02 X 83.4895 Y 32.6711 Z -0.1250 I -2.1327 J -0.9384
G02 X 83.5587 Y 31.8601 Z -0.1250 I -4.7183 J -0.8110
G01 X 83.5587 Y 30.1350 Z -0.1250
G00 Z 0.0000 
S000	(---LaserOff 000%)

(Change tool to Default tool)

G00 Z 0.0000 
S000	(---LaserOff 000%)
G00 X 76.2562 Y 30.1350

G01 Z -0.1250 F 100.0000(Penetrate)
S1000	(---Laser 100% ON)
G01 X 83.5587 Y 30.1350 Z -0.1250 F 400.0000
G01 X 83.5587 Y 31.8601 Z -0.1250
G03 X 83.4895 Y 32.6711 Z -0.1250 I -4.7875 J -0.0000
G03 X 83.3259 Y 33.2148 Z -0.1250 I -2.2964 J -0.3947
G03 X 83.0128 Y 33.6581 Z -0.1250 I -1.2585 J -0.5567
G03 X 82.7438 Y 33.7651 Z -0.1250 I -0.2690 J -0.2845
G01 X 77.0711 Y 33.7651 Z -0.1250
G03 X 76.8113 Y 33.6603 Z -0.1250 I 0.0000 J -0.3746
G03 X 76.4996 Y 33.2148 Z -0.1250 I 0.9786 J -1.0162
G03 X 76.3257 Y 32.6394 Z -0.1250 I 2.3856 J -1.0353
G03 X 76.2562 Y 31.8601 Z -0.1250 I 4.3371 J -0.7793
G01 X 76.2562 Y 30.1350 Z -0.1250
G00 Z 0.0000 
S000	(---LaserOff 000%)

(End cutting path id: path3843)


(Start cutting path id: path3841)
(Change tool to Default tool)

G00 Z 0.0000 
S000	(---LaserOff 000%)
G00 X 83.0084 Y 20.8126

G01 Z -0.1250 F 100.0000(Penetrate)
S1000	(---Laser 100% ON)
G03 X 83.2523 Y 20.9277 Z -0.1250 I -0.0000 J 0.3160 F 400.0000
G03 X 83.4529 Y 21.3523 Z -0.1250 I -0.7394 J 0.6089
G03 X 83.5273 Y 21.9057 Z -0.1250 I -4.8707 J 0.9367
G03 X 83.5587 Y 22.7176 Z -0.1250 I -10.4738 J 0.8119
G03 X 83.5271 Y 23.5294 Z -0.1250 I -10.4232 J 0.0000
G03 X 83.4529 Y 24.0723 Z -0.1250 I -4.7253 J -0.3692
G03 X 83.2512 Y 24.5066 Z -0.1250 I -0.9705 J -0.1866
G03 X 83.0084 Y 24.6226 Z -0.1250 I -0.2428 J -0.1961
G01 X 76.8171 Y 24.6226 Z -0.1250
G03 X 76.5743 Y 24.5066 Z -0.1250 I 0.0000 J -0.3122
G03 X 76.3726 Y 24.0723 Z -0.1250 I 0.7688 J -0.6209
G03 X 76.2910 Y 23.5288 Z -0.1250 I 4.2426 J -0.9151
G03 X 76.2562 Y 22.7176 Z -0.1250 I 9.4395 J -0.8112
G03 X 76.2907 Y 21.9063 Z -0.1250 I 9.5489 J -0.0000
G03 X 76.3726 Y 21.3523 Z -0.1250 I 4.5243 J 0.3858
G03 X 76.5732 Y 20.9277 Z -0.1250 I 0.9400 J 0.1843
G03 X 76.8171 Y 20.8126 Z -0.1250 I 0.2439 J 0.2009
G01 X 83.0084 Y 20.8126 Z -0.1250
G00 Z 0.0000 
S000	(---LaserOff 000%)

(Change tool to Default tool)

G00 Z 0.0000 
S000	(---LaserOff 000%)
G00 X 83.0084 Y 24.6226

G01 Z -0.1250 F 100.0000(Penetrate)
S1000	(---Laser 100% ON)
G02 X 83.2512 Y 24.5066 Z -0.1250 I 0.0000 J -0.3122 F 400.0000
G02 X 83.4529 Y 24.0723 Z -0.1250 I -0.7688 J -0.6209
G02 X 83.5271 Y 23.5294 Z -0.1250 I -4.6512 J -0.9120
G02 X 83.5587 Y 22.7176 Z -0.1250 I -10.3916 J -0.8118
G02 X 83.5273 Y 21.9057 Z -0.1250 I -10.5052 J 0.0000
G02 X 83.4529 Y 21.3523 Z -0.1250 I -4.9451 J 0.3833
G02 X 83.2523 Y 20.9277 Z -0.1250 I -0.9400 J 0.1843
G02 X 83.0084 Y 20.8126 Z -0.1250 I -0.2439 J 0.2009
G01 X 76.8171 Y 20.8126 Z -0.1250
G02 X 76.5732 Y 20.9277 Z -0.1250 I 0.0000 J 0.3160
G02 X 76.3726 Y 21.3523 Z -0.1250 I 0.7394 J 0.6089
G02 X 76.2907 Y 21.9063 Z -0.1250 I 4.4424 J 0.9397
G02 X 76.2562 Y 22.7176 Z -0.1250 I 9.5144 J 0.8113
G02 X 76.2910 Y 23.5288 Z -0.1250 I 9.4743 J -0.0000
G02 X 76.3726 Y 24.0723 Z -0.1250 I 4.3242 J -0.3716
G02 X 76.5743 Y 24.5066 Z -0.1250 I 0.9705 J -0.1866
G02 X 76.8171 Y 24.6226 Z -0.1250 I 0.2428 J -0.1961
G01 X 83.0084 Y 24.6226 Z -0.1250
G00 Z 0.0000 
S000	(---LaserOff 000%)

(End cutting path id: path3841)


(Start cutting path id: path3839)
(Change tool to Default tool)

G00 Z 0.0000 
S000	(---LaserOff 000%)
G00 X 83.5587 Y 15.7171

G01 Z -0.1250 F 100.0000(Penetrate)
S1000	(---Laser 100% ON)
G01 X 80.5001 Y 15.7171 Z -0.1250 F 400.0000
G02 X 80.1891 Y 15.8762 Z -0.1250 I 0.0347 J 0.4513
G02 X 79.8651 Y 16.4685 Z -0.1250 I 1.2911 J 1.0911
G03 X 79.8379 Y 16.7641 Z -0.1250 I -7.1499 J -0.5107
G03 X 79.8016 Y 17.0294 Z -0.1250 I -5.7933 J -0.6559
G01 X 79.6958 Y 17.5797 Z -0.1250
G03 X 79.6083 Y 18.0872 Z -0.1250 I -45.8203 J -7.6367
G03 X 79.5582 Y 18.3523 Z -0.1250 I -12.5523 J -2.2353
G03 X 79.4966 Y 18.6252 Z -0.1250 I -4.2680 J -0.8208
G03 X 79.4206 Y 18.8815 Z -0.1250 I -3.8399 J -0.9984
G03 X 79.0897 Y 19.4118 Z -0.1250 I -1.4557 J -0.5400
G03 X 78.7962 Y 19.5376 Z -0.1250 I -0.2935 J -0.2793
G01 X 77.0711 Y 19.5376 Z -0.1250
G03 X 76.8039 Y 19.4299 Z -0.1250 I 0.0000 J -0.3853
G03 X 76.4996 Y 18.9873 Z -0.1250 I 0.9284 J -0.9641
G03 X 76.3275 Y 18.4322 Z -0.1250 I 2.1601 J -0.9741
G03 X 76.2562 Y 17.6326 Z -0.1250 I 4.4499 J -0.7996
G03 X 76.3270 Y 16.8327 Z -0.1250 I 4.5575 J 0.0000
G03 X 76.4996 Y 16.2674 Z -0.1250 I 2.4304 J 0.4333
G03 X 76.8027 Y 15.8344 Z -0.1250 I 1.2015 J 0.5183
G03 X 77.0711 Y 15.7276 Z -0.1250 I 0.2685 J 0.2843
G01 X 77.5897 Y 15.7276 Z -0.1250
G01 X 77.0711 Y 15.7276 Z -0.1250
G02 X 76.8027 Y 15.8344 Z -0.1250 I 0.0000 J 0.3910
G02 X 76.4996 Y 16.2674 Z -0.1250 I 0.8985 J 0.9513
G02 X 76.3270 Y 16.8327 Z -0.1250 I 2.2577 J 0.9986
G02 X 76.2562 Y 17.6326 Z -0.1250 I 4.4868 J 0.8000
G02 X 76.3275 Y 18.4322 Z -0.1250 I 4.5212 J 0.0000
G02 X 76.4996 Y 18.9873 Z -0.1250 I 2.3322 J -0.4191
G02 X 76.8039 Y 19.4299 Z -0.1250 I 1.2326 J -0.5215
G02 X 77.0711 Y 19.5376 Z -0.1250 I 0.2673 J -0.2775
G01 X 78.7962 Y 19.5376 Z -0.1250
G02 X 79.0897 Y 19.4118 Z -0.1250 I 0.0000 J -0.4051
G02 X 79.4206 Y 18.8815 Z -0.1250 I -1.1248 J -1.0704
G02 X 79.4966 Y 18.6252 Z -0.1250 I -3.7640 J -1.2547
G02 X 79.5582 Y 18.3523 Z -0.1250 I -4.2064 J -1.0937
G02 X 79.6083 Y 18.0872 Z -0.1250 I -12.5022 J -2.5004
G02 X 79.6958 Y 17.5797 Z -0.1250 I -45.7328 J -8.1442
G01 X 79.8016 Y 17.0294 Z -0.1250
G02 X 79.8379 Y 16.7641 Z -0.1250 I -5.7571 J -0.9211
G02 X 79.8651 Y 16.4685 Z -0.1250 I -7.1226 J -0.8063
G03 X 80.1891 Y 15.8762 Z -0.1250 I 1.6151 J 0.4988
G03 X 80.5001 Y 15.7171 Z -0.1250 I 0.3457 J 0.2921
G01 X 83.5587 Y 15.7171 Z -0.1250
G01 X 83.5587 Y 19.3365 Z -0.1250
G01 X 83.5587 Y 15.7171 Z -0.1250
G00 Z 0.0000 
S000	(---LaserOff 000%)

(End cutting path id: path3839)


(Start cutting path id: path950)
(Change tool to Default tool)

G00 Z 0.0000 
S000	(---LaserOff 000%)
G00 X 89.7622 Y 11.0622

G01 Z -0.1250 F 100.0000(Penetrate)
S1000	(---Laser 100% ON)
G01 X 88.5420 Y 12.2994 Z -0.1250 F 400.0000
G02 X 88.4812 Y 12.4894 Z -0.1250 I 0.1992 J 0.1684
G02 X 88.5884 Y 12.8602 Z -0.1250 I 0.9741 J -0.0807
G03 X 88.6955 Y 12.9908 Z -0.1250 I -3.1034 J 2.6530
G03 X 88.7869 Y 13.1128 Z -0.1250 I -2.6174 J 2.0566
G01 X 88.9642 Y 13.3782 Z -0.1250
G03 X 89.1318 Y 13.6188 Z -0.1250 I -21.7172 J 15.3003
G03 X 89.2176 Y 13.7464 Z -0.1250 I -6.0118 J 4.1369
G03 X 89.3018 Y 13.8816 Z -0.1250 I -2.0708 J 1.3836
G03 X 89.3738 Y 14.0161 Z -0.1250 I -1.9735 J 1.1432
G03 X 89.4535 Y 14.3648 Z -0.1250 I -0.8191 J 0.3707
G03 X 89.3864 Y 14.5341 Z -0.1250 I -0.2329 J 0.0057
G01 X 88.6982 Y 15.2318 Z -0.1250
G03 X 88.5483 Y 15.2962 Z -0.1250 I -0.1541 J -0.1520
G03 X 88.2506 Y 15.2404 Z -0.1250 I -0.0143 J -0.7453
G03 X 87.9609 Y 15.0858 Z -0.1250 I 0.4759 J -1.2407
G03 X 87.6130 Y 14.7909 Z -0.1250 I 1.4764 J -2.0942
G03 X 87.3224 Y 14.4391 Z -0.1250 I 1.8483 J -1.8230
G03 X 87.1655 Y 14.1402 Z -0.1250 I 1.1706 J -0.8052
G03 X 87.1135 Y 13.8422 Z -0.1250 I 0.7061 J -0.2767
G03 X 87.1781 Y 13.6907 Z -0.1250 I 0.2246 J 0.0063
G01 X 87.3850 Y 13.4809 Z -0.1250
G01 X 87.1781 Y 13.6907 Z -0.1250
G02 X 87.1135 Y 13.8422 Z -0.1250 I 0.1600 J 0.1578
G02 X 87.1655 Y 14.1402 Z -0.1250 I 0.7581 J 0.0214
G02 X 87.3224 Y 14.4391 Z -0.1250 I 1.3275 J -0.5063
G02 X 87.6130 Y 14.7909 Z -0.1250 I 2.1390 J -1.4713
G02 X 87.9609 Y 15.0858 Z -0.1250 I 1.8243 J -1.7993
G02 X 88.2506 Y 15.2404 Z -0.1250 I 0.7657 J -1.0861
G02 X 88.5483 Y 15.2962 Z -0.1250 I 0.2834 J -0.6895
G02 X 88.6982 Y 15.2318 Z -0.1250 I -0.0041 J -0.2163
G01 X 89.3864 Y 14.5341 Z -0.1250
G02 X 89.4535 Y 14.3648 Z -0.1250 I -0.1659 J -0.1636
G02 X 89.3738 Y 14.0161 Z -0.1250 I -0.8988 J 0.0220
G02 X 89.3018 Y 13.8816 Z -0.1250 I -2.0455 J 1.0088
G02 X 89.2176 Y 13.7464 Z -0.1250 I -2.1550 J 1.2484
