(======HEADER=====================)
(G00 – Rapid Positioning------------Laser OFF)
(G01 – Linear interpolation------------ )
(G02 – Circular interpolation CCW------------ )
(G02 – Circular interpolation CW------------ )
(Gcode G91 & Gcode G90: CNC Absolute and Incremental Programming)
(S00 - S1000 Spindle speed)
(M03 – Spindle on in a clockwise)
(======POST PROCESSING===========)
(REPLACE (CUT); (CUT) \r\n S1000	(---Laser 100% ON))
(REPLACE F0.166667 ; F1000)
(REPLACE F8.333333 ; F1000)
(REPLACE F1000 ; F1000)
(REPLACE Z-5.000000 ;  )
(REPLACE Z-5.000000 ; \r\n S1000	(---Laser 100% ON))
(======START=====================)
(======CODE MANDATORY============)
M3 S0  (M03 – Spindle on in a clockwise)
(================================)
S0 		(--Laser 000% OFF)
G0 F1000 X0.000000 Y0.000000
S1000	(---Laser 100% ON)
S0 		(--Laser 000% OFF)
(=BEGIN Engrave=========================)
(Engrave)
G0 F1000 Z6.000000
S0 		(--Laser 000% OFF)
G0 F1000 Z6.000000
S0 		(--Laser 000% OFF)
G0 F1000 X53.312100 Y98.010300
G0 F1000 Z4.000000 (CUT)
G1 F1000 X53.312100 Y98.010300 Z-5.000000
S1000	(---Laser 100% ON)
G2 F1000 I14.500000 J0.000000 K0.000000 X53.312100 Y98.010300 Z-5.000000
G0 F1000 Z6.000000
S0 		(--Laser 000% OFF)
G0 F1000 Z6.000000
S0 		(--Laser 000% OFF)
G0 F1000 X28.563400 Y73.261600
G0 F1000 Z4.000000 (CUT)
G1 F1000 X28.563400 Y73.261600 Z-5.000000
S1000	(---Laser 100% ON)
G2 F1000 I14.500000 J0.000000 K0.000000 X28.563400 Y73.261600 Z-5.000000
G0 F1000 Z6.000000
S0 		(--Laser 000% OFF)
G0 F1000 Z6.000000
S0 		(--Laser 000% OFF)
G0 F1000 X53.312100 Y48.512900
G0 F1000 Z4.000000 (CUT)
G1 F1000 X53.312100 Y48.512900 Z-5.000000
S1000	(---Laser 100% ON)
G2 F1000 I14.500000 J0.000000 K0.000000 X53.312100 Y48.512900 Z-5.000000
G0 F1000 Z6.000000
S0 		(--Laser 000% OFF)
G0 F1000 Z6.000000
S0 		(--Laser 000% OFF)
G0 F1000 X78.060900 Y73.261600
G0 F1000 Z4.000000 (CUT)
G1 F1000 X78.060900 Y73.261600 Z-5.000000
S1000	(---Laser 100% ON)
G2 F1000 I14.500000 J0.000000 K0.000000 X78.060900 Y73.261600 Z-5.000000
G0 F1000 Z6.000000
S0 		(--Laser 000% OFF)
G0 F1000 Z6.000000
S0 		(--Laser 000% OFF)
G0 F1000 X87.120000 Y39.454200
G0 F1000 Z4.000000 (CUT)
G1 F1000 X87.120000 Y39.454200 Z-5.000000
S1000	(---Laser 100% ON)
G2 F1000 I14.500000 J0.000000 K0.000000 X87.120000 Y39.454200 Z-5.000000
G0 F1000 Z6.000000
S0 		(--Laser 000% OFF)
G0 F1000 Z6.000000
S0 		(--Laser 000% OFF)
G0 F1000 X117.362000 Y55.761600
G0 F1000 Z4.000000 (CUT)
G1 F1000 X117.362000 Y55.761600 Z-5.000000
S1000	(---Laser 100% ON)
G2 F1000 I14.000000 J0.000000 K0.000000 X117.362000 Y55.761600 Z-5.000000
G0 F1000 Z6.000000
S0 		(--Laser 000% OFF)
G0 F1000 Z6.000000
S0 		(--Laser 000% OFF)
G0 F1000 X117.362000 Y90.761600
G0 F1000 Z4.000000 (CUT)
G1 F1000 X117.362000 Y90.761600 Z-5.000000
S1000	(---Laser 100% ON)
G2 F1000 I14.000000 J0.000000 K0.000000 X117.362000 Y90.761600 Z-5.000000
G0 F1000 Z6.000000
S0 		(--Laser 000% OFF)
G0 F1000 Z6.000000
S0 		(--Laser 000% OFF)
G0 F1000 X87.120000 Y107.069000
G0 F1000 Z4.000000 (CUT)
G1 F1000 X87.120000 Y107.069000 Z-5.000000
S1000	(---Laser 100% ON)
G2 F1000 I14.500000 J0.000000 K0.000000 X87.120000 Y107.069000 Z-5.000000
G0 F1000 Z6.000000
S0 		(--Laser 000% OFF)
G0 F1000 Z6.000000
S0 		(--Laser 000% OFF)
G0 F1000 X113.786000 Y172.435000
G0 F1000 Z4.000000 (CUT)
G1 F1000 X113.786000 Y172.435000 Z-5.000000
S1000	(---Laser 100% ON)
G2 F1000 I14.500000 J0.000000 K0.000000 X113.786000 Y172.435000 Z-5.000000
G0 F1000 Z6.000000
S0 		(--Laser 000% OFF)
G0 F1000 Z6.000000
S0 		(--Laser 000% OFF)
G0 F1000 X113.786000 Y212.435000
G0 F1000 Z4.000000 (CUT)
G1 F1000 X113.786000 Y212.435000 Z-5.000000
S1000	(---Laser 100% ON)
G2 F1000 I14.500000 J0.000000 K0.000000 X113.786000 Y212.435000 Z-5.000000
G0 F1000 Z6.000000
S0 		(--Laser 000% OFF)
G0 F1000 Z6.000000
S0 		(--Laser 000% OFF)
G0 F1000 X54.629000 Y192.435000
G0 F1000 Z4.000000 (CUT)
G1 F1000 X54.629000 Y192.435000 Z-5.000000
S1000	(---Laser 100% ON)
G2 F1000 I14.500000 J0.000000 K0.000000 X54.629000 Y192.435000 Z-5.000000
G0 Z6.000000


(=END Engrave===========================)
(======END============)
(G00 – Rapid Positioning------------Laser OFF)
S0 
G0 Z10.000000
