(======HEADER=====================)
(G00 – Rapid Positioning------------Laser OFF)
(G01 – Linear interpolation------------ )
(G02 – Circular interpolation CCW------------ )
(G02 – Circular interpolation CW------------ )
(Gcode G91 & Gcode G90: CNC Absolute and Incremental Programming)
(S00 - S1000 Spindle speed)
(M03 – Spindle on in a clockwise)
(======POST PROCESSING===========)
(REPLACE (CUT); (CUT) \r\n S1000	(---Laser 100% ON))
(REPLACE F0.166667 ; F1000)
(REPLACE F8.333333 ; F1000)
(REPLACE F1000 ; F1000)
(REPLACE Z-5.000000 ;  )
(REPLACE Z-5.000000 ; \r\n S1000	(---Laser 100% ON))
(======START=====================)
(======CODE MANDATORY============)
M3 S0  (M03 – Spindle on in a clockwise)
(================================)
S0 		(--Laser 000% OFF)
G0 F1000 X0.000000 Y0.000000
S1000	(---Laser 100% ON)
S0 		(--Laser 000% OFF)
(=BEGIN Engrave=========================)
(Engrave)

(Engrave001)
G0 F1000 Z6
S000	(---LaserOff 000%).000000
G0 F1000 Z6
S000	(---LaserOff 000%).000000
G0 F1000 X52.474929 Y4.917753
G0 F1000 Z4
S1000	(---LaserOn 100% ON).000000
G1 F1000 X52.474929 Y4.917753 Z-5.000000
G1 F1000 X4.974929 Y4.917753 Z-5.000000
G1 F1000 X4.974929 Y31.417753 Z-5.000000
G1 F1000 X4.974929 Y57.917753 Z-5.000000
G1 F1000 X99.974929 Y57.917753 Z-5.000000
G1 F1000 X99.974929 Y4.917753 Z-5.000000
G1 F1000 X52.474929 Y4.917753 Z-5.000000
G1 F1000 X52.474929 Y9.106092 Z-5.000000
G0 F1000 Z6
S000	(---LaserOff 000%).000000
G0 F1000 Z6
S000	(---LaserOff 000%).000000
G0 F1000 X4.974929 Y31.417753
G0 F1000 Z4
S1000	(---LaserOn 100% ON).000000
G1 F1000 X4.974929 Y31.417753 Z-5.000000
G1 F1000 X9.163267 Y31.417753 Z-5.000000
G0 F1000 Z6
S000	(---LaserOff 000%).000000
G0 F1000 Z6
S000	(---LaserOff 000%).000000
G0 F1000 X64.974929 Y31.417753
G0 F1000 Z4
S1000	(---LaserOn 100% ON).000000
G1 F1000 X64.974929 Y31.417753 Z-5.000000
G3 F1000 I-12.500000 J0.000000 K0.000000 X64.974929 Y31.417753 Z-5.000000
G0 F1000 Z6
S000	(---LaserOff 000%).000000
G0 F1000 Z6
S000	(---LaserOff 000%).000000
G0 F1000 X10.474929 Y54.017753
G0 F1000 Z4
S1000	(---LaserOn 100% ON).000000
G1 F1000 X10.474929 Y54.017753 Z-5.000000
G3 F1000 I0.000000 J-2.600000 K0.000000 X10.474929 Y48.817753 Z-5.000000
G1 F1000 X13.074929 Y48.817753 Z-5.000000
G3 F1000 I0.000000 J2.600000 K0.000000 X13.074929 Y54.017753 Z-5.000000
G1 F1000 X10.474929 Y54.017753 Z-5.000000
G0 F1000 Z6
S000	(---LaserOff 000%).000000
G0 F1000 Z6
S000	(---LaserOff 000%).000000
G0 F1000 X94.474929 Y48.817753
G0 F1000 Z4
S1000	(---LaserOn 100% ON).000000
G1 F1000 X94.474929 Y48.817753 Z-5.000000
G3 F1000 I0.000000 J2.600000 K0.000000 X94.474929 Y54.017753 Z-5.000000
G1 F1000 X91.874929 Y54.017753 Z-5.000000
G3 F1000 I0.000000 J-2.600000 K0.000000 X91.874929 Y48.817753 Z-5.000000
G1 F1000 X94.474929 Y48.817753 Z-5.000000
G0 F1000 Z6
S000	(---LaserOff 000%).000000
G0 F1000 Z6
S000	(---LaserOff 000%).000000
G0 F1000 X10.474929 Y8.817753
G0 F1000 Z4
S1000	(---LaserOn 100% ON).000000
G1 F1000 X10.474929 Y8.817753 Z-5.000000
G1 F1000 X13.074929 Y8.817753 Z-5.000000
G3 F1000 I0.000000 J2.600000 K0.000000 X13.074929 Y14.017753 Z-5.000000
G1 F1000 X10.474929 Y14.017753 Z-5.000000
G3 F1000 I0.000000 J-2.600000 K0.000000 X10.474929 Y8.817753 Z-5.000000
G0 F1000 Z6
S000	(---LaserOff 000%).000000
G0 F1000 Z6
S000	(---LaserOff 000%).000000
G0 F1000 X91.874929 Y14.017753
G0 F1000 Z4
S1000	(---LaserOn 100% ON).000000
G1 F1000 X91.874929 Y14.017753 Z-5.000000
G3 F1000 I0.000000 J-2.600000 K0.000000 X91.874929 Y8.817753 Z-5.000000
G1 F1000 X94.474929 Y8.817753 Z-5.000000
G3 F1000 I0.000000 J2.600000 K0.000000 X94.474929 Y14.017753 Z-5.000000
G1 F1000 X91.874929 Y14.017753 Z-5.000000
G0 F1000 Z6
S000	(---LaserOff 000%).000000
G0 F1000 Z6
S000	(---LaserOff 000%).000000
G0 F1000 X99.974929 Y31.417753
G0 F1000 Z4
S1000	(---LaserOn 100% ON).000000
G1 F1000 X99.974929 Y31.417753 Z-5.000000
G1 F1000 X95.786590 Y31.417753 Z-5.000000
G0 F1000 Z6
S000	(---LaserOff 000%).000000
G0 F1000 Z6
S000	(---LaserOff 000%).000000
G0 F1000 X52.474929 Y57.917753
G0 F1000 Z4
S1000	(---LaserOn 100% ON).000000
G1 F1000 X52.474929 Y57.917753 Z-5.000000
G1 F1000 X52.474929 Y53.729414 Z-5.000000
G0 Z6.000000


(=END Engrave===========================)
(======END============)
(G00 – Rapid Positioning------------Laser OFF)
S0 
G0 Z10.000000
