(======HEADER=====================)
(G00 – Rapid Positioning------------Laser OFF)
(G01 – Linear interpolation------------ )
(G02 – Circular interpolation CCW------------ )
(G02 – Circular interpolation CW------------ )
(Gcode G91 & Gcode G90: CNC Absolute and Incremental Programming)
(S00 - S1000 Spindle speed)
(M03 – Spindle on in a clockwise)
(======POST PROCESSING===========)
(REPLACE (CUT); (CUT) \r\n S1000	(---Laser 100% ON))
(REPLACE F0.166667 ; F1000)
(REPLACE F8.333333 ; F1000)
(REPLACE F1000 ; F1000)
(REPLACE Z-5.000000 ;  )
(REPLACE Z-5.000000 ; \r\n S1000	(---Laser 100% ON))
(======START=====================)
(======CODE MANDATORY============)
M3 S0  (M03 – Spindle on in a clockwise)
(================================)
S0 		(--Laser 000% OFF)
G0 F1000 X0.000000 Y0.000000
S1000	(---Laser 100% ON)
S0 		(--Laser 000% OFF)
(=BEGIN Engrave=========================)
(Engrave004)
(Engrave007)
(Engrave009)
G0 F1000 G0 F1000 Z6 
S0 		(--Laser 000% OFF).000000
G0 F1000 G0 F1000 Z6 
S0 		(--Laser 000% OFF).000000
G0 F1000 X41.317780 Y7.773328
G0 F1000 Z4 
 S1000	(---LaserOn 100% ON)
G1 F1000 X41.317780 Y7.773328 Z-5.000000
G1 F1000 X41.317780 Y6.308043 Z-5.000000
G0 F1000 G0 F1000 Z6 
S0 		(--Laser 000% OFF).000000
G0 F1000 G0 F1000 Z6 
S0 		(--Laser 000% OFF).000000
G0 F1000 X41.317780 Y7.127254
G0 F1000 Z4 
 S1000	(---LaserOn 100% ON)
G1 F1000 X41.317780 Y7.127254 Z-5.000000
G1 F1000 X40.523476 Y7.811976 Z-5.000000
G0 F1000 G0 F1000 Z6 
S0 		(--Laser 000% OFF).000000
G0 F1000 G0 F1000 Z6 
S0 		(--Laser 000% OFF).000000
G0 F1000 X45.626606 Y7.648571
G0 F1000 Z4 
 S1000	(---LaserOn 100% ON)
G1 F1000 X45.626606 Y7.648571 Z-5.000000
G1 F1000 X45.626606 Y6.289628 Z-5.000000
G1 F1000 X46.114399 Y6.655471 Z-5.000000
G1 F1000 X45.626606 Y7.077605 Z-5.000000
G1 F1000 X46.256672 Y7.366835 Z-5.000000
G1 F1000 X45.626606 Y7.648571 Z-5.000000
G0 F1000 G0 F1000 Z6 
S0 		(--Laser 000% OFF).000000
G0 F1000 G0 F1000 Z6 
S0 		(--Laser 000% OFF).000000
G0 F1000 X51.006369 Y6.374864
G0 F1000 Z4 
 S1000	(---LaserOn 100% ON)
G1 F1000 X51.006369 Y6.374864 Z-5.000000
G1 F1000 X51.332805 Y7.469389 Z-5.000000
G1 F1000 X51.834068 Y6.423016 Z-5.000000
G0 F1000 G0 F1000 Z6 
S0 		(--Laser 000% OFF).000000
G0 F1000 G0 F1000 Z6 
S0 		(--Laser 000% OFF).000000
G0 F1000 X51.147146 Y6.846883
G0 F1000 Z4 
 S1000	(---LaserOn 100% ON)
G1 F1000 X51.147146 Y6.846883 Z-5.000000
G1 F1000 X51.387890 Y6.824574 Z-5.000000
G0 F1000 G0 F1000 Z6 
S0 		(--Laser 000% OFF).000000
G0 F1000 G0 F1000 Z6 
S0 		(--Laser 000% OFF).000000
G0 F1000 X56.404430 Y7.374604
G0 F1000 Z4 
 S1000	(---LaserOn 100% ON)
G1 F1000 X56.404430 Y7.374604 Z-5.000000
G1 F1000 X56.745029 Y6.884139 Z-5.000000
G1 F1000 X56.349934 Y6.434546 Z-5.000000
G0 F1000 G0 F1000 Z6 
S0 		(--Laser 000% OFF).000000
G0 F1000 G0 F1000 Z6 
S0 		(--Laser 000% OFF).000000
G0 F1000 X57.317242 Y7.374604
G0 F1000 Z4 
 S1000	(---LaserOn 100% ON)
G1 F1000 X57.317242 Y7.374604 Z-5.000000
G1 F1000 X56.935768 Y6.884139 Z-5.000000
G1 F1000 X57.262745 Y6.461794 Z-5.000000
G0 F1000 G0 F1000 Z6 
S0 		(--Laser 000% OFF).000000
G0 F1000 G0 F1000 Z6 
S0 		(--Laser 000% OFF).000000
G0 F1000 X61.780979 Y6.979978
G0 F1000 Z4 
 S1000	(---LaserOn 100% ON)
G1 F1000 X61.780979 Y6.979978 Z-5.000000
G1 F1000 X61.780979 Y5.985999 Z-5.000000
G1 F1000 X62.531296 Y5.985999 Z-5.000000
G0 F1000 G0 F1000 Z6 
S0 		(--Laser 000% OFF).000000
G0 F1000 G0 F1000 Z6 
S0 		(--Laser 000% OFF).000000
G0 F1000 X67.371269 Y7.116834
G0 F1000 Z4 
 S1000	(---LaserOn 100% ON)
G1 F1000 X67.371269 Y7.116834 Z-5.000000
G1 F1000 X67.371269 Y6.024719 Z-5.000000
G1 F1000 X68.061302 Y6.024719 Z-5.000000
G0 F1000 G0 F1000 Z6 
S0 		(--Laser 000% OFF).000000
G0 F1000 G0 F1000 Z6 
S0 		(--Laser 000% OFF).000000
G0 F1000 X62.909199 Y6.961940
G0 F1000 Z4 
 S1000	(---LaserOn 100% ON)
G1 F1000 X62.909199 Y6.961940 Z-5.000000
G1 F1000 X62.909199 Y5.986357 Z-5.000000
G0 F1000 G0 F1000 Z6 
S0 		(--Laser 000% OFF).000000
G0 F1000 G0 F1000 Z6 
S0 		(--Laser 000% OFF).000000
G0 F1000 X63.285004 Y6.959653
G0 F1000 Z4 
 S1000	(---LaserOn 100% ON)
G1 F1000 X63.285004 Y6.959653 Z-5.000000
G1 F1000 X63.285004 Y5.984070 Z-5.000000
G0 F1000 G0 F1000 Z6 
S0 		(--Laser 000% OFF).000000
G0 F1000 G0 F1000 Z6 
S0 		(--Laser 000% OFF).000000
G0 F1000 X68.406822 Y7.083889
G0 F1000 Z4 
 S1000	(---LaserOn 100% ON)
G1 F1000 X68.406822 Y7.083889 Z-5.000000
G1 F1000 X68.406822 Y6.024719 Z-5.000000
G0 F1000 G0 F1000 Z6 
S0 		(--Laser 000% OFF).000000
G0 F1000 G0 F1000 Z6 
S0 		(--Laser 000% OFF).000000
G0 F1000 X72.827637 Y6.027006
G0 F1000 Z4 
 S1000	(---LaserOn 100% ON)
G1 F1000 X72.827637 Y6.027006 Z-5.000000
G1 F1000 X72.827637 Y7.165187 Z-5.000000
G1 F1000 X73.337555 Y6.938475 Z-5.000000
G1 F1000 X72.951385 Y6.511657 Z-5.000000
G1 F1000 X73.337555 Y6.023865 Z-5.000000
G0 F1000 G0 F1000 Z6 
S0 		(--Laser 000% OFF).000000
G0 F1000 G0 F1000 Z6 
S0 		(--Laser 000% OFF).000000
G0 F1000 X73.906647 Y6.979124
G0 F1000 Z4 
 S1000	(---LaserOn 100% ON)
G1 F1000 X73.906647 Y6.979124 Z-5.000000
G1 F1000 X73.906647 Y5.966032 Z-5.000000
G0 F1000 G0 F1000 Z6 
S0 		(--Laser 000% OFF).000000
G0 F1000 G0 F1000 Z6 
S0 		(--Laser 000% OFF).000000
G0 F1000 X78.843742 Y5.986357
G0 F1000 Z4 
 S1000	(---LaserOn 100% ON)
G1 F1000 X78.843742 Y5.986357 Z-5.000000
G1 F1000 X78.843742 Y7.124538 Z-5.000000
G1 F1000 X79.412834 Y6.799344 Z-5.000000
G1 F1000 X79.046989 Y6.494473 Z-5.000000
G1 F1000 X79.372185 Y5.925383 Z-5.000000
G0 F1000 G0 F1000 Z6 
S0 		(--Laser 000% OFF).000000
G0 F1000 G0 F1000 Z6 
S0 		(--Laser 000% OFF).000000
G0 F1000 X79.839645 Y7.144863
G0 F1000 Z4 
 S1000	(---LaserOn 100% ON)
G1 F1000 X79.839645 Y7.144863 Z-5.000000
G1 F1000 X79.839645 Y5.925383 Z-5.000000
G0 F1000 G0 F1000 Z6 
S0 		(--Laser 000% OFF).000000
G0 F1000 G0 F1000 Z6 
S0 		(--Laser 000% OFF).000000
G0 F1000 X80.164841 Y7.124538
G0 F1000 Z4 
 S1000	(---LaserOn 100% ON)
G1 F1000 X80.164841 Y7.124538 Z-5.000000
G1 F1000 X80.164841 Y5.945707 Z-5.000000
G0 F1000 G0 F1000 Z6 
S0 		(--Laser 000% OFF).000000
G0 F1000 G0 F1000 Z6 
S0 		(--Laser 000% OFF).000000
G0 F1000 X84.901840 Y7.061667
G0 F1000 Z4 
 S1000	(---LaserOn 100% ON)
G1 F1000 X84.901840 Y7.061667 Z-5.000000
G1 F1000 X84.452545 Y6.745499 Z-5.000000
G1 F1000 X84.935120 Y6.296207 Z-5.000000
G1 F1000 X84.502472 Y5.980039 Z-5.000000
G0 F1000 G0 F1000 Z6 
S0 		(--Laser 000% OFF).000000
G0 F1000 G0 F1000 Z6 
S0 		(--Laser 000% OFF).000000
G0 F1000 X90.337837 Y7.201484
G0 F1000 Z4 
 S1000	(---LaserOn 100% ON)
G1 F1000 X90.337837 Y7.201484 Z-5.000000
G1 F1000 X89.710922 Y6.795420 Z-5.000000
G1 F1000 X90.410431 Y6.180231 Z-5.000000
G1 F1000 X89.850044 Y5.982005 Z-5.000000
G0 F1000 G0 F1000 Z6 
S0 		(--Laser 000% OFF).000000
G0 F1000 G0 F1000 Z6 
S0 		(--Laser 000% OFF).000000
G0 F1000 X90.559586 Y6.795420
G0 F1000 Z4 
 S1000	(---LaserOn 100% ON)
G1 F1000 X90.559586 Y6.795420 Z-5.000000
G1 F1000 X91.258484 Y6.795420 Z-5.000000
G0 F1000 G0 F1000 Z6 
S0 		(--Laser 000% OFF).000000
G0 F1000 G0 F1000 Z6 
S0 		(--Laser 000% OFF).000000
G0 F1000 X90.909035 Y6.795420
G0 F1000 Z4 
 S1000	(---LaserOn 100% ON)
G1 F1000 X90.909035 Y6.795420 Z-5.000000
G1 F1000 X90.909035 Y5.813635 Z-5.000000
G0 F1000 G0 F1000 Z6 
S0 		(--Laser 000% OFF).000000
G0 F1000 G0 F1000 Z6 
S0 		(--Laser 000% OFF).000000
G0 F1000 X86.069656 Y7.059211
G0 F1000 Z4 
 S1000	(---LaserOn 100% ON)
G1 F1000 X86.069656 Y7.059211 Z-5.000000
G1 F1000 X85.334488 Y6.551095 Z-5.000000
G1 F1000 X86.089981 Y6.551095 Z-5.000000
G0 F1000 G0 F1000 Z6 
S0 		(--Laser 000% OFF).000000
G0 F1000 G0 F1000 Z6 
S0 		(--Laser 000% OFF).000000
G0 F1000 X85.334488 Y6.551095
G0 F1000 Z4 
 S1000	(---LaserOn 100% ON)
G1 F1000 X85.334488 Y6.551095 Z-5.000000
G1 F1000 X86.008682 Y6.002328 Z-5.000000
G0 F1000 G0 F1000 Z6 
S0 		(--Laser 000% OFF).000000
G0 F1000 G0 F1000 Z6 
S0 		(--Laser 000% OFF).000000
G0 F1000 X95.707123 Y6.944800
G0 F1000 Z4 
 S1000	(---LaserOn 100% ON)
G1 F1000 X95.707123 Y6.944800 Z-5.000000
G1 F1000 X94.941666 Y6.462228 Z-5.000000
G1 F1000 X95.657204 Y5.929734 Z-5.000000
G0 F1000 G0 F1000 Z6 
S0 		(--Laser 000% OFF).000000
G0 F1000 G0 F1000 Z6 
S0 		(--Laser 000% OFF).000000
G0 F1000 X96.222977 Y6.961441
G0 F1000 Z4 
 S1000	(---LaserOn 100% ON)
G1 F1000 X96.222977 Y6.961441 Z-5.000000
G1 F1000 X96.222977 Y5.979655 Z-5.000000
G0 F1000 G0 F1000 Z6 
S0 		(--Laser 000% OFF).000000
G0 F1000 G0 F1000 Z6 
S0 		(--Laser 000% OFF).000000
G0 F1000 X100.861923 Y6.929064
G0 F1000 Z4 
 S1000	(---LaserOn 100% ON)
G1 F1000 X100.861923 Y6.929064 Z-5.000000
G1 F1000 X100.861923 Y5.879813 Z-5.000000
G0 F1000 G0 F1000 Z6 
S0 		(--Laser 000% OFF).000000
G0 F1000 G0 F1000 Z6 
S0 		(--Laser 000% OFF).000000
G0 F1000 X101.431435 Y6.944800
G0 F1000 Z4 
 S1000	(---LaserOn 100% ON)
G1 F1000 X101.431435 Y6.944800 Z-5.000000
G1 F1000 X101.431435 Y5.846532 Z-5.000000
G0 F1000 G0 F1000 Z6 
S0 		(--Laser 000% OFF).000000
G0 F1000 G0 F1000 Z6 
S0 		(--Laser 000% OFF).000000
G0 F1000 X100.861923 Y6.412306
G0 F1000 Z4 
 S1000	(---LaserOn 100% ON)
G1 F1000 X100.861923 Y6.412306 Z-5.000000
G1 F1000 X101.431435 Y6.412306 Z-5.000000
G0 G0 F1000 Z6 
S0 		(--Laser 000% OFF).000000

(=END Engrave===========================)
(======END============)
(G00 – Rapid Positioning------------Laser OFF)
S0 
G0 Z10.000000
